; generated by Slic3r 1.3.0 on 2023-05-04 at 22:16:14

; external perimeters extrusion width = 0.44mm (4.26mm^3/s)
; perimeters extrusion width = 0.51mm (5.03mm^3/s)
; infill extrusion width = 0.50mm (4.93mm^3/s)
; solid infill extrusion width = 0.51mm (5.03mm^3/s)
; top infill extrusion width = 0.51mm (5.03mm^3/s)

M107
M190 S60 ; set bed temperature and wait for it to be reached
M104 S230 ; set temperature
G28 ; home all axes

; Filament gcode

M109 S230 ; set temperature and wait for it to be reached
G21 ; set units to millimeters
G90 ; use absolute coordinates
M82 ; use absolute distances for extrusion
G92 E0
G1 E-4.00000 F2400.00000
G92 E0
G1 Z0.300 F7800.000
G1 X44.977 Y64.263 F7800.000
G1 E4.00000 F2400.00000
G1 F2400
G1 X47.159 Y63.381 E4.09560
G1 X48.645 Y63.221 E4.15629
G1 X161.649 Y63.221 E8.74574
G1 X163.969 Y63.618 E8.84135
G1 X166.026 Y64.764 E8.93695
G1 X167.584 Y66.529 E9.03256
G1 X168.466 Y68.711 E9.12816
G1 X168.626 Y70.198 E9.18889
G1 X168.623 Y137.764 E11.93295
G1 X168.226 Y140.084 E12.02856
G1 X167.080 Y142.140 E12.12416
G1 X165.315 Y143.698 E12.21977
G1 X163.132 Y144.580 E12.31537
G1 X161.847 Y144.738 E12.36795
G1 X91.125 Y146.776 E15.24140
G1 X48.638 Y146.779 E16.96694
G1 X46.317 Y146.382 E17.06254
G1 X44.261 Y145.236 E17.15815
G1 X42.703 Y143.471 E17.25375
G1 X41.821 Y141.289 E17.34936
G1 X41.661 Y139.802 E17.41010
G1 X41.668 Y70.197 E20.23697
G1 X42.065 Y67.876 E20.33258
G1 X43.212 Y65.820 E20.42818
G1 X44.932 Y64.302 E20.52135
G1 X45.288 Y64.455 F7800.000
G1 F2400
G1 X47.443 Y63.656 E20.61468
G1 X48.645 Y63.546 E20.66370
G1 X161.649 Y63.546 E25.25315
G1 X163.913 Y63.943 E25.34648
G1 X165.906 Y65.087 E25.43981
G1 X167.391 Y66.840 E25.53314
G1 X168.191 Y68.995 E25.62647
G1 X168.300 Y70.198 E25.67552
G1 X168.298 Y137.764 E28.41959
G1 X167.901 Y140.027 E28.51292
G1 X166.757 Y142.021 E28.60625
G1 X165.003 Y143.506 E28.69958
G1 X161.838 Y144.412 E28.83329
G1 X91.116 Y146.451 E31.70674
G1 X48.638 Y146.454 E33.43190
G1 X46.374 Y146.057 E33.52523
G1 X44.381 Y144.913 E33.61856
G1 X42.896 Y143.160 E33.71189
G1 X42.096 Y141.005 E33.80522
G1 X41.986 Y139.802 E33.85429
G1 X41.994 Y70.197 E36.68117
G1 X42.391 Y67.933 E36.77450
G1 X43.535 Y65.940 E36.86783
G1 X45.243 Y64.494 E36.95872
G1 X45.599 Y64.654 F7800.000
G1 F2400
G1 X48.645 Y63.872 E37.08644
G1 X161.649 Y63.872 E41.67589
G1 X163.854 Y64.269 E41.76689
G1 X165.783 Y65.409 E41.85789
G1 X167.193 Y67.151 E41.94889
G1 X167.975 Y70.198 E42.07664
G1 X167.972 Y137.764 E44.82071
G1 X167.575 Y139.969 E44.91171
G1 X166.434 Y141.898 E45.00271
G1 X164.693 Y143.307 E45.09370
G1 X161.829 Y144.087 E45.21425
G1 X91.106 Y146.126 E48.08770
G1 X48.638 Y146.128 E49.81248
G1 X46.432 Y145.731 E49.90348
G1 X44.504 Y144.591 E49.99448
G1 X43.094 Y142.849 E50.08548
G1 X42.312 Y139.802 E50.21324
G1 X42.319 Y70.197 E53.04012
G1 X42.716 Y67.992 E53.13112
G1 X43.857 Y66.063 E53.22212
G1 X45.552 Y64.691 E53.31068
G1 E49.31068 F2400.00000
G92 E0
G1 X60.060 Y133.840 F7800.000
G1 E4.00000 F2400.00000
G1 F2400
G1 X60.002 Y134.433 E4.02420
G1 X59.826 Y135.012 E4.04879
G1 X59.540 Y135.546 E4.07339
G1 X59.156 Y136.014 E4.09798
G1 X58.688 Y136.399 E4.12258
G1 X58.154 Y136.684 E4.14717
G1 X57.575 Y136.860 E4.17177
G1 X56.972 Y136.919 E4.19637
G1 X56.369 Y136.860 E4.22096
G1 X55.790 Y136.684 E4.24556
G1 X55.256 Y136.399 E4.27015
G1 X54.787 Y136.014 E4.29475
G1 X54.403 Y135.546 E4.31934
G1 X54.118 Y135.012 E4.34394
G1 X53.942 Y134.433 E4.36853
G1 X53.884 Y133.840 E4.39273
G1 X53.939 Y133.103 E4.42272
G1 X54.118 Y132.515 E4.44771
G1 X54.403 Y131.980 E4.47231
G1 X54.787 Y131.512 E4.49690
G1 X55.256 Y131.128 E4.52150
G1 X55.790 Y130.843 E4.54610
G1 X56.369 Y130.667 E4.57069
G1 X56.972 Y130.607 E4.59529
G1 X57.574 Y130.667 E4.61988
G1 X58.154 Y130.843 E4.64448
G1 X58.688 Y131.128 E4.66907
G1 X59.156 Y131.512 E4.69367
G1 X59.540 Y131.980 E4.71826
G1 X59.826 Y132.515 E4.74286
G1 X60.005 Y133.103 E4.76785
G1 X60.056 Y133.780 E4.79540
G1 X59.733 Y133.836 F7800.000
G1 F2400
G1 X59.681 Y134.369 E4.81715
G1 X59.524 Y134.887 E4.83914
G1 X59.268 Y135.365 E4.86113
G1 X58.925 Y135.783 E4.88312
G1 X58.506 Y136.127 E4.90511
G1 X58.029 Y136.382 E4.92710
G1 X57.511 Y136.539 E4.94909
G1 X56.972 Y136.592 E4.97108
G1 X56.433 Y136.539 E4.99307
G1 X55.915 Y136.382 E5.01506
G1 X55.437 Y136.127 E5.03705
G1 X55.019 Y135.783 E5.05904
G1 X54.675 Y135.365 E5.08103
G1 X54.420 Y134.887 E5.10302
G1 X54.263 Y134.369 E5.12501
G1 X54.210 Y133.836 E5.14676
G1 X54.261 Y133.164 E5.17415
G1 X54.420 Y132.640 E5.19638
G1 X54.675 Y132.162 E5.21837
G1 X55.019 Y131.744 E5.24036
G1 X55.437 Y131.400 E5.26235
G1 X55.915 Y131.145 E5.28434
G1 X56.433 Y130.988 E5.30633
G1 X56.972 Y130.935 E5.32832
G1 X57.511 Y130.988 E5.35031
G1 X58.029 Y131.145 E5.37230
G1 X58.506 Y131.400 E5.39429
G1 X58.925 Y131.744 E5.41628
G1 X59.268 Y132.162 E5.43827
G1 X59.524 Y132.640 E5.46026
G1 X59.683 Y133.164 E5.48250
G1 X59.729 Y133.776 E5.50745
G1 X59.406 Y133.832 F7800.000
G1 F2400
G1 X59.360 Y134.305 E5.52674
G1 X59.221 Y134.762 E5.54613
G1 X58.996 Y135.183 E5.56551
G1 X58.694 Y135.552 E5.58490
G1 X58.325 Y135.855 E5.60428
G1 X57.904 Y136.080 E5.62367
G1 X57.447 Y136.218 E5.64305
G1 X56.972 Y136.265 E5.66244
G1 X56.497 Y136.218 E5.68182
G1 X56.040 Y136.080 E5.70121
G1 X55.619 Y135.855 E5.72059
G1 X55.250 Y135.552 E5.73998
G1 X54.947 Y135.183 E5.75937
G1 X54.722 Y134.762 E5.77875
G1 X54.584 Y134.305 E5.79814
G1 X54.537 Y133.832 E5.81743
G1 X54.583 Y133.224 E5.84221
G1 X54.722 Y132.765 E5.86169
G1 X54.947 Y132.344 E5.88107
G1 X55.250 Y131.975 E5.90046
G1 X55.619 Y131.672 E5.91984
G1 X56.040 Y131.447 E5.93923
G1 X56.497 Y131.309 E5.95861
G1 X56.972 Y131.262 E5.97800
G1 X57.447 Y131.309 E5.99738
G1 X57.904 Y131.447 E6.01677
G1 X58.325 Y131.672 E6.03616
G1 X58.694 Y131.975 E6.05554
G1 X58.996 Y132.344 E6.07493
G1 X59.221 Y132.765 E6.09431
G1 X59.361 Y133.224 E6.11379
G1 X59.402 Y133.772 E6.13613
G1 X59.406 Y133.832 F7800.000
G1 E2.13613 F2400.00000
G92 E0
G1 X54.963 Y124.264 F7800.000
G1 E4.00000 F2400.00000
G1 F2400
G1 X50.335 Y124.264 E4.18795
G1 X50.335 Y117.522 E4.46178
G1 X54.963 Y117.522 E4.64974
G1 X54.963 Y124.204 E4.92113
G1 X54.637 Y123.939 F7800.000
G1 F2400
G1 X50.660 Y123.939 E5.08263
G1 X50.660 Y117.848 E5.33001
G1 X54.637 Y117.848 E5.49152
G1 X54.637 Y123.879 E5.73646
G1 X54.311 Y123.613 F7800.000
G1 F2400
G1 X50.986 Y123.613 E5.87152
G1 X50.986 Y118.173 E6.09245
G1 X54.311 Y118.173 E6.22750
G1 X54.311 Y123.553 E6.44600
G1 X54.384 Y124.007 F7800.000
G1 E2.44600 F2400.00000
G92 E0
G1 X66.512 Y123.613 F7800.000
G1 E4.00000 F2400.00000
G1 F2400
G1 X66.512 Y78.565 E5.82955
G1 X66.650 Y77.982 E5.85389
G1 X67.060 Y77.446 E5.88128
G1 X67.601 Y77.085 E5.90768
G1 X68.199 Y76.876 E5.93341
G1 X68.825 Y76.810 E5.95898
G1 X154.103 Y76.810 E9.42237
G1 X154.708 Y76.874 E9.44709
G1 X155.324 Y77.083 E9.47350
G1 X155.868 Y77.446 E9.50005
G1 X156.277 Y77.982 E9.52745
G1 X156.416 Y78.565 E9.55179
G1 X156.416 Y130.384 E11.65630
G1 X156.277 Y130.967 E11.68064
G1 X155.868 Y131.503 E11.70803
G1 X155.324 Y131.865 E11.73458
G1 X154.708 Y132.074 E11.76099
G1 X154.103 Y132.138 E11.78571
G1 X68.825 Y132.138 E15.24910
G1 X68.220 Y132.074 E15.27382
G1 X67.597 Y131.863 E15.30052
G1 X67.043 Y131.480 E15.32787
G1 X66.650 Y130.967 E15.35413
G1 X66.512 Y130.384 E15.37847
G1 X66.512 Y123.673 E15.65100
G1 X66.837 Y123.613 F7800.000
G1 F2400
G1 X66.837 Y78.603 E17.47900
G1 X66.951 Y78.125 E17.49897
G1 X67.286 Y77.687 E17.52135
G1 X67.747 Y77.379 E17.54387
G1 X68.271 Y77.196 E17.56639
G1 X68.842 Y77.136 E17.58973
G1 X154.086 Y77.136 E21.05173
G1 X154.638 Y77.194 E21.07428
G1 X155.179 Y77.378 E21.09748
G1 X155.642 Y77.687 E21.12009
G1 X155.976 Y78.125 E21.14247
G1 X156.090 Y78.603 E21.16245
G1 X156.090 Y130.345 E23.26386
G1 X155.976 Y130.824 E23.28384
G1 X155.642 Y131.262 E23.30622
G1 X155.179 Y131.571 E23.32883
G1 X154.638 Y131.754 E23.35203
G1 X154.085 Y131.813 E23.37458
G1 X68.842 Y131.813 E26.83658
G1 X68.290 Y131.754 E26.85912
G1 X67.745 Y131.569 E26.88250
G1 X67.270 Y131.242 E26.90592
G1 X66.951 Y130.824 E26.92727
G1 X66.837 Y130.345 E26.94725
G1 X66.837 Y123.673 E27.21823
G1 X67.163 Y123.613 F7800.000
G1 F2400
G1 X67.163 Y78.641 E29.04468
G1 X67.252 Y78.267 E29.06029
G1 X67.511 Y77.928 E29.07765
G1 X67.893 Y77.673 E29.09629
G1 X68.342 Y77.516 E29.11561
G1 X68.859 Y77.461 E29.13671
G1 X154.068 Y77.461 E32.59732
G1 X154.567 Y77.514 E32.61770
G1 X155.033 Y77.672 E32.63769
G1 X155.416 Y77.928 E32.65637
G1 X155.676 Y78.267 E32.67373
G1 X155.765 Y78.641 E32.68934
G1 X155.765 Y130.307 E34.78765
G1 X155.676 Y130.681 E34.80327
G1 X155.416 Y131.021 E34.82063
G1 X155.033 Y131.276 E34.83931
G1 X154.567 Y131.434 E34.85930
G1 X154.068 Y131.487 E34.87968
G1 X68.859 Y131.487 E38.34028
G1 X68.360 Y131.434 E38.36066
G1 X67.893 Y131.275 E38.38071
G1 X67.498 Y131.003 E38.40020
G1 X67.252 Y130.681 E38.41665
G1 X67.163 Y130.307 E38.43226
G1 X67.163 Y123.673 E38.70168
G1 X66.816 Y123.415 F7800.000
G1 E34.70168 F2400.00000
G92 E0
G1 X91.446 Y136.917 F7800.000
G1 E4.00000 F2400.00000
G1 F2400
G1 X90.406 Y138.956 E4.09296
G1 X49.484 Y138.956 E5.75492
G1 X49.491 Y71.044 E8.51306
G1 X55.405 Y71.044 E8.75322
G1 X55.423 Y72.927 E8.82971
G1 X55.609 Y73.543 E8.85585
G1 X55.895 Y74.077 E8.88045
G1 X56.279 Y74.545 E8.90504
G1 X56.747 Y74.929 E8.92964
G1 X57.281 Y75.215 E8.95423
G1 X57.861 Y75.391 E8.97883
G1 X58.463 Y75.450 E9.00342
G1 X59.066 Y75.391 E9.02802
G1 X59.646 Y75.215 E9.05261
G1 X60.180 Y74.929 E9.07721
G1 X60.648 Y74.545 E9.10180
G1 X61.032 Y74.077 E9.12640
G1 X61.318 Y73.543 E9.15099
G1 X61.504 Y72.927 E9.17714
G1 X61.522 Y71.044 E9.25362
G1 X103.411 Y71.044 E10.95486
G1 X103.429 Y72.927 E11.03134
G1 X103.616 Y73.543 E11.05748
G1 X103.901 Y74.077 E11.08208
G1 X104.286 Y74.545 E11.10667
G1 X104.754 Y74.929 E11.13127
G1 X105.288 Y75.215 E11.15586
G1 X105.867 Y75.391 E11.18046
G1 X106.470 Y75.450 E11.20505
G1 X107.073 Y75.391 E11.22965
G1 X107.652 Y75.215 E11.25424
G1 X108.186 Y74.929 E11.27884
G1 X108.655 Y74.545 E11.30343
G1 X109.039 Y74.077 E11.32803
G1 X109.324 Y73.543 E11.35263
G1 X109.511 Y72.927 E11.37877
G1 X109.529 Y71.044 E11.45525
G1 X152.211 Y71.044 E13.18868
G1 X152.229 Y72.927 E13.26517
G1 X152.415 Y73.543 E13.29131
G1 X152.701 Y74.077 E13.31590
G1 X153.085 Y74.545 E13.34050
G1 X153.553 Y74.929 E13.36509
G1 X154.087 Y75.215 E13.38969
G1 X154.667 Y75.391 E13.41428
G1 X155.269 Y75.450 E13.43888
G1 X155.872 Y75.391 E13.46347
G1 X156.073 Y75.330 E13.47199
G1 X156.452 Y75.215 E13.48807
G1 X156.986 Y74.929 E13.51266
G1 X157.454 Y74.545 E13.53726
G1 X157.838 Y74.077 E13.56185
G1 X158.124 Y73.543 E13.58645
G1 X158.310 Y72.927 E13.61259
G1 X158.328 Y71.044 E13.68908
G1 X160.803 Y71.044 E13.78957
G1 X160.800 Y136.917 E16.46490
G1 X158.330 Y136.917 E16.56523
G1 X158.310 Y134.869 E16.64844
G1 X158.124 Y134.253 E16.67458
G1 X157.838 Y133.718 E16.69918
G1 X157.454 Y133.250 E16.72377
G1 X156.986 Y132.866 E16.74837
G1 X156.452 Y132.581 E16.77296
G1 X155.872 Y132.405 E16.79756
G1 X155.269 Y132.346 E16.82215
G1 X154.667 Y132.405 E16.84675
G1 X154.087 Y132.581 E16.87134
G1 X153.553 Y132.866 E16.89594
G1 X153.085 Y133.250 E16.92053
G1 X152.701 Y133.718 E16.94513
G1 X152.415 Y134.253 E16.96972
G1 X152.229 Y134.868 E16.99586
G1 X152.209 Y136.917 E17.07908
G1 X109.531 Y136.917 E18.81237
G1 X109.511 Y134.869 E18.89558
G1 X109.324 Y134.253 E18.92173
G1 X109.039 Y133.718 E18.94632
G1 X108.655 Y133.250 E18.97092
G1 X108.186 Y132.866 E18.99551
G1 X107.652 Y132.581 E19.02011
G1 X107.073 Y132.405 E19.04470
G1 X106.470 Y132.346 E19.06930
G1 X105.867 Y132.405 E19.09389
G1 X105.667 Y132.466 E19.10241
G1 X105.288 Y132.581 E19.11849
G1 X104.754 Y132.866 E19.14308
G1 X104.286 Y133.250 E19.16768
G1 X103.901 Y133.718 E19.19227
G1 X103.616 Y134.253 E19.21687
G1 X103.429 Y134.869 E19.24301
G1 X103.410 Y136.917 E19.32622
G1 X91.506 Y136.917 E19.80967
G1 X91.645 Y137.243 F7800.000
G1 F2400
G1 X90.605 Y139.282 E19.90263
G1 X49.158 Y139.282 E21.58591
G1 X49.165 Y70.718 E24.37050
G1 X55.727 Y70.718 E24.63699
G1 X55.748 Y72.877 E24.72468
G1 X55.912 Y73.418 E24.74762
G1 X56.167 Y73.895 E24.76961
G1 X56.510 Y74.314 E24.79160
G1 X56.929 Y74.657 E24.81359
G1 X57.406 Y74.912 E24.83558
G1 X57.925 Y75.070 E24.85757
G1 X58.463 Y75.123 E24.87956
G1 X59.002 Y75.070 E24.90155
G1 X59.520 Y74.912 E24.92354
G1 X59.998 Y74.657 E24.94553
G1 X60.417 Y74.314 E24.96752
G1 X60.760 Y73.895 E24.98951
G1 X61.015 Y73.418 E25.01150
G1 X61.179 Y72.877 E25.03444
G1 X61.200 Y70.718 E25.12213
G1 X103.734 Y70.718 E26.84956
G1 X103.754 Y72.877 E26.93725
G1 X103.918 Y73.418 E26.96019
G1 X104.174 Y73.895 E26.98218
G1 X104.517 Y74.314 E27.00417
G1 X104.936 Y74.657 E27.02616
G1 X105.413 Y74.912 E27.04815
G1 X105.931 Y75.070 E27.07014
G1 X106.470 Y75.123 E27.09213
G1 X107.009 Y75.070 E27.11412
G1 X107.527 Y74.912 E27.13611
G1 X108.005 Y74.657 E27.15810
G1 X108.423 Y74.314 E27.18009
G1 X108.767 Y73.895 E27.20208
G1 X109.022 Y73.418 E27.22407
G1 X109.186 Y72.877 E27.24701
G1 X109.206 Y70.718 E27.33470
G1 X152.533 Y70.718 E29.09433
G1 X152.554 Y72.877 E29.18201
G1 X152.718 Y73.418 E29.20496
G1 X152.973 Y73.895 E29.22695
G1 X153.316 Y74.314 E29.24894
G1 X153.735 Y74.657 E29.27093
G1 X154.212 Y74.912 E29.29292
G1 X154.731 Y75.070 E29.31491
G1 X155.269 Y75.123 E29.33690
G1 X155.808 Y75.070 E29.35889
G1 X155.978 Y75.018 E29.36610
G1 X156.326 Y74.912 E29.38088
G1 X156.804 Y74.657 E29.40287
G1 X157.223 Y74.314 E29.42486
G1 X157.566 Y73.895 E29.44685
G1 X157.821 Y73.418 E29.46884
G1 X157.985 Y72.877 E29.49178
G1 X158.006 Y70.718 E29.57947
G1 X161.129 Y70.718 E29.70629
G1 X161.126 Y137.243 E32.40807
G1 X158.007 Y137.243 E32.53471
G1 X157.985 Y134.918 E32.62913
G1 X157.821 Y134.378 E32.65207
G1 X157.566 Y133.900 E32.67406
G1 X157.223 Y133.482 E32.69605
G1 X156.804 Y133.138 E32.71804
G1 X156.326 Y132.883 E32.74003
G1 X155.808 Y132.726 E32.76202
G1 X155.269 Y132.673 E32.78401
G1 X154.731 Y132.726 E32.80600
G1 X154.212 Y132.883 E32.82799
G1 X153.735 Y133.138 E32.84998
G1 X153.316 Y133.482 E32.87197
G1 X152.973 Y133.900 E32.89396
G1 X152.718 Y134.378 E32.91595
G1 X152.554 Y134.918 E32.93889
G1 X152.531 Y137.243 E33.03331
G1 X109.208 Y137.243 E34.79280
G1 X109.186 Y134.918 E34.88721
G1 X109.022 Y134.378 E34.91015
G1 X108.767 Y133.900 E34.93215
G1 X108.423 Y133.482 E34.95414
G1 X108.005 Y133.138 E34.97613
G1 X107.527 Y132.883 E34.99812
G1 X107.009 Y132.726 E35.02011
G1 X106.470 Y132.673 E35.04210
G1 X105.931 Y132.726 E35.06409
G1 X105.761 Y132.777 E35.07130
G1 X105.413 Y132.883 E35.08608
G1 X104.936 Y133.138 E35.10807
G1 X104.517 Y133.482 E35.13006
G1 X104.174 Y133.900 E35.15205
G1 X103.918 Y134.378 E35.17404
G1 X103.754 Y134.918 E35.19698
G1 X103.732 Y137.243 E35.29139
G1 X91.705 Y137.243 E35.77984
G1 X91.845 Y137.569 F7800.000
G1 F2400
G1 X90.805 Y139.608 E35.87280
G1 X48.833 Y139.608 E37.57741
G1 X48.840 Y70.392 E40.38844
G1 X56.050 Y70.392 E40.68126
G1 X56.073 Y72.827 E40.78015
G1 X56.214 Y73.292 E40.79989
G1 X56.439 Y73.713 E40.81927
G1 X56.742 Y74.082 E40.83866
G1 X57.111 Y74.385 E40.85804
G1 X57.532 Y74.610 E40.87743
G1 X57.988 Y74.749 E40.89681
G1 X58.463 Y74.796 E40.91620
G1 X58.938 Y74.749 E40.93558
G1 X59.395 Y74.610 E40.95497
G1 X59.816 Y74.385 E40.97435
G1 X60.185 Y74.082 E40.99374
G1 X60.488 Y73.713 E41.01312
G1 X60.713 Y73.292 E41.03251
G1 X60.854 Y72.827 E41.05225
G1 X60.877 Y70.392 E41.15114
G1 X104.056 Y70.392 E42.90477
G1 X104.079 Y72.827 E43.00366
G1 X104.221 Y73.292 E43.02340
G1 X104.446 Y73.713 E43.04279
G1 X104.748 Y74.082 E43.06217
G1 X105.117 Y74.385 E43.08156
G1 X105.538 Y74.610 E43.10094
G1 X105.995 Y74.749 E43.12033
G1 X106.470 Y74.796 E43.13971
G1 X106.945 Y74.749 E43.15910
G1 X107.402 Y74.610 E43.17848
G1 X107.823 Y74.385 E43.19787
G1 X108.192 Y74.082 E43.21725
G1 X108.495 Y73.713 E43.23664
G1 X108.720 Y73.292 E43.25602
G1 X108.861 Y72.827 E43.27576
G1 X108.884 Y70.392 E43.37465
G1 X152.856 Y70.392 E45.16048
G1 X152.879 Y72.827 E45.25937
G1 X153.020 Y73.292 E45.27911
G1 X153.245 Y73.713 E45.29849
G1 X153.548 Y74.082 E45.31788
G1 X153.917 Y74.385 E45.33726
G1 X154.338 Y74.610 E45.35665
G1 X154.794 Y74.749 E45.37603
