; generated by Slic3r 1.3.0 on 2023-05-04 at 20:30:42

; external perimeters extrusion width = 0.44mm (4.26mm^3/s)
; perimeters extrusion width = 0.51mm (5.03mm^3/s)
; infill extrusion width = 0.50mm (4.93mm^3/s)
; solid infill extrusion width = 0.51mm (5.03mm^3/s)
; top infill extrusion width = 0.51mm (5.03mm^3/s)

M107
M190 S60 ; set bed temperature and wait for it to be reached
M104 S230 ; set temperature
G28 ; home all axes

; Filament gcode

M109 S230 ; set temperature and wait for it to be reached
G21 ; set units to millimeters
G90 ; use absolute coordinates
M82 ; use absolute distances for extrusion
G92 E0
G1 E-4.00000 F2400.00000
G92 E0
G1 Z0.300 F7800.000
G1 X92.427 Y92.603 F7800.000
G1 E4.00000 F2400.00000
G1 F2400
G1 X93.059 Y91.992 E4.03571
G1 X93.824 Y91.330 E4.07679
G1 X94.319 Y90.940 E4.10239
G1 X95.032 Y90.425 E4.13810
G1 X95.559 Y90.079 E4.16370
G1 X96.429 Y89.563 E4.20478
G1 X97.208 Y89.155 E4.24050
G1 X98.128 Y88.735 E4.28158
G1 X98.946 Y88.413 E4.31729
G1 X99.830 Y88.117 E4.35514
G1 X100.513 Y87.922 E4.38397
G1 X101.368 Y87.720 E4.41968
G1 X102.364 Y87.541 E4.46077
G1 X103.236 Y87.431 E4.49648
G1 X103.865 Y87.379 E4.52208
G1 X104.876 Y87.343 E4.56316
G1 X105.755 Y87.359 E4.59887
G1 X106.384 Y87.397 E4.62447
G1 X107.390 Y87.505 E4.66556
G1 X108.258 Y87.646 E4.70127
G1 X108.875 Y87.773 E4.72687
G1 X109.855 Y88.023 E4.76795
G1 X110.694 Y88.286 E4.80366
G1 X111.642 Y88.640 E4.84474
G1 X112.222 Y88.887 E4.87034
G1 X113.015 Y89.266 E4.90605
G1 X113.903 Y89.751 E4.94713
G1 X114.651 Y90.213 E4.98285
G1 X115.417 Y90.744 E5.02070
G1 X115.982 Y91.173 E5.04953
G1 X116.657 Y91.737 E5.08524
G1 X117.397 Y92.427 E5.12632
G1 X118.008 Y93.059 E5.16203
G1 X118.670 Y93.824 E5.20312
G1 X119.060 Y94.319 E5.22872
G1 X119.575 Y95.032 E5.26443
G1 X119.963 Y95.626 E5.29326
G1 X120.437 Y96.429 E5.33111
G1 X120.845 Y97.208 E5.36682
G1 X121.265 Y98.128 E5.40790
G1 X121.500 Y98.713 E5.43351
G1 X121.793 Y99.542 E5.46922
G1 X122.078 Y100.513 E5.51030
G1 X122.280 Y101.368 E5.54601
G1 X122.447 Y102.285 E5.58386
G1 X122.542 Y102.989 E5.61269
G1 X122.621 Y103.865 E5.64840
G1 X122.657 Y104.875 E5.68949
G1 X122.641 Y105.755 E5.72520
G1 X122.569 Y106.764 E5.76628
G1 X122.459 Y107.636 E5.80198
G1 X122.354 Y108.258 E5.82759
G1 X122.227 Y108.875 E5.85319
G1 X121.977 Y109.855 E5.89427
G1 X121.714 Y110.694 E5.92999
G1 X121.361 Y111.642 E5.97106
G1 X121.010 Y112.448 E6.00678
G1 X120.557 Y113.353 E6.04786
G1 X120.249 Y113.903 E6.07346
G1 X119.787 Y114.651 E6.10917
G1 X119.433 Y115.172 E6.13477
G1 X118.827 Y115.982 E6.17586
G1 X118.263 Y116.657 E6.21156
G1 X117.573 Y117.397 E6.25265
G1 X116.941 Y118.008 E6.28836
G1 X116.176 Y118.670 E6.32944
G1 X115.681 Y119.060 E6.35504
G1 X114.968 Y119.575 E6.39075
G1 X114.117 Y120.122 E6.43183
G1 X113.571 Y120.437 E6.45744
G1 X112.792 Y120.845 E6.49315
G1 X111.872 Y121.265 E6.53423
G1 X111.054 Y121.587 E6.56994
G1 X110.170 Y121.883 E6.60779
G1 X109.487 Y122.078 E6.63662
G1 X108.632 Y122.280 E6.67233
G1 X107.636 Y122.459 E6.71341
G1 X107.011 Y122.542 E6.73901
G1 X106.135 Y122.621 E6.77473
G1 X105.125 Y122.657 E6.81581
G1 X104.494 Y122.650 E6.84141
G1 X103.616 Y122.603 E6.87712
G1 X102.610 Y122.495 E6.91820
G1 X101.742 Y122.354 E6.95392
G1 X101.125 Y122.227 E6.97951
G1 X100.145 Y121.977 E7.02060
G1 X99.306 Y121.714 E7.05631
G1 X98.358 Y121.361 E7.09739
G1 X97.552 Y121.010 E7.13310
G1 X96.647 Y120.557 E7.17418
G1 X96.097 Y120.249 E7.19978
G1 X95.349 Y119.787 E7.23549
G1 X94.828 Y119.433 E7.26110
G1 X94.018 Y118.827 E7.30218
G1 X93.343 Y118.263 E7.33789
G1 X92.603 Y117.573 E7.37897
G1 X91.992 Y116.941 E7.41468
G1 X91.330 Y116.176 E7.45576
G1 X90.939 Y115.681 E7.48137
G1 X90.425 Y114.968 E7.51708
G1 X90.079 Y114.441 E7.54268
G1 X89.563 Y113.571 E7.58376
G1 X89.155 Y112.792 E7.61947
G1 X88.735 Y111.872 E7.66056
G1 X88.500 Y111.287 E7.68615
G1 X88.207 Y110.458 E7.72187
G1 X87.922 Y109.487 E7.76295
G1 X87.720 Y108.632 E7.79866
G1 X87.602 Y108.012 E7.82426
G1 X87.458 Y107.011 E7.86534
G1 X87.379 Y106.135 E7.90105
G1 X87.343 Y105.124 E7.94214
G1 X87.359 Y104.245 E7.97785
G1 X87.424 Y103.316 E8.01569
G1 X87.505 Y102.610 E8.04453
G1 X87.646 Y101.742 E8.08024
G1 X87.861 Y100.754 E8.12132
G1 X88.023 Y100.145 E8.14692
G1 X88.286 Y99.306 E8.18264
G1 X88.639 Y98.358 E8.22372
G1 X88.887 Y97.778 E8.24932
G1 X89.266 Y96.985 E8.28503
G1 X89.751 Y96.097 E8.32611
G1 X90.213 Y95.349 E8.36182
G1 X90.567 Y94.828 E8.38742
G1 X91.173 Y94.018 E8.42851
G1 X91.737 Y93.343 E8.46422
G1 X92.385 Y92.646 E8.50286
G1 X92.661 Y92.829 F7800.000
G1 F2400
G1 X93.277 Y92.234 E8.53763
G1 X94.033 Y91.580 E8.57824
G1 X94.519 Y91.197 E8.60337
G1 X95.213 Y90.696 E8.63814
G1 X96.054 Y90.155 E8.67875
G1 X96.798 Y89.732 E8.71351
G1 X97.692 Y89.284 E8.75412
G1 X98.258 Y89.033 E8.77925
G1 X99.055 Y88.720 E8.81402
G1 X99.927 Y88.428 E8.85139
G1 X100.599 Y88.236 E8.87976
G1 X101.432 Y88.039 E8.91452
G1 X102.040 Y87.923 E8.93965
G1 X103.029 Y87.781 E8.98026
G1 X103.882 Y87.704 E9.01503
G1 X104.881 Y87.669 E9.05564
G1 X105.500 Y87.675 E9.08077
G1 X106.355 Y87.721 E9.11554
G1 X107.349 Y87.828 E9.15615
G1 X108.194 Y87.965 E9.19091
G1 X109.171 Y88.178 E9.23152
G1 X109.997 Y88.404 E9.26629
G1 X110.870 Y88.693 E9.30366
G1 X111.523 Y88.943 E9.33203
G1 X112.092 Y89.186 E9.35716
G1 X112.864 Y89.555 E9.39192
G1 X113.742 Y90.034 E9.43253
G1 X114.470 Y90.484 E9.46730
G1 X115.227 Y91.008 E9.50467
G1 X115.782 Y91.431 E9.53304
G1 X116.439 Y91.980 E9.56781
G1 X117.171 Y92.661 E9.60841
G1 X117.766 Y93.277 E9.64318
G1 X118.420 Y94.033 E9.68379
G1 X118.803 Y94.519 E9.70892
G1 X119.304 Y95.213 E9.74369
G1 X119.686 Y95.798 E9.77205
G1 X120.154 Y96.590 E9.80943
G1 X120.551 Y97.348 E9.84419
G1 X120.967 Y98.258 E9.88480
G1 X121.280 Y99.054 E9.91957
G1 X121.482 Y99.639 E9.94470
G1 X121.764 Y100.599 E9.98531
G1 X121.961 Y101.432 E10.02008
G1 X122.138 Y102.416 E10.06069
G1 X122.245 Y103.265 E10.09546
G1 X122.312 Y104.183 E10.13283
G1 X122.331 Y104.881 E10.16119
G1 X122.316 Y105.737 E10.19596
G1 X122.245 Y106.735 E10.23657
G1 X122.138 Y107.584 E10.27133
G1 X122.035 Y108.194 E10.29647
G1 X121.910 Y108.800 E10.32159
G1 X121.663 Y109.769 E10.36221
G1 X121.407 Y110.586 E10.39697
G1 X121.058 Y111.523 E10.43758
G1 X120.716 Y112.308 E10.47235
G1 X120.268 Y113.202 E10.51296
G1 X119.966 Y113.742 E10.53809
G1 X119.516 Y114.470 E10.57286
G1 X119.169 Y114.982 E10.59799
G1 X118.569 Y115.783 E10.63860
G1 X118.020 Y116.439 E10.67336
G1 X117.339 Y117.171 E10.71397
G1 X116.723 Y117.766 E10.74874
G1 X115.967 Y118.420 E10.78935
G1 X115.481 Y118.803 E10.81448
G1 X114.787 Y119.304 E10.84924
G1 X113.946 Y119.845 E10.88985
G1 X113.202 Y120.268 E10.92462
G1 X112.380 Y120.681 E10.96200
G1 X111.742 Y120.967 E10.99036
G1 X110.945 Y121.280 E11.02513
G1 X110.073 Y121.572 E11.06250
G1 X109.401 Y121.764 E11.09086
G1 X108.568 Y121.961 E11.12563
G1 X107.960 Y122.077 E11.15076
G1 X106.971 Y122.219 E11.19137
G1 X106.118 Y122.296 E11.22614
G1 X105.119 Y122.331 E11.26675
G1 X104.263 Y122.316 E11.30151
G1 X103.645 Y122.279 E11.32665
G1 X102.651 Y122.172 E11.36725
G1 X101.806 Y122.035 E11.40202
G1 X100.829 Y121.822 E11.44263
G1 X100.003 Y121.596 E11.47740
G1 X99.055 Y121.280 E11.51801
G1 X98.477 Y121.058 E11.54314
G1 X97.692 Y120.716 E11.57790
G1 X96.798 Y120.268 E11.61851
G1 X96.258 Y119.966 E11.64364
G1 X95.530 Y119.516 E11.67841
G1 X95.018 Y119.169 E11.70354
G1 X94.218 Y118.569 E11.74415
G1 X93.561 Y118.020 E11.77892
G1 X92.829 Y117.339 E11.81953
G1 X92.234 Y116.723 E11.85429
G1 X91.580 Y115.967 E11.89490
G1 X91.197 Y115.481 E11.92003
G1 X90.696 Y114.787 E11.95480
G1 X90.356 Y114.270 E11.97993
G1 X89.846 Y113.410 E12.02054
G1 X89.449 Y112.652 E12.05530
G1 X89.033 Y111.742 E12.09592
G1 X88.720 Y110.945 E12.13068
G1 X88.518 Y110.361 E12.15581
G1 X88.236 Y109.401 E12.19642
G1 X88.039 Y108.568 E12.23119
G1 X87.862 Y107.584 E12.27180
G1 X87.755 Y106.735 E12.30657
G1 X87.688 Y105.817 E12.34394
G1 X87.669 Y105.119 E12.37231
G1 X87.684 Y104.263 E12.40707
G1 X87.748 Y103.345 E12.44444
G1 X87.828 Y102.651 E12.47281
G1 X87.965 Y101.806 E12.50758
G1 X88.178 Y100.829 E12.54818
G1 X88.337 Y100.231 E12.57332
G1 X88.593 Y99.414 E12.60808
G1 X88.942 Y98.477 E12.64869
G1 X89.186 Y97.908 E12.67382
G1 X89.555 Y97.136 E12.70859
G1 X90.034 Y96.258 E12.74920
G1 X90.484 Y95.530 E12.78396
G1 X90.831 Y95.018 E12.80910
G1 X91.431 Y94.218 E12.84970
G1 X91.980 Y93.561 E12.88447
G1 X92.619 Y92.872 E12.92265
G1 X92.895 Y93.055 F7800.000
G1 F2400
G1 X93.495 Y92.477 E12.95647
G1 X94.241 Y91.829 E12.99661
G1 X94.718 Y91.454 E13.02126
G1 X95.394 Y90.967 E13.05509
G1 X95.901 Y90.633 E13.07974
G1 X96.751 Y90.128 E13.11988
G1 X97.489 Y89.742 E13.15370
G1 X98.388 Y89.332 E13.19384
G1 X99.163 Y89.027 E13.22767
G1 X100.025 Y88.739 E13.26457
G1 X100.685 Y88.550 E13.29246
G1 X101.495 Y88.359 E13.32628
G1 X102.468 Y88.183 E13.36642
G1 X103.294 Y88.080 E13.40024
G1 X103.899 Y88.029 E13.42490
G1 X104.887 Y87.994 E13.46504
G1 X105.494 Y88.001 E13.48969
G1 X106.326 Y88.046 E13.52352
G1 X107.308 Y88.151 E13.56366
G1 X108.131 Y88.284 E13.59748
G1 X109.096 Y88.495 E13.63762
G1 X109.899 Y88.715 E13.67144
G1 X110.762 Y89.000 E13.70834
G1 X111.404 Y89.246 E13.73624
G1 X111.962 Y89.484 E13.76089
G1 X112.713 Y89.844 E13.79471
G1 X113.580 Y90.317 E13.83485
G1 X114.289 Y90.755 E13.86867
G1 X115.036 Y91.272 E13.90558
G1 X115.583 Y91.688 E13.93347
G1 X116.222 Y92.222 E13.96729
G1 X116.945 Y92.895 E14.00743
G1 X117.370 Y93.329 E14.03209
G1 X117.926 Y93.949 E14.06591
G1 X118.546 Y94.718 E14.10605
G1 X119.033 Y95.394 E14.13987
G1 X119.409 Y95.969 E14.16776
G1 X119.872 Y96.751 E14.20466
G1 X120.258 Y97.489 E14.23849
G1 X120.668 Y98.388 E14.27863
G1 X120.894 Y98.951 E14.30328
G1 X121.171 Y99.737 E14.33711
G1 X121.450 Y100.685 E14.37724
G1 X121.641 Y101.495 E14.41107
G1 X121.817 Y102.468 E14.45121
G1 X121.920 Y103.294 E14.48503
G1 X121.987 Y104.201 E14.52193
G1 X122.006 Y104.887 E14.54982
G1 X121.991 Y105.720 E14.58365
G1 X121.920 Y106.706 E14.62378
G1 X121.817 Y107.532 E14.65760
G1 X121.716 Y108.131 E14.68226
G1 X121.593 Y108.725 E14.70692
G1 X121.349 Y109.683 E14.74706
G1 X121.100 Y110.478 E14.78088
G1 X120.755 Y111.403 E14.82102
G1 X120.422 Y112.167 E14.85484
G1 X119.980 Y113.051 E14.89498
G1 X119.683 Y113.581 E14.91964
G1 X119.245 Y114.289 E14.95346
G1 X118.904 Y114.792 E14.97812
G1 X118.312 Y115.583 E15.01826
G1 X117.778 Y116.222 E15.05207
G1 X117.105 Y116.945 E15.09222
G1 X116.505 Y117.523 E15.12604
G1 X115.759 Y118.171 E15.16618
G1 X115.282 Y118.546 E15.19083
G1 X114.606 Y119.033 E15.22466
G1 X113.775 Y119.568 E15.26479
G1 X113.249 Y119.872 E15.28945
G1 X112.511 Y120.258 E15.32327
G1 X111.612 Y120.668 E15.36341
G1 X110.837 Y120.973 E15.39724
G1 X109.975 Y121.261 E15.43414
G1 X109.315 Y121.450 E15.46203
G1 X108.505 Y121.641 E15.49585
G1 X107.532 Y121.817 E15.53599
G1 X106.706 Y121.920 E15.56981
G1 X106.101 Y121.971 E15.59447
G1 X105.113 Y122.006 E15.63461
G1 X104.506 Y121.999 E15.65927
G1 X103.674 Y121.954 E15.69309
G1 X102.692 Y121.849 E15.73322
G1 X101.869 Y121.716 E15.76705
G1 X101.275 Y121.593 E15.79170
G1 X100.317 Y121.349 E15.83184
G1 X99.522 Y121.100 E15.86567
G1 X98.596 Y120.755 E15.90580
G1 X97.833 Y120.422 E15.93962
G1 X96.949 Y119.980 E15.97976
G1 X96.420 Y119.683 E16.00442
G1 X95.711 Y119.245 E16.03824
G1 X95.208 Y118.905 E16.06290
G1 X94.417 Y118.312 E16.10304
G1 X93.778 Y117.778 E16.13686
G1 X93.055 Y117.105 E16.17700
G1 X92.477 Y116.505 E16.21082
G1 X91.829 Y115.759 E16.25096
G1 X91.454 Y115.282 E16.27562
G1 X90.967 Y114.606 E16.30944
G1 X90.633 Y114.099 E16.33410
G1 X90.128 Y113.249 E16.37424
G1 X89.742 Y112.511 E16.40806
G1 X89.332 Y111.612 E16.44820
G1 X89.027 Y110.837 E16.48202
G1 X88.739 Y109.975 E16.51892
G1 X88.550 Y109.315 E16.54681
G1 X88.359 Y108.505 E16.58064
G1 X88.244 Y107.908 E16.60529
G1 X88.104 Y106.930 E16.64543
G1 X88.029 Y106.101 E16.67925
G1 X87.994 Y105.113 E16.71940
G1 X88.009 Y104.280 E16.75322
G1 X88.072 Y103.374 E16.79012
G1 X88.151 Y102.692 E16.81801
G1 X88.284 Y101.869 E16.85183
G1 X88.495 Y100.904 E16.89197
G1 X88.651 Y100.317 E16.91663
G1 X88.900 Y99.522 E16.95045
G1 X89.245 Y98.596 E16.99059
G1 X89.484 Y98.038 E17.01525
G1 X89.844 Y97.287 E17.04907
G1 X90.317 Y96.420 E17.08921
G1 X90.755 Y95.711 E17.12303
G1 X91.096 Y95.208 E17.14769
G1 X91.688 Y94.417 E17.18783
G1 X92.222 Y93.778 E17.22165
G1 X92.854 Y93.098 E17.25935
G1 E13.25935 F2400.00000
G92 E0
G1 X110.584 Y110.595 F7800.000
G1 E4.00000 F2400.00000
G1 F2400
G1 X109.966 Y111.150 E4.03375
G1 X109.502 Y111.498 E4.05729
G1 X108.789 Y111.938 E4.09135
G1 X108.025 Y112.304 E4.12572
G1 X107.227 Y112.585 E4.16009
G1 X106.411 Y112.778 E4.19415
G1 X105.837 Y112.861 E4.21768
G1 X105.000 Y112.905 E4.25174
G1 X104.155 Y112.860 E4.28611
G1 X103.320 Y112.725 E4.32048
G1 X102.511 Y112.503 E4.35454
G1 X101.968 Y112.300 E4.37807
G1 X101.211 Y111.938 E4.41213
G1 X100.502 Y111.501 E4.44598
G1 X100.034 Y111.151 E4.46972
G1 X99.410 Y110.590 E4.50379
G1 X98.849 Y109.966 E4.53787
G1 X98.498 Y109.496 E4.56168
G1 X98.061 Y108.789 E4.59545
G1 X97.696 Y108.025 E4.62982
G1 X97.415 Y107.227 E4.66419
G1 X97.222 Y106.411 E4.69825
G1 X97.139 Y105.837 E4.72178
G1 X97.095 Y105.000 E4.75584
G1 X97.140 Y104.155 E4.79021
G1 X97.274 Y103.327 E4.82427
G1 X97.417 Y102.766 E4.84780
G1 X97.696 Y101.975 E4.88187
G1 X98.062 Y101.211 E4.91624
G1 X98.506 Y100.491 E4.95061
G1 X99.021 Y99.829 E4.98467
G1 X99.416 Y99.405 E5.00820
G1 X100.040 Y98.844 E5.04226
G1 X100.726 Y98.350 E5.07663
G1 X101.455 Y97.934 E5.11069
G1 X101.982 Y97.694 E5.13422
G1 X102.766 Y97.417 E5.16798
G1 X103.327 Y97.274 E5.19151
G1 X104.155 Y97.140 E5.22557
G1 X104.985 Y97.095 E5.25934
G1 X105.571 Y97.116 E5.28315
G1 X106.404 Y97.220 E5.31723
G1 X107.227 Y97.415 E5.35160
G1 X108.025 Y97.696 E5.38597
G1 X108.789 Y98.062 E5.42034
G1 X109.509 Y98.506 E5.45471
G1 X110.171 Y99.021 E5.48877
G1 X110.595 Y99.416 E5.51230
G1 X111.151 Y100.034 E5.54607
G1 X111.502 Y100.504 E5.56988
G1 X111.938 Y101.211 E5.60365
G1 X112.304 Y101.975 E5.63802
G1 X112.585 Y102.773 E5.67239
G1 X112.778 Y103.589 E5.70645
G1 X112.861 Y104.163 E5.72998
G1 X112.905 Y105.000 E5.76404
G1 X112.861 Y105.837 E5.79810
G1 X112.778 Y106.411 E5.82163
G1 X112.585 Y107.227 E5.85570
G1 X112.304 Y108.025 E5.89007
G1 X111.938 Y108.789 E5.92444
G1 X111.494 Y109.509 E5.95880
G1 X110.979 Y110.171 E5.99287
G1 X110.625 Y110.551 E6.01396
G1 X110.356 Y110.363 F7800.000
G1 F2400
G1 X109.759 Y110.898 E6.04654
G1 X109.319 Y111.228 E6.06889
G1 X108.632 Y111.652 E6.10165
G1 X107.900 Y112.002 E6.13460
G1 X107.135 Y112.272 E6.16755
G1 X106.350 Y112.458 E6.20031
G1 X105.806 Y112.536 E6.22266
G1 X105.000 Y112.579 E6.25543
G1 X104.190 Y112.536 E6.28838
G1 X103.389 Y112.406 E6.32133
G1 X102.611 Y112.193 E6.35409
G1 X102.095 Y112.000 E6.37644
G1 X101.368 Y111.652 E6.40920
G1 X100.686 Y111.231 E6.44175
G1 X100.241 Y110.899 E6.46431
G1 X99.641 Y110.359 E6.49708
G1 X99.101 Y109.759 E6.52985
G1 X98.768 Y109.313 E6.55248
G1 X98.348 Y108.632 E6.58496
G1 X97.998 Y107.900 E6.61791
G1 X97.728 Y107.135 E6.65086
G1 X97.542 Y106.350 E6.68362
G1 X97.464 Y105.806 E6.70597
G1 X97.421 Y105.000 E6.73874
G1 X97.464 Y104.190 E6.77169
G1 X97.593 Y103.393 E6.80445
G1 X97.729 Y102.860 E6.82680
G1 X97.998 Y102.100 E6.85956
G1 X98.348 Y101.368 E6.89252
G1 X98.774 Y100.677 E6.92547
G1 X99.269 Y100.040 E6.95823
G1 X99.644 Y99.637 E6.98058
G1 X100.244 Y99.098 E7.01334
G1 X100.902 Y98.624 E7.04630
G1 X101.603 Y98.225 E7.07906
G1 X102.104 Y97.996 E7.10141
G1 X102.860 Y97.729 E7.13398
G1 X103.393 Y97.593 E7.15633
G1 X104.190 Y97.464 E7.18909
G1 X104.988 Y97.421 E7.22157
G1 X105.545 Y97.441 E7.24420
G1 X106.346 Y97.541 E7.27697
G1 X107.135 Y97.728 E7.30992
G1 X107.900 Y97.998 E7.34287
G1 X108.632 Y98.348 E7.37583
G1 X109.323 Y98.774 E7.40878
G1 X109.960 Y99.269 E7.44154
G1 X110.363 Y99.644 E7.46389
G1 X110.899 Y100.241 E7.49647
G1 X111.232 Y100.687 E7.51910
G1 X111.652 Y101.368 E7.55158
G1 X112.002 Y102.100 E7.58453
G1 X112.272 Y102.865 E7.61748
G1 X112.458 Y103.650 E7.65024
G1 X112.536 Y104.194 E7.67259
G1 X112.579 Y105.000 E7.70536
G1 X112.536 Y105.806 E7.73812
G1 X112.458 Y106.350 E7.76047
G1 X112.272 Y107.135 E7.79323
