; generated by Slic3r 1.3.0 on 2023-01-11 at 23:11:47

; external perimeters extrusion width = 0.44mm (4.26mm^3/s)
; perimeters extrusion width = 0.51mm (5.03mm^3/s)
; infill extrusion width = 0.50mm (4.93mm^3/s)
; solid infill extrusion width = 0.51mm (5.03mm^3/s)
; top infill extrusion width = 0.51mm (5.03mm^3/s)

M107
M190 S60 ; set bed temperature and wait for it to be reached
M104 S215 ; set temperature
G28 ; home all axes

; Filament gcode

M109 S215 ; set temperature and wait for it to be reached
G21 ; set units to millimeters
G90 ; use absolute coordinates
M82 ; use absolute distances for extrusion
G92 E0
G1 E-4.00000 F2400.00000
G92 E0
G1 Z0.300 F7800.000
G1 X69.880 Y79.070 F7800.000
G1 E4.00000 F2400.00000
G1 F2400
G1 X71.842 Y78.240 E4.08652
G1 X75.829 Y77.234 E4.25352
G1 X76.980 Y77.044 E4.30091
G1 X113.382 Y74.139 E5.78400
G1 X113.939 Y74.117 E5.80665
G1 X136.509 Y74.124 E6.72328
G1 X138.829 Y74.522 E6.81889
G1 X140.885 Y75.669 E6.91449
G1 X142.442 Y77.434 E7.01010
G1 X143.324 Y79.617 E7.10570
G1 X143.484 Y81.101 E7.16633
G1 X143.484 Y128.968 E9.11033
G1 X143.087 Y131.288 E9.20593
G1 X141.941 Y133.344 E9.30154
G1 X140.176 Y134.902 E9.39714
G1 X137.993 Y135.784 E9.49274
G1 X136.507 Y135.944 E9.55346
G1 X73.547 Y135.944 E12.11047
G1 X71.226 Y135.547 E12.20607
G1 X69.170 Y134.401 E12.30168
G1 X67.612 Y132.636 E12.39728
G1 X66.730 Y130.454 E12.49289
G1 X66.570 Y128.968 E12.55360
G1 X66.571 Y85.004 E14.33909
G1 X66.969 Y82.684 E14.43469
G1 X68.115 Y80.628 E14.53030
G1 X69.835 Y79.110 E14.62346
G1 X70.192 Y79.263 F7800.000
G1 F2400
G1 X71.921 Y78.556 E14.69936
G1 X75.908 Y77.550 E14.86636
G1 X77.006 Y77.369 E14.91154
G1 X113.408 Y74.464 E16.39463
G1 X113.939 Y74.443 E16.41622
G1 X136.509 Y74.450 E17.33285
G1 X138.772 Y74.848 E17.42618
G1 X140.765 Y75.992 E17.51951
G1 X142.250 Y77.746 E17.61284
G1 X143.049 Y79.901 E17.70617
G1 X143.158 Y81.101 E17.75513
G1 X143.158 Y128.968 E19.69913
G1 X142.761 Y131.231 E19.79246
G1 X141.618 Y133.224 E19.88579
G1 X139.864 Y134.709 E19.97912
G1 X137.710 Y135.509 E20.07245
G1 X136.507 Y135.619 E20.12149
G1 X73.547 Y135.619 E22.67850
G1 X71.283 Y135.222 E22.77183
G1 X69.290 Y134.078 E22.86516
G1 X67.805 Y132.325 E22.95849
G1 X67.005 Y130.170 E23.05183
G1 X66.895 Y128.968 E23.10087
G1 X66.897 Y85.004 E24.88635
G1 X67.294 Y82.741 E24.97968
G1 X68.438 Y80.748 E25.07301
G1 X70.146 Y79.301 E25.16391
G1 X70.502 Y79.461 F7800.000
G1 F2400
G1 X72.001 Y78.871 E25.22932
G1 X75.988 Y77.866 E25.39633
G1 X77.032 Y77.694 E25.43929
G1 X113.434 Y74.789 E26.92239
G1 X113.939 Y74.769 E26.94292
G1 X136.509 Y74.776 E27.85955
G1 X138.714 Y75.173 E27.95055
G1 X140.642 Y76.314 E28.04155
G1 X142.052 Y78.056 E28.13255
G1 X142.833 Y81.101 E28.26021
G1 X142.833 Y128.968 E30.20421
G1 X142.436 Y131.173 E30.29521
G1 X141.295 Y133.101 E30.38621
G1 X139.554 Y134.511 E30.47721
G1 X136.507 Y135.293 E30.60495
G1 X73.547 Y135.293 E33.16196
G1 X71.341 Y134.896 E33.25296
G1 X69.413 Y133.756 E33.34396
G1 X68.003 Y132.014 E33.43496
G1 X67.221 Y128.968 E33.56270
G1 X67.222 Y85.004 E35.34818
G1 X67.620 Y82.799 E35.43918
G1 X68.760 Y80.871 E35.53018
G1 X70.455 Y79.499 E35.61874
G1 E31.61874 F2400.00000
G92 E0
G1 X132.671 Y98.972 F7800.000
G1 E4.00000 F2400.00000
G1 F2400
G1 X131.984 Y99.040 E4.02805
G1 X131.296 Y98.972 E4.05611
G1 X130.635 Y98.771 E4.08416
G1 X130.026 Y98.446 E4.11222
G1 X129.492 Y98.007 E4.14027
G1 X129.054 Y97.473 E4.16832
G1 X128.728 Y96.864 E4.19638
G1 X128.528 Y96.203 E4.22443
G1 X128.460 Y95.516 E4.25249
G1 X128.528 Y94.828 E4.28054
G1 X128.728 Y94.167 E4.30860
G1 X129.054 Y93.558 E4.33665
G1 X129.492 Y93.024 E4.36470
G1 X130.026 Y92.586 E4.39276
G1 X130.635 Y92.260 E4.42081
G1 X131.296 Y92.060 E4.44887
G1 X131.984 Y91.992 E4.47692
G1 X132.671 Y92.060 E4.50497
G1 X133.332 Y92.260 E4.53303
G1 X133.941 Y92.586 E4.56108
G1 X134.475 Y93.024 E4.58914
G1 X134.914 Y93.558 E4.61719
G1 X135.239 Y94.167 E4.64524
G1 X135.440 Y94.828 E4.67330
G1 X135.507 Y95.516 E4.70135
G1 X135.440 Y96.203 E4.72941
G1 X135.239 Y96.864 E4.75746
G1 X134.914 Y97.473 E4.78552
G1 X134.475 Y98.007 E4.81357
G1 X133.941 Y98.446 E4.84162
G1 X133.332 Y98.771 E4.86968
G1 X132.729 Y98.954 E4.89529
G1 X132.607 Y98.651 F7800.000
G1 F2400
G1 X131.984 Y98.712 E4.92074
G1 X131.360 Y98.651 E4.94619
G1 X130.760 Y98.469 E4.97164
G1 X130.208 Y98.174 E4.99709
G1 X129.723 Y97.776 E5.02254
G1 X129.326 Y97.292 E5.04799
G1 X129.030 Y96.739 E5.07344
G1 X128.849 Y96.139 E5.09889
G1 X128.787 Y95.516 E5.12434
G1 X128.849 Y94.892 E5.14979
G1 X129.030 Y94.293 E5.17524
G1 X129.326 Y93.740 E5.20068
G1 X129.723 Y93.256 E5.22613
G1 X130.208 Y92.858 E5.25158
G1 X130.760 Y92.563 E5.27703
G1 X131.360 Y92.381 E5.30248
G1 X131.984 Y92.319 E5.32793
G1 X132.607 Y92.381 E5.35338
G1 X133.207 Y92.563 E5.37883
G1 X133.760 Y92.858 E5.40428
G1 X134.244 Y93.256 E5.42973
G1 X134.641 Y93.740 E5.45518
G1 X134.937 Y94.293 E5.48062
G1 X135.119 Y94.892 E5.50607
G1 X135.180 Y95.516 E5.53152
G1 X135.119 Y96.139 E5.55697
G1 X134.937 Y96.739 E5.58242
G1 X134.641 Y97.292 E5.60787
G1 X134.244 Y97.776 E5.63332
G1 X133.760 Y98.174 E5.65877
G1 X133.207 Y98.469 E5.68422
G1 X132.665 Y98.633 E5.70723
G1 X132.607 Y98.651 F7800.000
G1 E1.70723 F2400.00000
G92 E0
G1 X133.692 Y104.370 F7800.000
G1 E4.00000 F2400.00000
G1 F2400
G1 X133.692 Y122.458 E4.73462
G1 X115.631 Y122.458 E5.46813
G1 X115.631 Y125.949 E5.60988
G1 X96.792 Y125.949 E6.37500
G1 X96.792 Y126.008 E6.37742
G1 X77.792 Y126.008 E7.14906
G1 X77.792 Y112.853 E7.68335
G1 X95.542 Y112.853 E8.40421
G1 X95.542 Y104.421 E8.74666
G1 X114.267 Y104.421 E9.50718
G1 X114.267 Y104.370 E9.50924
G1 X133.632 Y104.370 E10.29569
G1 X133.366 Y104.696 F7800.000
G1 F2400
G1 X133.366 Y122.133 E11.00387
G1 X115.306 Y122.133 E11.73737
G1 X115.306 Y125.623 E11.87912
G1 X96.466 Y125.623 E12.64425
G1 X96.466 Y125.682 E12.64666
G1 X78.118 Y125.682 E13.39186
G1 X78.118 Y113.178 E13.89969
G1 X95.867 Y113.178 E14.62056
G1 X95.867 Y104.746 E14.96300
G1 X114.593 Y104.746 E15.72352
G1 X114.593 Y104.696 E15.72558
G1 X133.306 Y104.696 E16.48559
G1 X133.041 Y105.021 F7800.000
G1 F2400
G1 X133.041 Y121.807 E17.16731
G1 X114.980 Y121.807 E17.90082
G1 X114.980 Y125.297 E18.04257
G1 X96.141 Y125.297 E18.80769
G1 X96.141 Y125.357 E18.81011
G1 X78.443 Y125.357 E19.52886
G1 X78.443 Y113.504 E20.01024
G1 X96.193 Y113.504 E20.73111
G1 X96.193 Y105.072 E21.07355
G1 X114.919 Y105.072 E21.83407
G1 X114.919 Y105.021 E21.83613
G1 X132.981 Y105.021 E22.56969
G1 X133.441 Y105.021 F7800.000
G1 E18.56969 F2400.00000
G92 E0
G1 X97.564 Y91.739 F7800.000
G1 E4.00000 F2400.00000
G1 F2400
G1 X97.117 Y92.667 E4.04184
G1 X96.417 Y93.423 E4.08367
G1 X95.525 Y93.938 E4.12551
G1 X94.520 Y94.167 E4.16734
G1 X93.493 Y94.090 E4.20918
G1 X92.534 Y93.714 E4.25102
G1 X91.729 Y93.071 E4.29285
G1 X91.149 Y92.220 E4.33469
G1 X90.845 Y91.236 E4.37653
G1 X90.845 Y90.206 E4.41836
G1 X91.149 Y89.221 E4.46020
G1 X91.729 Y88.370 E4.50204
G1 X92.534 Y87.728 E4.54387
G1 X93.493 Y87.352 E4.58571
G1 X94.520 Y87.275 E4.62754
G1 X95.525 Y87.504 E4.66938
G1 X96.417 Y88.019 E4.71122
G1 X97.117 Y88.774 E4.75305
G1 X97.564 Y89.702 E4.79489
G1 X97.718 Y90.721 E4.83673
G1 X97.573 Y91.680 E4.87613
G1 X97.250 Y91.642 F7800.000
G1 F2400
G1 X96.845 Y92.482 E4.91398
G1 X96.212 Y93.165 E4.95183
G1 X95.404 Y93.631 E4.98967
G1 X94.496 Y93.838 E5.02752
G1 X93.566 Y93.769 E5.06537
G1 X92.699 Y93.428 E5.10322
G1 X91.970 Y92.847 E5.14107
G1 X91.445 Y92.077 E5.17892
G1 X91.171 Y91.187 E5.21677
G1 X91.171 Y90.255 E5.25462
G1 X91.445 Y89.364 E5.29247
G1 X91.970 Y88.594 E5.33032
G1 X92.699 Y88.013 E5.36817
G1 X93.566 Y87.673 E5.40602
G1 X94.496 Y87.603 E5.44387
G1 X95.404 Y87.810 E5.48172
G1 X96.212 Y88.276 E5.51957
G1 X96.845 Y88.959 E5.55742
G1 X97.250 Y89.799 E5.59527
G1 X97.389 Y90.721 E5.63312
G1 X97.259 Y91.583 E5.66853
G1 X96.935 Y91.545 F7800.000
G1 F2400
G1 X96.573 Y92.296 E5.70240
G1 X96.006 Y92.908 E5.73626
G1 X95.284 Y93.325 E5.77012
G1 X94.471 Y93.510 E5.80399
G1 X93.640 Y93.448 E5.83785
G1 X92.864 Y93.143 E5.87171
G1 X92.212 Y92.623 E5.90558
G1 X91.742 Y91.934 E5.93944
G1 X91.496 Y91.138 E5.97330
G1 X91.496 Y90.304 E6.00717
G1 X91.742 Y89.507 E6.04103
G1 X92.212 Y88.818 E6.07489
G1 X92.864 Y88.298 E6.10876
G1 X93.640 Y87.994 E6.14262
G1 X94.471 Y87.931 E6.17648
G1 X95.284 Y88.117 E6.21035
G1 X96.006 Y88.534 E6.24421
G1 X96.573 Y89.145 E6.27807
G1 X96.935 Y89.896 E6.31194
G1 X97.059 Y90.721 E6.34580
G1 X96.944 Y91.486 E6.37723
G1 X96.935 Y91.545 F7800.000
G1 E2.37723 F2400.00000
G92 E0
G1 X86.496 Y90.721 F7800.000
G1 E4.00000 F2400.00000
G1 F2400
G1 X86.342 Y91.739 E4.04184
G1 X85.895 Y92.667 E4.08367
G1 X85.195 Y93.423 E4.12551
G1 X84.302 Y93.938 E4.16735
G1 X83.298 Y94.167 E4.20918
G1 X82.271 Y94.090 E4.25102
G1 X81.312 Y93.714 E4.29285
G1 X80.507 Y93.071 E4.33469
G1 X79.926 Y92.220 E4.37653
G1 X79.623 Y91.236 E4.41836
G1 X79.623 Y90.206 E4.46020
G1 X79.926 Y89.221 E4.50204
G1 X80.507 Y88.370 E4.54387
G1 X81.312 Y87.728 E4.58571
G1 X82.271 Y87.352 E4.62754
G1 X83.298 Y87.275 E4.66938
G1 X84.302 Y87.504 E4.71122
G1 X85.195 Y88.019 E4.75305
G1 X85.895 Y88.774 E4.79489
G1 X86.342 Y89.702 E4.83673
G1 X86.487 Y90.661 E4.87613
G1 X86.166 Y90.721 F7800.000
G1 F2400
G1 X86.027 Y91.642 E4.91398
G1 X85.623 Y92.482 E4.95183
G1 X84.989 Y93.165 E4.98967
G1 X84.182 Y93.631 E5.02752
G1 X83.273 Y93.838 E5.06537
G1 X82.344 Y93.769 E5.10322
G1 X81.477 Y93.428 E5.14107
G1 X80.748 Y92.847 E5.17892
G1 X80.223 Y92.077 E5.21677
G1 X79.948 Y91.187 E5.25462
G1 X79.948 Y90.255 E5.29247
G1 X80.223 Y89.364 E5.33032
G1 X80.748 Y88.594 E5.36817
G1 X81.477 Y88.013 E5.40602
G1 X82.344 Y87.673 E5.44387
G1 X83.273 Y87.603 E5.48172
G1 X84.182 Y87.810 E5.51957
G1 X84.989 Y88.276 E5.55742
G1 X85.623 Y88.959 E5.59527
G1 X86.027 Y89.799 E5.63312
G1 X86.157 Y90.661 E5.66853
G1 X85.837 Y90.721 F7800.000
G1 F2400
G1 X85.713 Y91.545 E5.70240
G1 X85.351 Y92.296 E5.73626
G1 X84.784 Y92.908 E5.77012
G1 X84.062 Y93.325 E5.80399
G1 X83.249 Y93.510 E5.83785
G1 X82.417 Y93.448 E5.87171
G1 X81.641 Y93.143 E5.90558
G1 X80.989 Y92.623 E5.93944
G1 X80.520 Y91.934 E5.97330
G1 X80.274 Y91.138 E6.00717
G1 X80.274 Y90.304 E6.04103
G1 X80.520 Y89.507 E6.07489
G1 X80.989 Y88.818 E6.10876
G1 X81.641 Y88.298 E6.14262
G1 X82.417 Y87.994 E6.17648
G1 X83.249 Y87.931 E6.21035
G1 X84.062 Y88.117 E6.24421
G1 X84.784 Y88.534 E6.27807
G1 X85.351 Y89.145 E6.31194
G1 X85.713 Y89.896 E6.34580
G1 X85.828 Y90.661 E6.37723
G1 X85.837 Y90.721 F7800.000
G1 E2.37723 F2400.00000
G92 E0
G1 X82.271 Y95.236 F7800.000
G1 E4.00000 F2400.00000
G1 F2400
G1 X82.854 Y95.715 E4.03066
G1 X83.333 Y96.298 E4.06132
G1 X83.689 Y96.964 E4.09198
G1 X83.908 Y97.686 E4.12264
G1 X83.982 Y98.438 E4.15330
G1 X83.908 Y99.189 E4.18395
G1 X83.689 Y99.911 E4.21461
G1 X83.333 Y100.577 E4.24527
G1 X82.854 Y101.160 E4.27593
G1 X82.271 Y101.639 E4.30659
G1 X81.605 Y101.995 E4.33725
G1 X80.882 Y102.214 E4.36791
G1 X80.131 Y102.288 E4.39857
G1 X79.380 Y102.214 E4.42923
G1 X78.657 Y101.995 E4.45989
G1 X77.992 Y101.639 E4.49055
G1 X77.408 Y101.160 E4.52120
G1 X76.929 Y100.577 E4.55186
G1 X76.573 Y99.911 E4.58252
G1 X76.354 Y99.189 E4.61318
G1 X76.280 Y98.438 E4.64384
G1 X76.354 Y97.686 E4.67450
G1 X76.573 Y96.964 E4.70516
G1 X76.929 Y96.298 E4.73582
G1 X77.408 Y95.715 E4.76648
G1 X77.992 Y95.236 E4.79714
G1 X78.657 Y94.880 E4.82780
G1 X79.380 Y94.661 E4.85845
G1 X80.131 Y94.587 E4.88911
G1 X80.882 Y94.661 E4.91977
G1 X81.605 Y94.880 E4.95043
G1 X82.218 Y95.207 E4.97865
G1 X82.089 Y95.508 F7800.000
G1 F2400
G1 X82.623 Y95.946 E5.00671
G1 X83.061 Y96.480 E5.03476
G1 X83.387 Y97.089 E5.06282
G1 X83.587 Y97.750 E5.09087
G1 X83.655 Y98.438 E5.11892
G1 X83.587 Y99.125 E5.14698
G1 X83.387 Y99.786 E5.17503
G1 X83.061 Y100.395 E5.20309
G1 X82.623 Y100.929 E5.23114
G1 X82.089 Y101.367 E5.25919
G1 X81.480 Y101.693 E5.28725
G1 X80.819 Y101.893 E5.31530
G1 X80.131 Y101.961 E5.34336
G1 X79.444 Y101.893 E5.37141
G1 X78.783 Y101.693 E5.39947
G1 X78.173 Y101.367 E5.42752
G1 X77.639 Y100.929 E5.45557
G1 X77.201 Y100.395 E5.48363
G1 X76.876 Y99.786 E5.51168
G1 X76.675 Y99.125 E5.53974
G1 X76.607 Y98.438 E5.56779
G1 X76.675 Y97.750 E5.59584
G1 X76.876 Y97.089 E5.62390
G1 X77.201 Y96.480 E5.65195
G1 X77.639 Y95.946 E5.68001
G1 X78.173 Y95.508 E5.70806
G1 X78.783 Y95.182 E5.73611
G1 X79.444 Y94.982 E5.76417
G1 X80.131 Y94.914 E5.79222
G1 X80.819 Y94.982 E5.82028
G1 X81.480 Y95.182 E5.84833
G1 X82.036 Y95.479 E5.87395
G1 X81.907 Y95.780 F7800.000
G1 F2400
G1 X82.391 Y96.177 E5.89940
G1 X82.789 Y96.662 E5.92485
G1 X83.084 Y97.214 E5.95030
G1 X83.266 Y97.814 E5.97574
G1 X83.328 Y98.438 E6.00119
G1 X83.266 Y99.061 E6.02664
G1 X83.084 Y99.661 E6.05209
G1 X82.789 Y100.213 E6.07754
G1 X82.391 Y100.698 E6.10299
G1 X81.907 Y101.095 E6.12844
G1 X81.354 Y101.391 E6.15389
G1 X80.755 Y101.573 E6.17934
G1 X80.131 Y101.634 E6.20479
G1 X79.508 Y101.573 E6.23024
G1 X78.908 Y101.391 E6.25569
G1 X78.355 Y101.095 E6.28113
G1 X77.871 Y100.698 E6.30658
G1 X77.473 Y100.213 E6.33203
G1 X77.178 Y99.661 E6.35748
G1 X76.996 Y99.061 E6.38293
G1 X76.935 Y98.438 E6.40838
G1 X76.996 Y97.814 E6.43383
G1 X77.178 Y97.214 E6.45928
G1 X77.473 Y96.662 E6.48473
G1 X77.871 Y96.177 E6.51018
G1 X78.355 Y95.780 E6.53563
G1 X78.908 Y95.484 E6.56107
G1 X79.508 Y95.302 E6.58652
G1 X80.131 Y95.241 E6.61197
G1 X80.755 Y95.302 E6.63742
G1 X81.354 Y95.484 E6.66287
G1 X81.854 Y95.751 E6.68588
G1 X81.907 Y95.780 F7800.000
G1 E2.68588 F2400.00000
G92 E0
G1 X78.381 Y85.851 F7800.000
G1 E4.00000 F2400.00000
G1 F2400
G1 X78.381 Y84.845 E4.04084
G1 X99.004 Y84.845 E4.87838
G1 X99.007 Y103.000 E5.61570
G1 X114.792 Y102.992 E6.25677
G1 X114.784 Y81.942 E7.11167
G1 X135.661 Y81.947 E7.95955
G1 X135.661 Y93.952 E8.44709
G1 X135.513 Y93.989 E8.45328
G1 X135.186 Y93.376 E8.48147
G1 X134.707 Y92.793 E8.51213
G1 X134.123 Y92.314 E8.54279
G1 X133.457 Y91.958 E8.57345
G1 X132.735 Y91.739 E8.60411
G1 X131.984 Y91.665 E8.63477
G1 X131.232 Y91.739 E8.66543
G1 X130.510 Y91.958 E8.69609
G1 X129.803 Y92.336 E8.72865
G1 X129.996 Y91.743 E8.75395
G1 X130.015 Y91.493 E8.76415
G1 X130.015 Y83.763 E9.07808
G1 X115.273 Y83.763 E9.67679
G1 X115.273 Y91.525 E9.99202
G1 X115.333 Y91.909 E10.00782
G1 X115.455 Y92.213 E10.02112
G1 X115.734 Y92.596 E10.04035
G1 X116.140 Y92.892 E10.06077
G1 X116.586 Y93.037 E10.07982
G1 X116.837 Y93.056 E10.09002
G1 X128.485 Y93.056 E10.56309
G1 X129.128 Y92.955 E10.58952
G1 X128.782 Y93.376 E10.61168
G1 X128.426 Y94.042 E10.64234
G1 X128.207 Y94.765 E10.67300
G1 X128.133 Y95.516 E10.70366
G1 X128.207 Y96.267 E10.73431
G1 X128.426 Y96.989 E10.76497
G1 X128.782 Y97.655 E10.79563
G1 X129.261 Y98.239 E10.82629
G1 X129.844 Y98.718 E10.85695
G1 X130.510 Y99.074 E10.88761
G1 X131.232 Y99.293 E10.91827
G1 X131.984 Y99.367 E10.94893
G1 X132.735 Y99.293 E10.97959
G1 X133.457 Y99.074 E11.01025
G1 X134.123 Y98.718 E11.04091
G1 X134.707 Y98.239 E11.07156
G1 X135.186 Y97.655 E11.10222
G1 X135.513 Y97.043 E11.13042
G1 X135.661 Y97.080 E11.13661
G1 X135.661 Y128.121 E12.39730
G1 X74.393 Y128.121 E14.88557
G1 X74.394 Y85.851 E16.60229
G1 X78.321 Y85.851 E16.76178
G1 E12.76178 F2400.00000
G92 E0
G1 X115.599 Y84.089 F7800.000
G1 E4.00000 F2400.00000
G1 F2400
G1 X129.690 Y84.089 E4.57227
G1 X129.690 Y91.480 E4.87245
G1 X129.674 Y91.679 E4.88056
G1 X129.557 Y92.040 E4.89595
G1 X129.322 Y92.363 E4.91218
G1 X129.015 Y92.586 E4.92757
G1 X128.793 Y92.678 E4.93736
G1 X128.459 Y92.731 E4.95106
G1 X116.850 Y92.731 E5.42257
G1 X116.650 Y92.715 E5.43069
G1 X116.290 Y92.598 E5.44608
G1 X115.967 Y92.363 E5.46231
G1 X115.742 Y92.054 E5.47781
G1 X115.649 Y91.822 E5.48796
G1 X115.599 Y91.500 E5.50122
G1 X115.599 Y84.149 E5.79977
G1 X115.925 Y84.415 F7800.000
G1 F2400
G1 X129.364 Y84.415 E6.34558
G1 X129.364 Y91.467 E6.63202
G1 X129.352 Y91.615 E6.63805
G1 X129.263 Y91.890 E6.64978
G1 X129.089 Y92.130 E6.66182
G1 X128.855 Y92.300 E6.67355
G1 X128.704 Y92.362 E6.68021
G1 X128.434 Y92.405 E6.69131
G1 X116.862 Y92.405 E7.16126
G1 X116.714 Y92.394 E7.16729
G1 X116.440 Y92.304 E7.17902
G1 X116.200 Y92.130 E7.19106
G1 X116.029 Y91.896 E7.20283
G1 X115.965 Y91.736 E7.20983
G1 X115.925 Y91.475 E7.22055
