; generated by Slic3r 1.3.0 on 2023-05-04 at 16:31:07

; external perimeters extrusion width = 0.44mm (4.26mm^3/s)
; perimeters extrusion width = 0.51mm (5.03mm^3/s)
; infill extrusion width = 0.50mm (4.93mm^3/s)
; solid infill extrusion width = 0.51mm (5.03mm^3/s)
; top infill extrusion width = 0.51mm (5.03mm^3/s)

; external perimeters extrusion width = 0.44mm (4.26mm^3/s)
; perimeters extrusion width = 0.51mm (5.03mm^3/s)
; infill extrusion width = 0.50mm (4.93mm^3/s)
; solid infill extrusion width = 0.51mm (5.03mm^3/s)
; top infill extrusion width = 0.51mm (5.03mm^3/s)

M107
M190 S60 ; set bed temperature and wait for it to be reached
M104 S230 ; set temperature
G28 ; home all axes

; Filament gcode

M109 S230 ; set temperature and wait for it to be reached
G21 ; set units to millimeters
G90 ; use absolute coordinates
M82 ; use absolute distances for extrusion
G92 E0
G1 E-4.00000 F2400.00000
G92 E0
G1 Z0.300 F7800.000
G1 X77.006 Y79.922 F7800.000
G1 E4.00000 F2400.00000
G1 F2400
G1 X78.771 Y78.364 E4.09560
G1 X80.953 Y77.481 E4.19121
G1 X82.440 Y77.321 E4.25192
G1 X127.561 Y77.321 E6.08444
G1 X129.881 Y77.718 E6.18005
G1 X131.937 Y78.864 E6.27565
G1 X133.495 Y80.629 E6.37126
G1 X134.378 Y82.812 E6.46686
G1 X134.538 Y84.298 E6.52758
G1 X134.538 Y123.287 E8.11102
G1 X134.141 Y125.607 E8.20663
G1 X132.995 Y127.663 E8.30223
G1 X131.230 Y129.221 E8.39783
G1 X129.047 Y130.103 E8.49344
G1 X127.561 Y130.263 E8.55415
G1 X82.440 Y130.263 E10.38667
G1 X80.119 Y129.866 E10.48228
G1 X78.063 Y128.720 E10.57788
G1 X76.505 Y126.955 E10.67349
G1 X75.623 Y124.773 E10.76909
G1 X75.463 Y123.287 E10.82981
G1 X75.463 Y84.298 E12.41325
G1 X75.860 Y81.978 E12.50886
G1 X76.977 Y79.974 E12.60202
G1 X77.329 Y80.041 F7800.000
G1 F2400
G1 X79.083 Y78.556 E12.69535
G1 X81.237 Y77.756 E12.78868
G1 X82.440 Y77.647 E12.83773
G1 X127.561 Y77.647 E14.67025
G1 X129.824 Y78.044 E14.76358
G1 X131.818 Y79.187 E14.85691
G1 X133.303 Y80.941 E14.95024
G1 X134.103 Y83.095 E15.04357
G1 X134.212 Y84.298 E15.09261
G1 X134.212 Y123.287 E16.67606
G1 X133.815 Y125.550 E16.76939
G1 X132.672 Y127.543 E16.86272
G1 X130.918 Y129.028 E16.95605
G1 X128.764 Y129.828 E17.04938
G1 X127.561 Y129.938 E17.09842
G1 X82.440 Y129.938 E18.93094
G1 X80.176 Y129.541 E19.02427
G1 X78.183 Y128.397 E19.11760
G1 X76.698 Y126.644 E19.21093
G1 X75.898 Y124.489 E19.30426
G1 X75.788 Y123.287 E19.35331
G1 X75.788 Y84.298 E20.93675
G1 X76.185 Y82.035 E21.03008
G1 X77.299 Y80.093 E21.12097
G1 X77.651 Y80.164 F7800.000
G1 F2400
G1 X79.393 Y78.754 E21.21197
G1 X82.440 Y77.972 E21.33972
G1 X127.561 Y77.972 E23.17224
G1 X129.766 Y78.369 E23.26323
G1 X131.695 Y79.510 E23.35423
G1 X133.105 Y81.251 E23.44523
G1 X133.887 Y84.298 E23.57298
G1 X133.887 Y123.287 E25.15642
G1 X133.490 Y125.492 E25.24742
G1 X132.349 Y127.420 E25.33842
G1 X130.608 Y128.830 E25.42942
G1 X127.561 Y129.612 E25.55716
G1 X82.440 Y129.612 E27.38968
G1 X80.234 Y129.215 E27.48068
G1 X78.306 Y128.075 E27.57168
G1 X76.896 Y126.333 E27.66268
G1 X76.114 Y123.287 E27.79042
G1 X76.114 Y84.298 E29.37386
G1 X76.511 Y82.093 E29.46486
G1 X77.621 Y80.216 E29.55343
G1 E25.55343 F2400.00000
G92 E0
G1 X111.234 Y121.854 F7800.000
G1 E4.00000 F2400.00000
G1 F2400
G1 X109.939 Y123.059 E4.07185
G1 X106.248 Y119.947 E4.26792
G1 X106.119 Y120.053 E4.27466
G1 X105.570 Y120.347 E4.29998
G1 X104.973 Y120.527 E4.32530
G1 X104.353 Y120.589 E4.35062
G1 X103.732 Y120.527 E4.37594
G1 X103.135 Y120.347 E4.40126
G1 X102.943 Y120.244 E4.41011
G1 X101.222 Y121.734 E4.50256
G1 X100.160 Y120.501 E4.56865
G1 X101.703 Y119.165 E4.65152
G1 X101.414 Y118.625 E4.67639
G1 X101.233 Y118.029 E4.70171
G1 X101.172 Y117.408 E4.72703
G1 X101.233 Y116.788 E4.75235
G1 X101.415 Y116.189 E4.77776
G1 X101.671 Y115.734 E4.79898
G1 X100.062 Y114.222 E4.88863
G1 X101.356 Y113.018 E4.96040
G1 X102.986 Y114.550 E5.05125
G1 X103.135 Y114.470 E5.05814
G1 X103.732 Y114.289 E5.08347
G1 X104.353 Y114.228 E5.10879
G1 X104.973 Y114.289 E5.13411
G1 X105.570 Y114.470 E5.15943
G1 X106.119 Y114.764 E5.18475
G1 X106.461 Y115.044 E5.20271
G1 X109.218 Y112.657 E5.35083
G1 X110.280 Y113.890 E5.41692
G1 X107.360 Y116.419 E5.57382
G1 X107.472 Y116.788 E5.58948
G1 X107.533 Y117.408 E5.61480
G1 X107.472 Y118.031 E5.64020
G1 X107.306 Y118.542 E5.66205
G1 X111.188 Y121.815 E5.86828
G1 X111.509 Y122.144 F7800.000
G1 E1.86828 F2400.00000
G92 E0
G1 X101.262 Y115.796 F7800.000
G1 E4.00000 F2400.00000
G1 F2400
G1 X101.114 Y116.061 E4.01231
G1 X100.993 Y116.457 E4.02913
G1 X100.843 Y116.451 E4.03525
G1 X100.771 Y116.131 E4.04859
G1 X100.429 Y115.355 E4.08300
G1 X100.220 Y115.057 E4.09780
G1 X100.353 Y114.942 E4.10496
G1 X101.218 Y115.755 E4.15320
G1 E0.15320 F2400.00000
G92 E0
G1 X100.863 Y118.447 F7800.000
G1 E4.00000 F2400.00000
G1 F2400
G1 X101.017 Y118.437 E4.00627
G1 X101.112 Y118.750 E4.01956
G1 X101.293 Y119.089 E4.03517
G1 X100.502 Y119.775 E4.07768
G1 X100.374 Y119.665 E4.08454
G1 X100.523 Y119.430 E4.09583
G1 X100.829 Y118.640 E4.13025
G1 X100.853 Y118.506 E4.13577
G1 E0.13577 F2400.00000
G92 E0
G1 X99.721 Y120.989 F7800.000
G1 E4.00000 F2400.00000
G1 F2400
G1 X100.971 Y122.440 E4.07780
G1 X98.437 Y122.440 E4.18075
G1 X98.391 Y122.310 E4.18636
G1 X99.544 Y121.383 E4.24646
G1 X99.442 Y121.185 E4.25551
G1 X99.672 Y121.023 E4.26694
G1 E0.26694 F2400.00000
G92 E0
G1 X101.402 Y122.440 F7800.000
G1 E4.00000 F2400.00000
G1 F2400
G1 X103.060 Y121.004 E4.08910
G1 X103.604 Y121.169 E4.11220
G1 X104.353 Y121.243 E4.14273
G1 X105.101 Y121.169 E4.17326
G1 X105.820 Y120.951 E4.20379
G1 X106.192 Y120.752 E4.22093
G1 X108.195 Y122.440 E4.32731
G1 X101.462 Y122.440 E4.60076
G1 X101.189 Y122.194 F7800.000
G1 F2400
G1 X102.983 Y120.640 E4.69714
G1 X103.668 Y120.848 E4.72624
G1 X104.353 Y120.916 E4.75416
G1 X105.037 Y120.848 E4.78209
G1 X105.695 Y120.649 E4.81001
G1 X106.233 Y120.361 E4.83481
G1 X109.086 Y122.766 E4.98635
G1 X97.511 Y122.766 E5.45645
G1 X97.465 Y122.635 E5.46207
G1 X99.132 Y121.296 E5.54891
G1 X99.022 Y121.082 E5.55870
G1 X99.483 Y120.758 E5.58161
G1 X99.730 Y120.500 E5.59610
G1 X101.150 Y122.148 E5.68446
G1 E1.68446 F2400.00000
G92 E0
G1 X120.514 Y92.107 F7800.000
G1 E4.00000 F2400.00000
G1 F2400
G1 X119.980 Y91.669 E4.02805
G1 X119.541 Y91.135 E4.05611
G1 X119.216 Y90.526 E4.08416
G1 X119.015 Y89.865 E4.11222
G1 X118.948 Y89.177 E4.14027
G1 X119.015 Y88.490 E4.16832
G1 X119.216 Y87.829 E4.19638
G1 X119.541 Y87.220 E4.22443
G1 X119.980 Y86.686 E4.25249
G1 X120.514 Y86.248 E4.28054
G1 X121.123 Y85.922 E4.30860
G1 X121.784 Y85.721 E4.33665
G1 X122.471 Y85.654 E4.36470
G1 X123.159 Y85.721 E4.39276
G1 X123.820 Y85.922 E4.42081
G1 X124.429 Y86.248 E4.44887
G1 X124.963 Y86.686 E4.47692
G1 X125.401 Y87.220 E4.50497
G1 X125.727 Y87.829 E4.53303
G1 X125.927 Y88.490 E4.56108
G1 X125.995 Y89.177 E4.58914
G1 X125.927 Y89.865 E4.61719
G1 X125.727 Y90.526 E4.64524
G1 X125.401 Y91.135 E4.67330
G1 X124.963 Y91.669 E4.70135
G1 X124.429 Y92.107 E4.72941
G1 X123.820 Y92.433 E4.75746
G1 X123.159 Y92.633 E4.78551
G1 X122.471 Y92.701 E4.81357
G1 X121.784 Y92.633 E4.84162
G1 X121.123 Y92.433 E4.86968
G1 X120.566 Y92.136 E4.89529
G1 X120.695 Y91.835 F7800.000
G1 F2400
G1 X120.211 Y91.438 E4.92074
G1 X119.813 Y90.953 E4.94619
G1 X119.518 Y90.401 E4.97164
G1 X119.336 Y89.801 E4.99709
G1 X119.275 Y89.177 E5.02254
G1 X119.336 Y88.554 E5.04799
G1 X119.518 Y87.954 E5.07344
G1 X119.813 Y87.402 E5.09889
G1 X120.211 Y86.917 E5.12434
G1 X120.695 Y86.520 E5.14979
G1 X121.248 Y86.224 E5.17523
G1 X121.848 Y86.042 E5.20068
G1 X122.471 Y85.981 E5.22613
G1 X123.095 Y86.042 E5.25158
G1 X123.694 Y86.224 E5.27703
G1 X124.247 Y86.520 E5.30248
G1 X124.732 Y86.917 E5.32793
G1 X125.129 Y87.402 E5.35338
G1 X125.424 Y87.954 E5.37883
G1 X125.606 Y88.554 E5.40428
G1 X125.668 Y89.177 E5.42973
G1 X125.606 Y89.801 E5.45517
G1 X125.424 Y90.401 E5.48062
G1 X125.129 Y90.953 E5.50607
G1 X124.732 Y91.438 E5.53152
G1 X124.247 Y91.835 E5.55697
G1 X123.694 Y92.131 E5.58242
G1 X123.095 Y92.312 E5.60787
G1 X122.471 Y92.374 E5.63332
G1 X121.848 Y92.312 E5.65877
G1 X121.248 Y92.131 E5.68422
G1 X120.748 Y91.863 E5.70723
G1 X120.695 Y91.835 F7800.000
G1 E1.70723 F2400.00000
G92 E0
G1 X120.594 Y113.606 F7800.000
G1 E4.00000 F2400.00000
G1 F2400
G1 X122.057 Y113.897 E4.06059
G1 X123.297 Y114.726 E4.12117
G1 X124.125 Y115.967 E4.18176
G1 X124.416 Y117.430 E4.24235
G1 X124.125 Y118.893 E4.30294
G1 X123.297 Y120.134 E4.36353
G1 X122.057 Y120.963 E4.42411
G1 X120.594 Y121.255 E4.48469
G1 X119.131 Y120.963 E4.54527
G1 X117.891 Y120.134 E4.60586
G1 X117.063 Y118.893 E4.66644
G1 X116.772 Y117.430 E4.72704
G1 X117.063 Y115.967 E4.78763
G1 X117.891 Y114.726 E4.84822
G1 X119.131 Y113.897 E4.90880
G1 X120.535 Y113.618 E4.96693
G1 X120.594 Y113.938 F7800.000
G1 F2400
G1 X121.930 Y114.204 E5.02226
G1 X123.062 Y114.961 E5.07758
G1 X123.819 Y116.094 E5.13291
G1 X124.084 Y117.430 E5.18824
G1 X123.819 Y118.767 E5.24357
G1 X123.062 Y119.899 E5.29890
G1 X121.930 Y120.657 E5.35422
G1 X120.594 Y120.923 E5.40954
G1 X119.258 Y120.657 E5.46485
G1 X118.126 Y119.899 E5.52017
G1 X117.369 Y118.767 E5.57550
G1 X117.104 Y117.430 E5.63084
G1 X117.369 Y116.094 E5.68617
G1 X118.126 Y114.961 E5.74150
G1 X119.258 Y114.204 E5.79682
G1 X120.535 Y113.950 E5.84969
G1 X120.594 Y114.270 F7800.000
G1 F2400
G1 X121.803 Y114.510 E5.89975
G1 X122.827 Y115.196 E5.94981
G1 X123.512 Y116.221 E5.99988
G1 X123.752 Y117.430 E6.04995
G1 X123.512 Y118.640 E6.10003
G1 X122.827 Y119.665 E6.15010
G1 X121.803 Y120.350 E6.20016
G1 X120.594 Y120.590 E6.25021
G1 X119.385 Y120.350 E6.30026
G1 X118.361 Y119.665 E6.35032
G1 X117.676 Y118.640 E6.40038
G1 X117.436 Y117.430 E6.45046
G1 X117.676 Y116.221 E6.50054
G1 X118.361 Y115.196 E6.55061
G1 X119.385 Y114.510 E6.60067
G1 X120.535 Y114.282 E6.64827
G1 X120.594 Y114.270 F7800.000
G1 E2.64827 F2400.00000
G92 E0
G1 X123.756 Y112.729 F7800.000
G1 E4.00000 F2400.00000
G1 F2400
G1 X119.208 Y112.989 E4.18502
G1 X116.662 Y113.270 E4.28907
G1 X115.872 Y106.652 E4.55977
G1 X119.492 Y106.417 E4.70707
G1 X119.469 Y107.126 E4.73587
G1 X122.036 Y107.307 E4.84038
G1 X121.777 Y110.310 E4.96279
G1 X123.609 Y110.205 E5.03730
G1 X123.753 Y112.669 E5.13755
G1 X123.412 Y112.423 F7800.000
G1 F2400
G1 X118.962 Y112.677 E5.31858
G1 X116.947 Y112.911 E5.40099
G1 X116.236 Y106.954 E5.64462
G1 X119.155 Y106.765 E5.76338
G1 X119.133 Y107.429 E5.79034
G1 X121.683 Y107.608 E5.89416
G1 X121.421 Y110.656 E6.01839
G1 X123.303 Y110.549 E6.09496
G1 X123.409 Y112.363 E6.16876
G1 X123.068 Y112.116 F7800.000
G1 F2400
G1 X118.647 Y112.368 E6.34863
G1 X118.646 Y112.396 E6.34974
G1 X117.232 Y112.552 E6.40751
G1 X116.600 Y107.257 E6.62407
G1 X118.817 Y107.114 E6.71430
G1 X118.687 Y111.138 E6.87784
G1 X119.416 Y111.097 E6.90752
G1 X119.593 Y107.788 E7.04210
G1 X121.330 Y107.910 E7.11281
G1 X121.064 Y111.003 E7.23887
G1 X122.997 Y110.892 E7.31750
G1 X123.065 Y112.056 E7.36485
G1 X123.221 Y112.486 F7800.000
G1 E3.36485 F2400.00000
G92 E0
G1 X121.691 Y105.196 F7800.000
G1 E4.00000 F2400.00000
G1 F2400
G1 X120.594 Y105.414 E4.04542
G1 X119.131 Y105.123 E4.10599
G1 X117.891 Y104.294 E4.16658
G1 X117.063 Y103.053 E4.22717
G1 X116.772 Y101.590 E4.28776
G1 X117.063 Y100.127 E4.34835
G1 X117.891 Y98.886 E4.40894
G1 X119.131 Y98.057 E4.46952
G1 X120.594 Y97.766 E4.53009
G1 X122.057 Y98.057 E4.59068
G1 X123.297 Y98.886 E4.65126
G1 X124.125 Y100.127 E4.71185
G1 X124.416 Y101.590 E4.77244
G1 X124.125 Y103.053 E4.83304
G1 X123.297 Y104.294 E4.89362
G1 X122.057 Y105.123 E4.95421
G1 X121.750 Y105.184 E4.96693
G1 X121.627 Y104.877 F7800.000
G1 F2400
G1 X120.594 Y105.082 E5.00972
G1 X119.258 Y104.816 E5.06503
G1 X118.126 Y104.059 E5.12035
G1 X117.369 Y102.926 E5.17568
G1 X117.104 Y101.590 E5.23102
G1 X117.369 Y100.254 E5.28635
G1 X118.126 Y99.121 E5.34168
G1 X119.258 Y98.363 E5.39700
G1 X120.594 Y98.098 E5.45231
G1 X121.930 Y98.363 E5.50763
G1 X123.062 Y99.121 E5.56295
G1 X123.819 Y100.254 E5.61828
G1 X124.084 Y101.590 E5.67361
G1 X123.819 Y102.926 E5.72895
G1 X123.062 Y104.059 E5.78428
G1 X121.930 Y104.816 E5.83960
G1 X121.686 Y104.865 E5.84969
G1 X121.564 Y104.557 F7800.000
G1 F2400
G1 X120.594 Y104.750 E5.88984
G1 X119.385 Y104.510 E5.93989
G1 X118.361 Y103.825 E5.98995
G1 X117.676 Y102.799 E6.04002
G1 X117.436 Y101.590 E6.09010
G1 X117.676 Y100.381 E6.14017
G1 X118.361 Y99.355 E6.19024
G1 X119.385 Y98.670 E6.24030
G1 X120.594 Y98.430 E6.29034
G1 X121.803 Y98.670 E6.34040
G1 X122.827 Y99.355 E6.39046
G1 X123.512 Y100.381 E6.44053
G1 X123.752 Y101.590 E6.49061
G1 X123.512 Y102.799 E6.54068
G1 X122.827 Y103.825 E6.59075
G1 X121.803 Y104.510 E6.64081
G1 X121.623 Y104.546 E6.64827
G1 X121.477 Y104.948 F7800.000
G1 E2.64827 F2400.00000
G92 E0
G1 X123.715 Y97.182 F7800.000
G1 E4.00000 F2400.00000
G1 F2400
G1 X118.614 Y97.475 E4.20751
G1 X118.614 Y97.445 E4.20876
G1 X116.923 Y97.772 E4.27871
G1 X116.900 Y94.977 E4.39220
G1 X119.604 Y94.454 E4.50405
G1 X119.606 Y94.689 E4.51359
G1 X123.692 Y94.454 E4.67981
G1 X123.715 Y97.122 E4.78818
G1 X123.387 Y96.875 F7800.000
G1 F2400
G1 X118.937 Y97.131 E4.96921
G1 X118.936 Y97.051 E4.97246
G1 X117.246 Y97.378 E5.04240
G1 X117.228 Y95.245 E5.12900
G1 X119.281 Y94.848 E5.21395
G1 X119.283 Y95.034 E5.22148
G1 X123.369 Y94.799 E5.38771
G1 X123.387 Y96.815 E5.46960
G1 E1.46960 F2400.00000
G92 E0
G1 X118.971 Y96.712 F7800.000
G1 E4.00000 F2400.00000
G1 F2400
G1 X117.568 Y96.984 E4.05805
G1 X117.556 Y95.514 E4.11776
G1 X118.959 Y95.242 E4.17581
G1 X118.971 Y96.652 E4.23308
G1 X119.124 Y97.082 F7800.000
G1 X119.260 Y96.786 F7800.000
G1 F2400
G1 X119.247 Y95.362 E4.29092
G1 X123.047 Y95.143 E4.44547
G1 X123.059 Y96.567 E4.50331
G1 X119.320 Y96.783 E4.65542
G1 X118.864 Y96.843 F7800.000
G1 E0.65542 F2400.00000
G92 E0
G1 X113.511 Y94.028 F7800.000
G1 E4.00000 F2400.00000
G1 F2400
G1 X114.095 Y87.382 E4.27098
G1 X112.221 Y88.146 E4.35316
G1 X112.049 Y87.865 E4.36653
G1 X111.281 Y87.036 E4.41245
G1 X110.365 Y86.372 E4.45838
G1 X109.338 Y85.899 E4.50430
G1 X108.238 Y85.635 E4.55027
G1 X107.096 Y85.594 E4.59668
G1 X105.992 Y85.770 E4.64206
G1 X104.931 Y86.162 E4.68799
G1 X103.968 Y86.753 E4.73391
G1 X103.138 Y87.521 E4.77984
G1 X102.474 Y88.436 E4.82576
G1 X102.001 Y89.464 E4.87168
G1 X101.738 Y90.563 E4.91761
G1 X101.694 Y91.693 E4.96353
G1 X101.823 Y92.504 E4.99687
G1 X101.641 Y92.653 E5.00643
G1 X101.164 Y93.235 E5.03697
G1 X100.948 Y93.639 E5.05557
G1 X100.498 Y92.822 E5.09344
G1 X99.911 Y92.124 E5.13047
G1 X99.586 Y91.865 E5.14735
G1 X99.661 Y91.742 E5.15318
G1 X96.499 Y88.835 E5.32761
G1 X93.557 Y91.972 E5.50226
G1 X93.580 Y92.001 E5.50376
G1 X93.344 Y92.200 E5.51631
G1 X93.035 Y92.584 E5.53629
G1 X92.758 Y92.173 E5.55641
G1 X92.055 Y91.475 E5.59666
G1 X91.228 Y90.928 E5.63691
G1 X90.797 Y90.751 E5.65585
G1 X91.094 Y90.389 E5.67488
G1 X91.450 Y89.723 E5.70554
G1 X91.669 Y89.001 E5.73619
G1 X91.743 Y88.250 E5.76685
G1 X91.669 Y87.498 E5.79751
G1 X91.450 Y86.776 E5.82817
G1 X91.094 Y86.110 E5.85883
G1 X90.615 Y85.527 E5.88949
G1 X90.149 Y85.144 E5.91397
G1 X122.426 Y85.144 E7.22484
G1 X122.436 Y85.330 E7.23239
G1 X121.720 Y85.401 E7.26160
G1 X120.998 Y85.620 E7.29226
G1 X120.332 Y85.976 E7.32292
G1 X119.748 Y86.454 E7.35357
G1 X119.269 Y87.038 E7.38423
G1 X118.913 Y87.704 E7.41489
G1 X118.694 Y88.426 E7.44555
G1 X118.620 Y89.177 E7.47621
G1 X118.694 Y89.929 E7.50687
G1 X118.913 Y90.651 E7.53753
G1 X119.269 Y91.317 E7.56819
G1 X119.748 Y91.900 E7.59885
G1 X120.332 Y92.379 E7.62951
G1 X120.998 Y92.735 E7.66017
G1 X121.720 Y92.954 E7.69082
G1 X122.471 Y93.028 E7.72148
G1 X123.223 Y92.954 E7.75214
G1 X123.945 Y92.735 E7.78280
G1 X124.611 Y92.379 E7.81346
G1 X125.194 Y91.900 E7.84412
G1 X125.673 Y91.317 E7.87478
G1 X126.029 Y90.651 E7.90544
G1 X126.248 Y89.929 E7.93610
G1 X126.322 Y89.177 E7.96676
G1 X126.248 Y88.426 E7.99742
G1 X126.029 Y87.704 E8.02807
G1 X125.673 Y87.038 E8.05873
G1 X125.194 Y86.454 E8.08939
G1 X124.611 Y85.976 E8.12005
G1 X123.945 Y85.620 E8.15071
G1 X123.223 Y85.401 E8.18137
G1 X122.507 Y85.330 E8.21058
G1 X122.516 Y85.144 E8.21813
G1 X126.715 Y85.144 E8.38865
G1 X126.715 Y122.440 E9.90336
G1 X111.560 Y122.440 E10.51886
G1 X112.216 Y121.829 E10.55528
