; generated by Slic3r 1.3.0 on 2022-10-29 at 12:14:33

; external perimeters extrusion width = 0.44mm (4.26mm^3/s)
; perimeters extrusion width = 0.51mm (5.03mm^3/s)
; infill extrusion width = 0.50mm (4.93mm^3/s)
; solid infill extrusion width = 0.51mm (5.03mm^3/s)
; top infill extrusion width = 0.51mm (5.03mm^3/s)

M107
M190 S60 ; set bed temperature and wait for it to be reached
M104 S215 ; set temperature
G28 ; home all axes

; Filament gcode

M109 S215 ; set temperature and wait for it to be reached
G21 ; set units to millimeters
G90 ; use absolute coordinates
M82 ; use absolute distances for extrusion
G92 E0
G1 E-4.00000 F2400.00000
G92 E0
G1 Z0.300 F7800.000
G1 X44.977 Y64.263 F7800.000
G1 E4.00000 F2400.00000
G1 F2400
G1 X47.159 Y63.381 E4.09560
G1 X48.645 Y63.221 E4.15629
G1 X161.649 Y63.221 E8.74574
G1 X163.969 Y63.618 E8.84135
G1 X166.026 Y64.764 E8.93695
G1 X167.584 Y66.529 E9.03256
G1 X168.466 Y68.711 E9.12816
G1 X168.626 Y70.198 E9.18889
G1 X168.623 Y137.764 E11.93295
G1 X168.226 Y140.084 E12.02856
G1 X167.080 Y142.140 E12.12416
G1 X165.315 Y143.698 E12.21977
G1 X163.132 Y144.580 E12.31537
G1 X161.847 Y144.738 E12.36795
G1 X91.125 Y146.776 E15.24140
G1 X48.638 Y146.779 E16.96694
G1 X46.317 Y146.382 E17.06254
G1 X44.261 Y145.236 E17.15815
G1 X42.703 Y143.471 E17.25375
G1 X41.821 Y141.289 E17.34936
G1 X41.661 Y139.802 E17.41010
G1 X41.668 Y70.197 E20.23697
G1 X42.065 Y67.876 E20.33258
G1 X43.212 Y65.820 E20.42818
G1 X44.932 Y64.302 E20.52135
G1 X45.288 Y64.455 F7800.000
G1 F2400
G1 X47.443 Y63.656 E20.61468
G1 X48.645 Y63.546 E20.66370
G1 X161.649 Y63.546 E25.25315
G1 X163.913 Y63.943 E25.34648
G1 X165.906 Y65.087 E25.43981
G1 X167.391 Y66.840 E25.53314
G1 X168.191 Y68.995 E25.62647
G1 X168.300 Y70.198 E25.67552
G1 X168.298 Y137.764 E28.41959
G1 X167.901 Y140.027 E28.51292
G1 X166.757 Y142.021 E28.60625
G1 X165.003 Y143.506 E28.69958
G1 X161.838 Y144.412 E28.83329
G1 X91.116 Y146.451 E31.70674
G1 X48.638 Y146.454 E33.43190
G1 X46.374 Y146.057 E33.52523
G1 X44.381 Y144.913 E33.61856
G1 X42.896 Y143.160 E33.71189
G1 X42.096 Y141.005 E33.80522
G1 X41.986 Y139.802 E33.85429
G1 X41.994 Y70.197 E36.68117
G1 X42.391 Y67.933 E36.77450
G1 X43.535 Y65.940 E36.86783
G1 X45.243 Y64.494 E36.95872
G1 X45.599 Y64.654 F7800.000
G1 F2400
G1 X48.645 Y63.872 E37.08644
G1 X161.649 Y63.872 E41.67589
G1 X163.854 Y64.269 E41.76689
G1 X165.783 Y65.409 E41.85789
G1 X167.193 Y67.151 E41.94889
G1 X167.975 Y70.198 E42.07664
G1 X167.972 Y137.764 E44.82071
G1 X167.575 Y139.969 E44.91171
G1 X166.434 Y141.898 E45.00271
G1 X164.693 Y143.307 E45.09370
G1 X161.829 Y144.087 E45.21425
G1 X91.106 Y146.126 E48.08770
G1 X48.638 Y146.128 E49.81248
G1 X46.432 Y145.731 E49.90348
G1 X44.504 Y144.591 E49.99448
G1 X43.094 Y142.849 E50.08548
G1 X42.312 Y139.802 E50.21324
G1 X42.319 Y70.197 E53.04012
G1 X42.716 Y67.992 E53.13112
G1 X43.857 Y66.063 E53.22212
G1 X45.552 Y64.691 E53.31068
G1 E49.31068 F2400.00000
G92 E0
G1 X117.472 Y109.840 F7800.000
G1 E4.00000 F2400.00000
G1 F2400
G1 X116.763 Y110.278 E4.03384
G1 X116.007 Y110.640 E4.06790
G1 X115.464 Y110.843 E4.09143
G1 X114.655 Y111.064 E4.12549
G1 X113.820 Y111.200 E4.15986
G1 X112.975 Y111.245 E4.19423
G1 X112.137 Y111.200 E4.22830
G1 X111.563 Y111.118 E4.25183
G1 X110.747 Y110.925 E4.28589
G1 X109.949 Y110.643 E4.32026
G1 X109.186 Y110.278 E4.35463
G1 X108.466 Y109.833 E4.38900
G1 X107.804 Y109.319 E4.42306
G1 X107.385 Y108.929 E4.44629
G1 X106.991 Y108.506 E4.46977
G1 X106.481 Y107.848 E4.50358
G1 X106.036 Y107.128 E4.53794
G1 X105.671 Y106.365 E4.57231
G1 X105.392 Y105.574 E4.60637
G1 X105.249 Y105.013 E4.62990
G1 X105.114 Y104.185 E4.66396
G1 X105.069 Y103.340 E4.69833
G1 X105.114 Y102.495 E4.73270
G1 X105.249 Y101.667 E4.76677
G1 X105.392 Y101.105 E4.79030
G1 X105.671 Y100.314 E4.82436
G1 X106.036 Y99.551 E4.85872
G1 X106.473 Y98.843 E4.89250
G1 X106.824 Y98.374 E4.91631
G1 X107.380 Y97.755 E4.95009
G1 X107.808 Y97.357 E4.97384
G1 X108.466 Y96.846 E5.00767
G1 X109.186 Y96.401 E5.04204
G1 X109.949 Y96.036 E5.07641
G1 X110.740 Y95.757 E5.11047
G1 X111.302 Y95.614 E5.13400
G1 X112.129 Y95.480 E5.16806
G1 X112.960 Y95.435 E5.20183
G1 X113.546 Y95.455 E5.22564
G1 X114.378 Y95.560 E5.25972
G1 X115.202 Y95.754 E5.29409
G1 X116.000 Y96.036 E5.32846
G1 X116.763 Y96.401 E5.36283
G1 X117.483 Y96.846 E5.39720
G1 X118.145 Y97.360 E5.43126
G1 X118.570 Y97.755 E5.45479
G1 X119.125 Y98.374 E5.48856
G1 X119.476 Y98.843 E5.51237
G1 X119.913 Y99.551 E5.54614
G1 X120.278 Y100.314 E5.58051
G1 X120.560 Y101.112 E5.61488
G1 X120.753 Y101.929 E5.64894
G1 X120.835 Y102.502 E5.67247
G1 X120.880 Y103.340 E5.70653
G1 X120.835 Y104.177 E5.74060
G1 X120.751 Y104.756 E5.76436
G1 X120.560 Y105.567 E5.79819
G1 X120.278 Y106.365 E5.83256
G1 X119.913 Y107.128 E5.86693
G1 X119.468 Y107.848 E5.90130
G1 X118.954 Y108.511 E5.93536
G1 X118.559 Y108.935 E5.95889
G1 X117.940 Y109.490 E5.99265
G1 X117.520 Y109.804 E6.01396
G1 X117.289 Y109.571 F7800.000
G1 F2400
G1 X116.607 Y109.992 E6.04651
G1 X115.879 Y110.340 E6.07927
G1 X115.364 Y110.532 E6.10162
G1 X114.586 Y110.746 E6.13438
G1 X113.785 Y110.876 E6.16733
G1 X112.975 Y110.919 E6.20029
G1 X112.169 Y110.876 E6.23305
G1 X111.624 Y110.797 E6.25540
G1 X110.839 Y110.612 E6.28816
G1 X110.074 Y110.342 E6.32111
G1 X109.342 Y109.992 E6.35407
G1 X108.652 Y109.565 E6.38702
G1 X108.015 Y109.071 E6.41978
G1 X107.615 Y108.699 E6.44195
G1 X107.239 Y108.295 E6.46436
G1 X106.749 Y107.662 E6.49687
G1 X106.322 Y106.972 E6.52982
G1 X105.972 Y106.240 E6.56277
G1 X105.704 Y105.479 E6.59553
G1 X105.568 Y104.946 E6.61788
G1 X105.439 Y104.150 E6.65064
G1 X105.395 Y103.340 E6.68360
G1 X105.439 Y102.529 E6.71655
G1 X105.568 Y101.733 E6.74931
G1 X105.704 Y101.200 E6.77166
G1 X105.972 Y100.439 E6.80442
G1 X106.322 Y99.707 E6.83737
G1 X106.742 Y99.027 E6.86985
G1 X107.076 Y98.580 E6.89248
G1 X107.612 Y97.984 E6.92507
G1 X108.019 Y97.605 E6.94764
G1 X108.652 Y97.114 E6.98018
G1 X109.342 Y96.687 E7.01313
G1 X110.074 Y96.337 E7.04608
G1 X110.835 Y96.069 E7.07884
G1 X111.368 Y95.933 E7.10119
G1 X112.164 Y95.804 E7.13395
G1 X112.963 Y95.761 E7.16643
G1 X113.520 Y95.780 E7.18906
G1 X114.320 Y95.881 E7.22183
G1 X115.110 Y96.067 E7.25478
G1 X115.875 Y96.337 E7.28773
G1 X116.607 Y96.687 E7.32068
G1 X117.297 Y97.114 E7.35364
G1 X117.934 Y97.609 E7.38640
G1 X118.337 Y97.984 E7.40875
G1 X118.873 Y98.580 E7.44133
G1 X119.207 Y99.027 E7.46396
G1 X119.627 Y99.707 E7.49644
G1 X119.977 Y100.439 E7.52939
G1 X120.247 Y101.204 E7.56234
G1 X120.432 Y101.989 E7.59510
G1 X120.511 Y102.534 E7.61745
G1 X120.554 Y103.340 E7.65022
G1 X120.511 Y104.145 E7.68298
G1 X120.431 Y104.695 E7.70556
G1 X120.247 Y105.475 E7.73809
G1 X119.977 Y106.240 E7.77104
G1 X119.627 Y106.972 E7.80399
G1 X119.200 Y107.662 E7.83695
G1 X118.705 Y108.299 E7.86971
G1 X118.330 Y108.702 E7.89206
G1 X117.734 Y109.238 E7.92464
G1 X117.337 Y109.535 E7.94476
G1 X117.105 Y109.301 F7800.000
G1 F2400
G1 X116.451 Y109.706 E7.97602
G1 X115.752 Y110.040 E8.00748
G1 X115.263 Y110.222 E8.02865
G1 X114.516 Y110.427 E8.06011
G1 X113.750 Y110.551 E8.09164
G1 X112.975 Y110.593 E8.12318
G1 X112.201 Y110.551 E8.15464
G1 X111.685 Y110.477 E8.17581
G1 X110.931 Y110.299 E8.20727
G1 X110.199 Y110.041 E8.23881
G1 X109.498 Y109.706 E8.27034
G1 X108.838 Y109.298 E8.30188
G1 X108.226 Y108.822 E8.33334
G1 X107.846 Y108.468 E8.35444
G1 X107.488 Y108.083 E8.37579
G1 X107.017 Y107.476 E8.40700
G1 X106.608 Y106.816 E8.43853
G1 X106.273 Y106.115 E8.47007
G1 X106.016 Y105.385 E8.50153
G1 X105.887 Y104.880 E8.52270
G1 X105.763 Y104.115 E8.55416
G1 X105.721 Y103.340 E8.58570
G1 X105.763 Y102.564 E8.61723
G1 X105.887 Y101.800 E8.64870
G1 X106.016 Y101.295 E8.66987
G1 X106.273 Y100.564 E8.70133
G1 X106.608 Y99.864 E8.73286
G1 X107.012 Y99.210 E8.76405
G1 X107.328 Y98.787 E8.78549
G1 X107.845 Y98.212 E8.81689
G1 X108.230 Y97.853 E8.83827
G1 X108.838 Y97.382 E8.86952
G1 X109.498 Y96.974 E8.90105
G1 X110.199 Y96.638 E8.93259
G1 X110.929 Y96.381 E8.96405
G1 X111.434 Y96.252 E8.98522
G1 X112.199 Y96.128 E9.01668
G1 X112.966 Y96.087 E9.04787
G1 X113.494 Y96.105 E9.06931
G1 X114.262 Y96.202 E9.10078
G1 X115.018 Y96.380 E9.13231
G1 X115.750 Y96.638 E9.16385
G1 X116.451 Y96.974 E9.19538
G1 X117.111 Y97.382 E9.22692
G1 X117.723 Y97.857 E9.25838
G1 X118.105 Y98.212 E9.27955
G1 X118.621 Y98.787 E9.31094
G1 X118.937 Y99.210 E9.33239
G1 X119.341 Y99.864 E9.36358
G1 X119.676 Y100.564 E9.39511
G1 X119.934 Y101.296 E9.42664
G1 X120.112 Y102.050 E9.45811
G1 X120.186 Y102.566 E9.47927
G1 X120.228 Y103.340 E9.51074
G1 X120.186 Y104.113 E9.54220
G1 X120.111 Y104.635 E9.56359
G1 X119.934 Y105.383 E9.59483
G1 X119.676 Y106.115 E9.62637
G1 X119.341 Y106.816 E9.65790
G1 X118.932 Y107.476 E9.68944
G1 X118.457 Y108.088 E9.72090
G1 X118.102 Y108.470 E9.74207
G1 X117.527 Y108.986 E9.77346
G1 X117.153 Y109.266 E9.79241
G1 X117.105 Y109.301 F7800.000
G1 E5.79241 F2400.00000
G92 E0
G1 X118.551 Y111.437 F7800.000
G1 E4.00000 F2400.00000
G1 F2400
G1 X117.999 Y111.794 E4.02670
G1 X117.377 Y112.134 E4.05551
G1 X116.731 Y112.429 E4.08433
G1 X115.738 Y112.778 E4.12709
G1 X114.796 Y113.003 E4.16643
G1 X114.016 Y113.119 E4.19844
G1 X112.974 Y113.174 E4.24084
G1 X112.341 Y113.153 E4.26653
G1 X111.921 Y113.118 E4.28368
G1 X110.884 Y112.949 E4.32633
G1 X110.204 Y112.776 E4.35484
G1 X109.213 Y112.427 E4.39749
G1 X108.827 Y112.256 E4.41464
G1 X108.264 Y111.972 E4.44025
G1 X107.594 Y111.570 E4.47199
G1 X106.809 Y111.002 E4.51133
G1 X106.020 Y110.294 E4.55439
G1 X105.312 Y109.505 E4.59746
G1 X104.744 Y108.720 E4.63679
G1 X104.342 Y108.050 E4.66854
G1 X103.890 Y107.107 E4.71101
G1 X103.666 Y106.510 E4.73690
G1 X103.537 Y106.108 E4.75405
G1 X103.311 Y105.161 E4.79359
G1 X103.196 Y104.388 E4.82533
G1 X103.150 Y103.759 E4.85093
G1 X103.140 Y103.337 E4.86808
G1 X103.197 Y102.281 E4.91104
G1 X103.350 Y101.324 E4.95038
G1 X103.541 Y100.560 E4.98239
G1 X103.891 Y99.569 E5.02506
G1 X104.342 Y98.628 E5.06742
G1 X104.744 Y97.959 E5.09913
G1 X105.317 Y97.169 E5.13878
G1 X106.021 Y96.386 E5.18153
G1 X106.798 Y95.687 E5.22398
G1 X107.372 Y95.257 E5.25311
G1 X108.261 Y94.708 E5.29556
G1 X108.896 Y94.391 E5.32438
G1 X109.531 Y94.128 E5.35228
G1 X110.535 Y93.812 E5.39503
G1 X111.236 Y93.660 E5.42416
G1 X112.271 Y93.531 E5.46652
G1 X113.051 Y93.507 E5.49823
G1 X113.683 Y93.530 E5.52390
G1 X114.442 Y93.616 E5.55492
G1 X115.064 Y93.730 E5.58061
G1 X115.746 Y93.904 E5.60920
G1 X116.347 Y94.102 E5.63489
G1 X116.733 Y94.252 E5.65173
G1 X117.377 Y94.545 E5.68044
G1 X118.286 Y95.063 E5.72293
G1 X118.812 Y95.427 E5.74892
G1 X119.148 Y95.684 E5.76607
G1 X119.929 Y96.386 E5.80876
G1 X120.629 Y97.165 E5.85128
G1 X121.056 Y97.735 E5.88019
G1 X121.606 Y98.626 E5.92271
G1 X122.058 Y99.569 E5.96520
G1 X122.306 Y100.234 E5.99402
G1 X122.585 Y101.249 E6.03677
G1 X122.753 Y102.289 E6.07957
G1 X122.799 Y102.920 E6.10526
G1 X122.803 Y103.683 E6.13624
G1 X122.752 Y104.396 E6.16526
G1 X122.698 Y104.807 E6.18211
G1 X122.506 Y105.764 E6.22177
G1 X122.306 Y106.445 E6.25059
G1 X122.058 Y107.110 E6.27941
G1 X121.606 Y108.053 E6.32186
G1 X121.244 Y108.663 E6.35068
G1 X120.629 Y109.514 E6.39333
G1 X119.924 Y110.299 E6.43615
G1 X119.145 Y110.998 E6.47868
G1 X118.601 Y111.403 E6.50622
G1 X118.734 Y111.707 F7800.000
G1 F2400
G1 X118.163 Y112.075 E6.53382
G1 X117.522 Y112.425 E6.56347
G1 X116.858 Y112.728 E6.59311
G1 X116.530 Y112.858 E6.60747
G1 X115.833 Y113.090 E6.63730
G1 X114.855 Y113.323 E6.67813
G1 X114.055 Y113.442 E6.71098
G1 X113.704 Y113.474 E6.72528
G1 X112.974 Y113.500 E6.75495
G1 X112.322 Y113.478 E6.78142
G1 X111.887 Y113.442 E6.79918
G1 X111.533 Y113.397 E6.81365
G1 X110.815 Y113.268 E6.84330
G1 X110.112 Y113.088 E6.87275
G1 X109.419 Y112.858 E6.90240
G1 X109.088 Y112.727 E6.91688
G1 X108.688 Y112.550 E6.93463
G1 X108.107 Y112.258 E6.96105
G1 X107.417 Y111.844 E6.99374
G1 X106.603 Y111.254 E7.03457
G1 X106.048 Y110.773 E7.06440
G1 X105.790 Y110.524 E7.07894
G1 X105.541 Y110.267 E7.09348
G1 X105.060 Y109.711 E7.12332
G1 X104.470 Y108.897 E7.16414
G1 X104.056 Y108.207 E7.19683
G1 X103.764 Y107.626 E7.22325
G1 X103.589 Y107.230 E7.24084
G1 X103.358 Y106.617 E7.26744
G1 X103.225 Y106.201 E7.28519
G1 X102.991 Y105.220 E7.32614
G1 X102.872 Y104.424 E7.35883
G1 X102.825 Y103.775 E7.38525
G1 X102.814 Y103.338 E7.40300
G1 X102.820 Y102.982 E7.41748
G1 X102.873 Y102.249 E7.44731
G1 X103.031 Y101.256 E7.48814
G1 X103.227 Y100.471 E7.52100
G1 X103.333 Y100.135 E7.53529
G1 X103.589 Y99.447 E7.56513
G1 X103.730 Y99.123 E7.57948
G1 X104.056 Y98.472 E7.60907
G1 X104.470 Y97.782 E7.64174
G1 X105.063 Y96.964 E7.68275
G1 X105.293 Y96.690 E7.69730
G1 X105.790 Y96.155 E7.72694
G1 X106.324 Y95.658 E7.75659
G1 X106.596 Y95.431 E7.77094
G1 X107.184 Y94.991 E7.80077
G1 X107.477 Y94.795 E7.81513
G1 X108.105 Y94.422 E7.84477
G1 X108.758 Y94.095 E7.87441
G1 X109.419 Y93.821 E7.90349
G1 X110.116 Y93.589 E7.93333
G1 X110.457 Y93.496 E7.94768
G1 X111.175 Y93.340 E7.97751
G1 X111.524 Y93.283 E7.99187
G1 X112.248 Y93.205 E8.02146
G1 X113.052 Y93.181 E8.05412
G1 X113.703 Y93.205 E8.08059
G1 X114.492 Y93.294 E8.11283
G1 X115.134 Y93.411 E8.13931
G1 X115.837 Y93.591 E8.16881
G1 X116.456 Y93.796 E8.19528
G1 X116.860 Y93.952 E8.21285
G1 X117.522 Y94.254 E8.24243
G1 X118.163 Y94.604 E8.27207
G1 X118.464 Y94.790 E8.28645
G1 X119.004 Y95.163 E8.31311
G1 X119.351 Y95.429 E8.33087
G1 X119.625 Y95.658 E8.34534
G1 X120.159 Y96.156 E8.37501
G1 X120.604 Y96.632 E8.40149
G1 X120.884 Y96.962 E8.41905
G1 X121.322 Y97.547 E8.44875
G1 X121.560 Y97.909 E8.46632
G1 X121.892 Y98.470 E8.49279
G1 X122.219 Y99.123 E8.52246
G1 X122.360 Y99.447 E8.53681
G1 X122.615 Y100.131 E8.56646
G1 X122.820 Y100.831 E8.59610
G1 X122.903 Y101.180 E8.61065
G1 X122.973 Y101.531 E8.62519
G1 X123.077 Y102.254 E8.65485
G1 X123.124 Y102.904 E8.68133
G1 X123.129 Y103.698 E8.71355
G1 X123.076 Y104.429 E8.74332
G1 X123.020 Y104.858 E8.76089
G1 X122.820 Y105.848 E8.80191
G1 X122.615 Y106.548 E8.83156
G1 X122.360 Y107.232 E8.86120
G1 X122.219 Y107.556 E8.87556
G1 X121.892 Y108.209 E8.90520
G1 X121.519 Y108.837 E8.93485
G1 X121.323 Y109.131 E8.94920
G1 X120.884 Y109.717 E8.97897
G1 X120.604 Y110.047 E8.99653
G1 X120.156 Y110.527 E9.02320
G1 X119.901 Y110.773 E9.03757
G1 X119.349 Y111.251 E9.06724
G1 X118.784 Y111.673 E9.09589
G1 X118.917 Y111.976 F7800.000
G1 F2400
G1 X118.327 Y112.357 E9.12441
G1 X117.668 Y112.717 E9.15488
G1 X116.986 Y113.028 E9.18535
G1 X116.641 Y113.164 E9.20041
G1 X115.927 Y113.401 E9.23095
G1 X114.914 Y113.644 E9.27327
G1 X114.093 Y113.766 E9.30696
G1 X113.724 Y113.799 E9.32200
G1 X112.974 Y113.826 E9.35248
G1 X112.303 Y113.803 E9.37974
G1 X111.853 Y113.766 E9.39810
G1 X111.484 Y113.719 E9.41321
G1 X110.746 Y113.586 E9.44368
G1 X110.020 Y113.401 E9.47408
G1 X109.308 Y113.164 E9.50455
G1 X108.962 Y113.028 E9.51966
G1 X108.549 Y112.845 E9.53802
G1 X107.950 Y112.543 E9.56526
G1 X107.240 Y112.117 E9.59889
G1 X106.396 Y111.506 E9.64120
G1 X105.828 Y111.013 E9.67175
G1 X105.560 Y110.754 E9.68688
G1 X105.301 Y110.486 E9.70201
G1 X104.808 Y109.918 E9.73255
G1 X104.197 Y109.074 E9.77486
G1 X103.771 Y108.364 E9.80850
G1 X103.469 Y107.765 E9.83574
G1 X103.287 Y107.353 E9.85403
G1 X103.051 Y106.724 E9.88134
G1 X102.913 Y106.293 E9.89970
G1 X102.670 Y105.279 E9.94206
G1 X102.548 Y104.460 E9.97569
G1 X102.499 Y103.791 E10.00293
G1 X102.488 Y103.339 E10.02129
G1 X102.495 Y102.967 E10.03640
G1 X102.549 Y102.217 E10.06694
G1 X102.713 Y101.188 E10.10925
G1 X102.914 Y100.383 E10.14295
G1 X103.024 Y100.030 E10.15799
G1 X103.287 Y99.325 E10.18853
G1 X103.435 Y98.985 E10.20359
G1 X103.771 Y98.315 E10.23404
G1 X104.197 Y97.605 E10.26767
G1 X104.810 Y96.760 E10.31005
G1 X105.048 Y96.474 E10.32518
G1 X105.560 Y95.925 E10.35565
G1 X106.109 Y95.414 E10.38612
G1 X106.393 Y95.176 E10.40119
G1 X106.995 Y94.725 E10.43173
G1 X107.304 Y94.519 E10.44679
G1 X107.949 Y94.136 E10.47726
G1 X108.620 Y93.800 E10.50773
G1 X109.308 Y93.515 E10.53799
G1 X110.022 Y93.278 E10.56853
G1 X110.380 Y93.180 E10.58360
G1 X111.114 Y93.020 E10.61414
G1 X111.480 Y92.961 E10.62920
G1 X112.226 Y92.880 E10.65965
G1 X113.053 Y92.855 E10.69327
G1 X113.724 Y92.880 E10.72053
