; generated by Slic3r 1.3.0 on 2023-01-25 at 16:08:44

; external perimeters extrusion width = 0.44mm (4.26mm^3/s)
; perimeters extrusion width = 0.51mm (5.03mm^3/s)
; infill extrusion width = 0.50mm (4.93mm^3/s)
; solid infill extrusion width = 0.51mm (5.03mm^3/s)
; top infill extrusion width = 0.51mm (5.03mm^3/s)

M107
M190 S60 ; set bed temperature and wait for it to be reached
M104 S215 ; set temperature
G28 ; home all axes

; Filament gcode

M109 S215 ; set temperature and wait for it to be reached
G21 ; set units to millimeters
G90 ; use absolute coordinates
M82 ; use absolute distances for extrusion
G92 E0
G1 E-4.00000 F2400.00000
G92 E0
G1 Z0.300 F7800.000
G1 X67.392 Y75.245 F7800.000
G1 E4.00000 F2400.00000
G1 F2400
G1 X69.575 Y74.363 E4.09560
G1 X71.061 Y74.202 E4.15632
G1 X138.939 Y74.202 E6.91304
G1 X141.259 Y74.600 E7.00864
G1 X143.315 Y75.746 E7.10425
G1 X144.873 Y77.511 E7.19985
G1 X145.755 Y79.693 E7.29545
G1 X145.916 Y81.179 E7.35617
G1 X145.916 Y128.821 E9.29103
G1 X145.519 Y131.141 E9.38663
G1 X144.372 Y133.197 E9.48224
G1 X142.608 Y134.755 E9.57784
G1 X140.425 Y135.637 E9.67345
G1 X138.939 Y135.798 E9.73416
G1 X71.061 Y135.798 E12.49088
G1 X68.741 Y135.400 E12.58648
G1 X66.685 Y134.254 E12.68209
G1 X65.127 Y132.489 E12.77769
G1 X64.245 Y130.307 E12.87330
G1 X64.084 Y128.821 E12.93401
G1 X64.084 Y81.179 E14.86887
G1 X64.481 Y78.859 E14.96448
G1 X65.628 Y76.803 E15.06008
G1 X67.347 Y75.285 E15.15325
G1 X67.704 Y75.437 F7800.000
G1 F2400
G1 X69.859 Y74.638 E15.24658
G1 X71.061 Y74.528 E15.29562
G1 X138.939 Y74.528 E18.05234
G1 X141.202 Y74.925 E18.14567
G1 X143.196 Y76.069 E18.23900
G1 X144.681 Y77.822 E18.33233
G1 X145.480 Y79.977 E18.42566
G1 X145.590 Y81.179 E18.47470
G1 X145.590 Y128.821 E20.40956
G1 X145.193 Y131.084 E20.50289
G1 X144.049 Y133.077 E20.59622
G1 X142.296 Y134.563 E20.68955
G1 X140.141 Y135.362 E20.78289
G1 X138.939 Y135.472 E20.83193
G1 X71.061 Y135.472 E23.58864
G1 X68.798 Y135.075 E23.68198
G1 X66.804 Y133.931 E23.77531
G1 X65.319 Y132.178 E23.86864
G1 X64.520 Y130.023 E23.96197
G1 X64.410 Y128.821 E24.01101
G1 X64.410 Y81.179 E25.94587
G1 X64.807 Y78.916 E26.03920
G1 X65.951 Y76.923 E26.13253
G1 X67.658 Y75.476 E26.22342
G1 X68.015 Y75.636 F7800.000
G1 F2400
G1 X71.061 Y74.854 E26.35117
G1 X138.939 Y74.854 E29.10788
G1 X141.144 Y75.251 E29.19888
G1 X143.073 Y76.391 E29.28988
G1 X144.482 Y78.133 E29.38088
G1 X145.264 Y81.179 E29.50862
G1 X145.264 Y128.821 E31.44348
G1 X144.868 Y131.026 E31.53448
G1 X143.727 Y132.954 E31.62548
G1 X141.985 Y134.364 E31.71648
G1 X138.939 Y135.146 E31.84422
G1 X71.061 Y135.146 E34.60094
G1 X68.856 Y134.749 E34.69194
G1 X66.927 Y133.609 E34.78294
G1 X65.518 Y131.867 E34.87394
G1 X64.736 Y128.821 E35.00168
G1 X64.736 Y81.179 E36.93654
G1 X65.132 Y78.974 E37.02754
G1 X66.273 Y77.046 E37.11854
G1 X67.968 Y75.673 E37.20710
G1 E33.20710 F2400.00000
G92 E0
G1 X93.170 Y125.933 F7800.000
G1 E4.00000 F2400.00000
G1 F2400
G1 X86.427 Y125.933 E4.27383
G1 X86.427 Y121.307 E4.46171
G1 X93.170 Y121.307 E4.73554
G1 X93.170 Y125.873 E4.92098
G1 X92.844 Y125.608 F7800.000
G1 F2400
G1 X86.753 Y125.608 E5.16836
G1 X86.753 Y121.633 E5.32979
G1 X92.844 Y121.633 E5.57717
G1 X92.844 Y125.548 E5.73617
G1 X92.519 Y125.282 F7800.000
G1 F2400
G1 X87.079 Y125.282 E5.95710
G1 X87.079 Y121.958 E6.09208
G1 X92.519 Y121.958 E6.31301
G1 X92.519 Y125.222 E6.44556
G1 X92.652 Y125.659 F7800.000
G1 E2.44556 F2400.00000
G92 E0
G1 X71.907 Y127.974 F7800.000
G1 E4.00000 F2400.00000
G1 F2400
G1 X71.907 Y82.026 E5.86612
G1 X138.093 Y82.026 E8.55410
G1 X138.093 Y127.974 E10.42023
G1 X71.967 Y127.974 E13.10577
G1 X71.582 Y128.300 F7800.000
G1 F2400
G1 X71.582 Y81.700 E14.99834
G1 X138.418 Y81.700 E17.71277
G1 X138.418 Y128.300 E19.60534
G1 X71.642 Y128.300 E22.31733
G1 X71.256 Y128.626 F7800.000
G1 F2400
G1 X71.256 Y81.374 E24.23635
G1 X138.744 Y81.374 E26.97723
G1 X138.744 Y128.626 E28.89625
G1 X71.316 Y128.626 E31.63469
G1 X71.382 Y128.246 F7800.000
G1 E27.63469 F2400.00000
G92 E0
G1 X79.084 Y127.683 F7800.000
G1 E4.00000 F2400.00000
G1 F2400
G1 X79.546 Y127.683 E4.01881
G1 X86.136 Y121.093 E4.39840
G1 X86.136 Y121.555 E4.41721
G1 X80.008 Y127.683 E4.77021
G1 X80.470 Y127.683 E4.78901
G1 X86.136 Y122.017 E5.11541
G1 X86.136 Y122.478 E5.13422
G1 X80.931 Y127.683 E5.43402
G1 X81.393 Y127.683 E5.45283
G1 X86.136 Y122.940 E5.72603
G1 X86.136 Y123.402 E5.74483
G1 X81.855 Y127.683 E5.99144
G1 X82.317 Y127.683 E6.01024
G1 X86.136 Y123.864 E6.23025
G1 X86.136 Y124.325 E6.24906
G1 X82.779 Y127.683 E6.44246
G1 X83.240 Y127.683 E6.46127
G1 X86.136 Y124.787 E6.62808
G1 X86.136 Y125.249 E6.64688
G1 X83.702 Y127.683 E6.78709
G1 X84.164 Y127.683 E6.80590
G1 X86.136 Y125.711 E6.91951
G1 X86.136 Y126.173 E6.93832
G1 X84.626 Y127.683 E7.02533
G1 X85.088 Y127.683 E7.04414
G1 X86.547 Y126.224 E7.12817
G1 X87.008 Y126.224 E7.14698
G1 X85.549 Y127.683 E7.23101
G1 X86.011 Y127.683 E7.24982
G1 X87.470 Y126.224 E7.33386
G1 X87.932 Y126.224 E7.35267
G1 X86.473 Y127.683 E7.43670
G1 X86.935 Y127.683 E7.45551
G1 X88.394 Y126.224 E7.53954
G1 X88.856 Y126.224 E7.55835
G1 X87.397 Y127.683 E7.64239
G1 X87.858 Y127.683 E7.66119
G1 X89.317 Y126.224 E7.74523
G1 X89.779 Y126.224 E7.76404
G1 X88.320 Y127.683 E7.84807
G1 X88.782 Y127.683 E7.86688
G1 X90.241 Y126.224 E7.95091
G1 X90.703 Y126.224 E7.96972
G1 X89.244 Y127.683 E8.05376
G1 X89.706 Y127.683 E8.07257
G1 X91.165 Y126.224 E8.15660
G1 X91.626 Y126.224 E8.17541
G1 X90.167 Y127.683 E8.25944
G1 X90.629 Y127.683 E8.27825
G1 X92.088 Y126.224 E8.36229
G1 X92.550 Y126.224 E8.38109
G1 X91.091 Y127.683 E8.46513
G1 X91.553 Y127.683 E8.48394
G1 X93.012 Y126.224 E8.56797
G1 X93.473 Y126.224 E8.58678
G1 X92.014 Y127.683 E8.67081
G1 E4.67081 F2400.00000
G92 E0
G1 X137.732 Y127.683 F7800.000
G1 E4.00000 F2400.00000
G1 F2400
G1 X137.802 Y127.614 E4.00399
G1 X137.802 Y127.152 E4.02279
G1 X137.270 Y127.683 E4.05338
G1 X136.809 Y127.683 E4.07219
G1 X137.802 Y126.691 E4.12937
G1 X137.802 Y126.229 E4.14818
G1 X136.347 Y127.683 E4.23196
G1 X135.885 Y127.683 E4.25077
G1 X137.802 Y125.767 E4.36115
G1 X137.802 Y125.305 E4.37996
G1 X135.423 Y127.683 E4.51694
G1 X134.962 Y127.683 E4.53574
G1 X137.802 Y124.843 E4.69932
G1 X137.802 Y124.382 E4.71813
G1 X134.500 Y127.683 E4.90830
G1 X134.038 Y127.683 E4.92711
G1 X137.802 Y123.920 E5.14389
G1 X137.802 Y123.458 E5.16269
G1 X133.576 Y127.683 E5.40607
G1 X133.114 Y127.683 E5.42487
G1 X137.802 Y122.996 E5.69484
G1 X137.802 Y122.534 E5.71365
G1 X132.653 Y127.683 E6.01022
G1 X132.191 Y127.683 E6.02903
G1 X137.802 Y122.073 E6.35220
G1 X137.802 Y121.611 E6.37100
G1 X131.729 Y127.683 E6.72077
G1 X131.267 Y127.683 E6.73958
G1 X137.802 Y121.149 E7.11594
G1 X137.802 Y120.687 E7.13475
G1 X130.805 Y127.683 E7.53771
G1 X130.344 Y127.683 E7.55652
G1 X137.802 Y120.225 E7.98608
G1 X137.802 Y119.764 E8.00489
G1 X129.882 Y127.683 E8.46105
G1 X129.420 Y127.683 E8.47986
G1 X137.802 Y119.302 E8.96261
G1 X137.802 Y118.840 E8.98142
G1 X128.958 Y127.683 E9.49078
G1 X128.496 Y127.683 E9.50959
G1 X137.802 Y118.378 E10.04554
G1 X137.802 Y117.916 E10.06435
G1 X128.035 Y127.683 E10.62690
G1 X127.573 Y127.683 E10.64571
G1 X137.802 Y117.455 E11.23486
G1 X137.802 Y116.993 E11.25367
G1 X127.111 Y127.683 E11.86942
G1 X126.649 Y127.683 E11.88823
G1 X137.802 Y116.531 E12.53057
G1 X137.802 Y116.069 E12.54938
G1 X126.187 Y127.683 E13.21833
G1 X125.726 Y127.683 E13.23714
G1 X137.802 Y115.607 E13.93268
G1 X137.802 Y115.146 E13.95149
G1 X125.264 Y127.683 E14.67363
G1 X124.802 Y127.683 E14.69244
G1 X137.802 Y114.684 E15.44118
G1 X137.802 Y114.222 E15.45999
G1 X124.340 Y127.683 E16.23533
G1 X123.878 Y127.683 E16.25414
G1 X137.802 Y113.760 E17.05608
G1 X137.802 Y113.298 E17.07488
G1 X123.417 Y127.683 E17.90342
G1 X122.955 Y127.683 E17.92223
G1 X137.802 Y112.837 E18.77736
G1 X137.802 Y112.375 E18.79617
G1 X122.493 Y127.683 E19.67791
G1 X122.031 Y127.683 E19.69671
G1 X137.802 Y111.913 E20.60505
G1 X137.802 Y111.451 E20.62385
G1 X121.569 Y127.683 E21.55878
G1 X121.108 Y127.683 E21.57759
G1 X137.802 Y110.989 E22.53912
G1 X137.802 Y110.528 E22.55793
G1 X120.646 Y127.683 E23.54606
G1 X120.184 Y127.683 E23.56486
G1 X137.802 Y110.066 E24.57959
G1 X137.802 Y109.604 E24.59840
G1 X119.722 Y127.683 E25.63972
G1 X119.260 Y127.683 E25.65853
G1 X137.802 Y109.142 E26.72645
G1 X137.802 Y108.681 E26.74526
G1 X118.799 Y127.683 E27.83978
G1 X118.337 Y127.683 E27.85859
G1 X137.802 Y108.219 E28.97971
G1 X137.802 Y107.757 E28.99852
G1 X117.875 Y127.683 E30.14623
G1 X117.413 Y127.683 E30.16504
G1 X137.802 Y107.295 E31.33936
G1 X137.802 Y106.833 E31.35816
G1 X116.951 Y127.683 E32.55908
G1 X116.490 Y127.683 E32.57789
G1 X137.802 Y106.372 E33.80540
G1 X137.802 Y105.910 E33.82421
G1 X116.028 Y127.683 E35.07832
G1 X115.566 Y127.683 E35.09713
G1 X137.802 Y105.448 E36.37784
G1 X137.802 Y104.986 E36.39664
G1 X115.104 Y127.683 E37.70395
G1 X114.642 Y127.683 E37.72276
G1 X137.802 Y104.524 E39.05667
G1 X137.802 Y104.063 E39.07547
G1 X114.181 Y127.683 E40.43598
G1 X113.719 Y127.683 E40.45479
G1 X137.802 Y103.601 E41.84189
G1 X137.802 Y103.139 E41.86070
G1 X113.257 Y127.683 E43.27440
G1 X112.795 Y127.683 E43.29321
G1 X137.802 Y102.677 E44.73351
G1 X137.802 Y102.215 E44.75231
G1 X112.334 Y127.683 E46.21921
G1 X111.872 Y127.683 E46.23802
G1 X137.802 Y101.754 E47.73152
G1 X137.802 Y101.292 E47.75032
G1 X111.410 Y127.683 E49.27042
G1 X110.948 Y127.683 E49.28923
G1 X137.802 Y100.830 E50.83592
G1 X137.802 Y100.368 E50.85473
G1 X110.486 Y127.683 E52.42802
G1 X110.025 Y127.683 E52.44683
G1 X137.802 Y99.906 E54.04672
G1 X137.802 Y99.445 E54.06553
G1 X109.563 Y127.683 E55.69202
G1 X109.101 Y127.683 E55.71082
G1 X137.802 Y98.983 E57.36391
G1 X137.802 Y98.521 E57.38272
G1 X108.639 Y127.683 E59.06240
G1 X108.177 Y127.683 E59.08121
G1 X137.802 Y98.059 E60.78750
G1 X137.802 Y97.597 E60.80630
G1 X107.716 Y127.683 E62.53919
G1 X107.254 Y127.683 E62.55799
G1 X137.802 Y97.136 E64.31747
G1 X137.802 Y96.674 E64.33628
G1 X106.792 Y127.683 E66.12236
G1 X106.330 Y127.683 E66.14117
G1 X137.802 Y96.212 E67.95385
G1 X137.802 Y95.750 E67.97265
G1 X105.868 Y127.683 E69.81193
G1 X105.407 Y127.683 E69.83074
G1 X137.802 Y95.288 E71.69661
G1 X137.802 Y94.827 E71.71542
G1 X104.945 Y127.683 E73.60789
G1 X104.483 Y127.683 E73.62670
G1 X137.802 Y94.365 E75.54577
G1 X137.802 Y93.903 E75.56458
G1 X104.021 Y127.683 E77.51025
G1 X103.559 Y127.683 E77.52906
G1 X137.802 Y93.441 E79.50132
G1 X137.802 Y92.979 E79.52013
G1 X103.098 Y127.683 E81.51900
G1 X102.636 Y127.683 E81.53781
G1 X137.802 Y92.518 E83.56327
G1 X137.802 Y92.056 E83.58208
G1 X102.174 Y127.683 E85.63414
G1 X101.712 Y127.683 E85.65295
G1 X137.802 Y91.594 E87.73161
G1 X137.802 Y91.132 E87.75042
G1 X101.250 Y127.683 E89.85568
G1 X100.789 Y127.683 E89.87449
G1 X137.802 Y90.670 E92.00635
G1 X137.802 Y90.209 E92.02515
G1 X100.327 Y127.683 E94.18361
G1 X99.865 Y127.683 E94.20242
G1 X137.802 Y89.747 E96.38747
G1 X137.802 Y89.285 E96.40628
G1 X99.403 Y127.683 E98.61793
G1 X98.941 Y127.683 E98.63674
G1 X137.802 Y88.823 E100.87499
G1 X137.802 Y88.362 E100.89380
G1 X98.480 Y127.683 E103.15865
G1 X98.018 Y127.683 E103.17746
G1 X137.802 Y87.900 E105.46891
G1 X137.802 Y87.438 E105.48772
G1 X97.556 Y127.683 E107.80576
G1 X97.094 Y127.683 E107.82457
G1 X137.802 Y86.976 E110.16922
G1 X137.802 Y86.514 E110.18802
G1 X96.632 Y127.683 E112.55927
G1 X96.171 Y127.683 E112.57808
G1 X137.802 Y86.053 E114.97592
G1 X137.802 Y85.591 E114.99473
G1 X95.709 Y127.683 E117.41917
G1 X95.247 Y127.683 E117.43797
G1 X137.802 Y85.129 E119.88901
G1 X137.802 Y84.667 E119.90782
G1 X94.785 Y127.683 E122.38546
G1 X94.323 Y127.683 E122.40427
G1 X137.802 Y84.205 E124.90850
G1 X137.802 Y83.744 E124.92731
G1 X93.862 Y127.683 E127.45814
G1 X93.400 Y127.683 E127.47695
G1 X137.802 Y83.282 E130.03438
G1 X137.802 Y82.820 E130.05319
G1 X92.938 Y127.683 E132.63722
G1 X92.476 Y127.683 E132.65603
G1 X137.802 Y82.358 E135.26666
G1 X137.802 Y82.317 E135.26835
G1 X137.381 Y82.317 E135.28547
G1 X93.461 Y126.237 E137.81518
G1 X93.461 Y125.775 E137.83398
G1 X136.919 Y82.317 E140.33709
G1 X136.458 Y82.317 E140.35590
G1 X93.461 Y125.313 E142.83241
G1 X93.461 Y124.852 E142.85122
G1 X135.996 Y82.317 E145.30113
G1 X135.534 Y82.317 E145.31994
G1 X93.461 Y124.390 E147.74325
G1 X93.461 Y123.928 E147.76206
G1 X135.072 Y82.317 E150.15878
G1 X134.610 Y82.317 E150.17758
G1 X93.461 Y123.466 E152.54770
G1 X93.461 Y123.004 E152.56651
G1 X134.149 Y82.317 E154.91003
G1 X133.687 Y82.317 E154.92883
G1 X93.461 Y122.543 E157.24575
G1 X93.461 Y122.081 E157.26456
G1 X133.225 Y82.317 E159.55488
G1 X132.763 Y82.317 E159.57369
G1 X93.461 Y121.619 E161.83742
G1 X93.461 Y121.157 E161.85622
G1 X132.301 Y82.317 E164.09335
G1 X131.840 Y82.317 E164.11216
G1 X93.140 Y121.016 E166.34116
G1 X92.678 Y121.016 E166.35997
G1 X131.378 Y82.317 E168.58897
G1 X130.916 Y82.317 E168.60778
G1 X92.217 Y121.016 E170.83679
G1 X91.755 Y121.016 E170.85560
G1 X130.454 Y82.317 E173.08460
G1 X129.992 Y82.317 E173.10341
G1 X91.293 Y121.016 E175.33241
G1 X90.831 Y121.016 E175.35122
G1 X129.531 Y82.317 E177.58023
G1 X129.069 Y82.317 E177.59904
G1 X90.369 Y121.016 E179.82804
G1 X89.908 Y121.016 E179.84685
G1 X128.607 Y82.317 E182.07585
G1 X128.145 Y82.317 E182.09466
G1 X89.446 Y121.016 E184.32367
G1 X88.984 Y121.016 E184.34247
G1 X127.684 Y82.317 E186.57148
G1 X127.222 Y82.317 E186.59029
G1 X88.522 Y121.016 E188.81929
G1 X88.060 Y121.016 E188.83810
G1 X126.760 Y82.317 E191.06711
G1 X126.298 Y82.317 E191.08591
G1 X87.599 Y121.016 E193.31492
G1 X87.137 Y121.016 E193.33373
G1 X125.836 Y82.317 E195.56273
G1 X125.375 Y82.317 E195.58154
G1 X86.675 Y121.016 E197.81055
G1 X86.213 Y121.016 E197.82935
G1 X124.913 Y82.317 E200.05836
G1 X124.451 Y82.317 E200.07717
G1 X79.084 Y127.683 E202.69019
G1 X78.622 Y127.683 E202.70899
G1 X123.989 Y82.317 E205.32202
G1 X123.527 Y82.317 E205.34082
G1 X78.161 Y127.683 E207.95384
G1 X77.699 Y127.683 E207.97265
G1 X123.066 Y82.317 E210.58567
G1 X122.604 Y82.317 E210.60448
G1 X77.237 Y127.683 E213.21750
G1 X76.775 Y127.683 E213.23631
G1 X122.142 Y82.317 E215.84933
G1 X121.680 Y82.317 E215.86814
G1 X76.313 Y127.683 E218.48116
G1 X75.852 Y127.683 E218.49997
G1 X121.218 Y82.317 E221.11299
G1 X120.757 Y82.317 E221.13179
G1 X75.390 Y127.683 E223.74481
G1 X74.928 Y127.683 E223.76362
G1 X120.295 Y82.317 E226.37664
G1 X119.833 Y82.317 E226.39545
G1 X74.466 Y127.683 E229.00847
G1 X74.004 Y127.683 E229.02728
G1 X119.371 Y82.317 E231.64030
G1 X118.909 Y82.317 E231.65911
G1 X73.543 Y127.683 E234.27213
G1 X73.081 Y127.683 E234.29094
G1 X118.448 Y82.317 E236.90396
G1 X117.986 Y82.317 E236.92276
G1 X72.619 Y127.683 E239.53578
G1 X72.198 Y127.683 E239.55291
G1 X72.198 Y127.642 E239.55459
G1 X117.524 Y82.317 E242.16524
G1 X117.062 Y82.317 E242.18405
G1 X72.198 Y127.180 E244.76809
G1 X72.198 Y126.719 E244.78690
G1 X116.600 Y82.317 E247.34435
G1 X116.139 Y82.317 E247.36316
G1 X72.198 Y126.257 E249.89401
G1 X72.198 Y125.795 E249.91282
G1 X115.677 Y82.317 E252.41707
G1 X115.215 Y82.317 E252.43588
G1 X72.198 Y125.333 E254.91353
G1 X72.198 Y124.871 E254.93234
G1 X114.753 Y82.317 E257.38339
G1 X114.291 Y82.317 E257.40220
G1 X72.198 Y124.410 E259.82666
G1 X72.198 Y123.948 E259.84547
G1 X113.830 Y82.317 E262.24332
G1 X113.368 Y82.317 E262.26213
G1 X72.198 Y123.486 E264.63339
G1 X72.198 Y123.024 E264.65220
G1 X112.906 Y82.317 E266.99686
G1 X112.444 Y82.317 E267.01567
G1 X72.198 Y122.562 E269.33373
G1 X72.198 Y122.101 E269.35254
G1 X111.982 Y82.317 E271.64401
G1 X111.521 Y82.317 E271.66281
G1 X72.198 Y121.639 E273.92768
G1 X72.198 Y121.177 E273.94649
G1 X111.059 Y82.317 E276.18476
G1 X110.597 Y82.317 E276.20356
G1 X72.198 Y120.715 E278.41523
G1 X72.198 Y120.253 E278.43404
G1 X110.135 Y82.317 E280.61911
G1 X109.673 Y82.317 E280.63792
G1 X72.198 Y119.792 E282.79639
G1 X72.198 Y119.330 E282.81520
G1 X109.212 Y82.317 E284.94708
G1 X108.750 Y82.317 E284.96589
G1 X72.198 Y118.868 E287.07116
G1 X72.198 Y118.406 E287.08997
G1 X108.288 Y82.317 E289.16865
G1 X107.826 Y82.317 E289.18745
G1 X72.198 Y117.944 E291.23953
G1 X72.198 Y117.483 E291.25834
G1 X107.364 Y82.317 E293.28382
G1 X106.903 Y82.317 E293.30263
