; generated by Slic3r 1.3.0 on 2022-12-20 at 22:03:35

; external perimeters extrusion width = 0.44mm (4.26mm^3/s)
; perimeters extrusion width = 0.51mm (5.03mm^3/s)
; infill extrusion width = 0.50mm (4.93mm^3/s)
; solid infill extrusion width = 0.51mm (5.03mm^3/s)
; top infill extrusion width = 0.51mm (5.03mm^3/s)

M107
M190 S60 ; set bed temperature and wait for it to be reached
M104 S215 ; set temperature
G28 ; home all axes

; Filament gcode

M109 S215 ; set temperature and wait for it to be reached
G21 ; set units to millimeters
G90 ; use absolute coordinates
M82 ; use absolute distances for extrusion
G92 E0
G1 E-4.00000 F2400.00000
G92 E0
G1 Z0.300 F7800.000
G1 X44.977 Y64.243 F7800.000
G1 E4.00000 F2400.00000
G1 F2400
G1 X47.159 Y63.360 E4.09560
G1 X48.645 Y63.200 E4.15629
G1 X161.649 Y63.200 E8.74574
G1 X163.969 Y63.598 E8.84135
G1 X166.026 Y64.744 E8.93695
G1 X167.584 Y66.508 E9.03256
G1 X168.466 Y68.691 E9.12816
G1 X168.626 Y70.178 E9.18889
G1 X168.623 Y137.807 E11.93552
G1 X168.226 Y140.127 E12.03113
G1 X167.080 Y142.183 E12.12673
G1 X165.315 Y143.741 E12.22233
G1 X163.132 Y144.623 E12.31794
G1 X161.845 Y144.781 E12.37061
G1 X91.123 Y146.797 E15.24403
G1 X48.638 Y146.800 E16.96948
G1 X46.317 Y146.402 E17.06508
G1 X44.261 Y145.256 E17.16069
G1 X42.703 Y143.492 E17.25629
G1 X41.821 Y141.309 E17.35190
G1 X41.661 Y139.822 E17.41264
G1 X41.668 Y70.177 E20.24116
G1 X42.065 Y67.856 E20.33676
G1 X43.212 Y65.800 E20.43237
G1 X44.932 Y64.282 E20.52553
G1 X45.288 Y64.435 F7800.000
G1 F2400
G1 X47.443 Y63.636 E20.61886
G1 X48.645 Y63.526 E20.66788
G1 X161.649 Y63.526 E25.25733
G1 X163.913 Y63.923 E25.35066
G1 X165.906 Y65.067 E25.44399
G1 X167.391 Y66.820 E25.53732
G1 X168.191 Y68.975 E25.63065
G1 X168.300 Y70.178 E25.67971
G1 X168.298 Y137.807 E28.42634
G1 X167.901 Y140.070 E28.51967
G1 X166.757 Y142.064 E28.61300
G1 X165.003 Y143.549 E28.70633
G1 X161.836 Y144.455 E28.84013
G1 X91.113 Y146.471 E31.71355
G1 X48.638 Y146.474 E33.43862
G1 X46.374 Y146.077 E33.53195
G1 X44.381 Y144.933 E33.62528
G1 X42.896 Y143.180 E33.71862
G1 X42.096 Y141.025 E33.81195
G1 X41.986 Y139.822 E33.86102
G1 X41.994 Y70.177 E36.68953
G1 X42.391 Y67.913 E36.78286
G1 X43.535 Y65.920 E36.87619
G1 X45.243 Y64.474 E36.96709
G1 X45.599 Y64.633 F7800.000
G1 F2400
G1 X48.645 Y63.852 E37.09480
G1 X161.649 Y63.852 E41.68425
G1 X163.854 Y64.248 E41.77525
G1 X165.783 Y65.389 E41.86625
G1 X167.193 Y67.131 E41.95725
G1 X167.975 Y70.178 E42.08500
G1 X167.972 Y137.807 E44.83164
G1 X167.575 Y140.012 E44.92264
G1 X166.434 Y141.941 E45.01364
G1 X164.693 Y143.350 E45.10464
G1 X161.827 Y144.130 E45.22526
G1 X91.104 Y146.146 E48.09869
G1 X48.638 Y146.148 E49.82338
G1 X46.432 Y145.752 E49.91438
G1 X44.504 Y144.611 E50.00538
G1 X43.094 Y142.869 E50.09638
G1 X42.312 Y139.822 E50.22415
G1 X42.319 Y70.177 E53.05266
G1 X42.716 Y67.971 E53.14366
G1 X43.857 Y66.043 E53.23466
G1 X45.552 Y64.671 E53.32323
G1 E49.32323 F2400.00000
G92 E0
G1 X60.060 Y133.860 F7800.000
G1 E4.00000 F2400.00000
G1 F2400
G1 X60.002 Y134.453 E4.02420
G1 X59.826 Y135.032 E4.04879
G1 X59.540 Y135.567 E4.07339
G1 X59.156 Y136.035 E4.09798
G1 X58.688 Y136.419 E4.12258
G1 X58.154 Y136.704 E4.14717
G1 X57.575 Y136.880 E4.17177
G1 X56.972 Y136.940 E4.19637
G1 X56.369 Y136.880 E4.22096
G1 X55.790 Y136.704 E4.24556
G1 X55.256 Y136.419 E4.27015
G1 X54.787 Y136.035 E4.29475
G1 X54.403 Y135.567 E4.31934
G1 X54.118 Y135.032 E4.34394
G1 X53.942 Y134.453 E4.36853
G1 X53.884 Y133.860 E4.39273
G1 X53.939 Y133.124 E4.42272
G1 X54.118 Y132.535 E4.44771
G1 X54.403 Y132.001 E4.47231
G1 X54.787 Y131.532 E4.49691
G1 X55.256 Y131.148 E4.52150
G1 X55.790 Y130.863 E4.54610
G1 X56.369 Y130.687 E4.57069
G1 X56.972 Y130.628 E4.59529
G1 X57.574 Y130.687 E4.61988
G1 X58.154 Y130.863 E4.64448
G1 X58.688 Y131.148 E4.66907
G1 X59.156 Y131.532 E4.69367
G1 X59.540 Y132.001 E4.71826
G1 X59.826 Y132.535 E4.74286
G1 X60.005 Y133.124 E4.76785
G1 X60.056 Y133.800 E4.79540
G1 X59.733 Y133.856 F7800.000
G1 F2400
G1 X59.681 Y134.389 E4.81715
G1 X59.524 Y134.907 E4.83914
G1 X59.268 Y135.385 E4.86113
G1 X58.925 Y135.803 E4.88312
G1 X58.506 Y136.147 E4.90511
G1 X58.029 Y136.402 E4.92710
G1 X57.511 Y136.559 E4.94909
G1 X56.972 Y136.612 E4.97108
G1 X56.433 Y136.559 E4.99307
G1 X55.915 Y136.402 E5.01506
G1 X55.437 Y136.147 E5.03705
G1 X55.019 Y135.803 E5.05904
G1 X54.675 Y135.385 E5.08103
G1 X54.420 Y134.907 E5.10302
G1 X54.263 Y134.389 E5.12501
G1 X54.210 Y133.856 E5.14676
G1 X54.261 Y133.184 E5.17415
G1 X54.420 Y132.660 E5.19638
G1 X54.675 Y132.182 E5.21837
G1 X55.019 Y131.764 E5.24036
G1 X55.437 Y131.420 E5.26235
G1 X55.915 Y131.165 E5.28434
G1 X56.433 Y131.008 E5.30633
G1 X56.972 Y130.955 E5.32832
G1 X57.511 Y131.008 E5.35031
G1 X58.029 Y131.165 E5.37230
G1 X58.506 Y131.420 E5.39429
G1 X58.925 Y131.764 E5.41628
G1 X59.268 Y132.182 E5.43827
G1 X59.524 Y132.660 E5.46026
G1 X59.683 Y133.184 E5.48250
G1 X59.729 Y133.796 E5.50745
G1 X59.406 Y133.853 F7800.000
G1 F2400
G1 X59.360 Y134.325 E5.52674
G1 X59.221 Y134.782 E5.54613
G1 X58.996 Y135.203 E5.56551
G1 X58.694 Y135.572 E5.58490
G1 X58.325 Y135.875 E5.60428
G1 X57.904 Y136.100 E5.62367
G1 X57.447 Y136.238 E5.64305
G1 X56.972 Y136.285 E5.66244
G1 X56.497 Y136.238 E5.68182
G1 X56.040 Y136.100 E5.70121
G1 X55.619 Y135.875 E5.72059
G1 X55.250 Y135.572 E5.73998
G1 X54.947 Y135.203 E5.75937
G1 X54.722 Y134.782 E5.77875
G1 X54.584 Y134.325 E5.79814
G1 X54.537 Y133.853 E5.81743
G1 X54.583 Y133.244 E5.84221
G1 X54.722 Y132.785 E5.86169
G1 X54.947 Y132.364 E5.88107
G1 X55.250 Y131.995 E5.90046
G1 X55.619 Y131.692 E5.91984
G1 X56.040 Y131.467 E5.93923
G1 X56.497 Y131.329 E5.95861
G1 X56.972 Y131.282 E5.97800
G1 X57.447 Y131.329 E5.99738
G1 X57.904 Y131.467 E6.01677
G1 X58.325 Y131.692 E6.03615
G1 X58.694 Y131.995 E6.05554
G1 X58.996 Y132.364 E6.07493
G1 X59.221 Y132.785 E6.09431
G1 X59.361 Y133.244 E6.11379
G1 X59.402 Y133.793 E6.13613
G1 X59.406 Y133.853 F7800.000
G1 E2.13613 F2400.00000
G92 E0
G1 X54.963 Y119.178 F7800.000
G1 E4.00000 F2400.00000
G1 F2400
G1 X50.335 Y119.178 E4.18795
G1 X50.335 Y113.739 E4.40883
G1 X54.963 Y113.739 E4.59678
G1 X54.963 Y119.118 E4.81522
G1 X54.637 Y118.852 F7800.000
G1 F2400
G1 X50.660 Y118.852 E4.97673
G1 X50.660 Y114.065 E5.17116
G1 X54.637 Y114.065 E5.33266
G1 X54.637 Y118.792 E5.52465
G1 X54.311 Y118.526 F7800.000
G1 F2400
G1 X50.986 Y118.526 E5.65971
G1 X50.986 Y114.390 E5.82769
G1 X54.311 Y114.390 E5.96275
G1 X54.311 Y118.466 E6.12829
G1 X54.401 Y118.916 F7800.000
G1 E2.12829 F2400.00000
G92 E0
G1 X71.398 Y118.527 F7800.000
G1 E4.00000 F2400.00000
G1 F2400
G1 X71.398 Y80.902 E5.52805
G1 X71.537 Y80.319 E5.55239
G1 X71.946 Y79.783 E5.57979
G1 X72.490 Y79.420 E5.60634
G1 X73.106 Y79.211 E5.63275
G1 X73.711 Y79.147 E5.65747
G1 X149.100 Y79.147 E8.71925
G1 X149.706 Y79.211 E8.74397
G1 X150.321 Y79.420 E8.77038
G1 X150.865 Y79.783 E8.79693
G1 X151.275 Y80.319 E8.82433
G1 X151.414 Y80.902 E8.84867
G1 X151.413 Y126.402 E10.69658
G1 X151.275 Y126.985 E10.72092
G1 X150.865 Y127.521 E10.74832
G1 X150.321 Y127.884 E10.77487
G1 X149.706 Y128.093 E10.80128
G1 X149.100 Y128.157 E10.82600
G1 X73.711 Y128.157 E13.88778
G1 X73.106 Y128.093 E13.91250
G1 X72.490 Y127.884 E13.93890
G1 X71.946 Y127.521 E13.96546
G1 X71.537 Y126.985 E13.99285
G1 X71.398 Y126.402 E14.01719
G1 X71.398 Y118.587 E14.33462
G1 X71.724 Y118.527 F7800.000
G1 F2400
G1 X71.724 Y80.940 E15.86112
G1 X71.837 Y80.461 E15.88109
G1 X72.172 Y80.024 E15.90347
G1 X72.635 Y79.715 E15.92609
G1 X73.176 Y79.531 E15.94929
G1 X73.728 Y79.473 E15.97184
G1 X149.083 Y79.473 E19.03223
G1 X149.635 Y79.531 E19.05477
G1 X150.176 Y79.715 E19.07797
G1 X150.640 Y80.024 E19.10059
G1 X150.974 Y80.461 E19.12297
G1 X151.088 Y80.940 E19.14294
G1 X151.088 Y126.364 E20.98776
G1 X150.974 Y126.843 E21.00773
G1 X150.640 Y127.281 E21.03012
G1 X150.176 Y127.589 E21.05273
G1 X149.635 Y127.773 E21.07593
G1 X149.083 Y127.831 E21.09848
G1 X73.728 Y127.831 E24.15887
G1 X73.176 Y127.773 E24.18141
G1 X72.635 Y127.589 E24.20462
G1 X72.172 Y127.280 E24.22723
G1 X71.837 Y126.843 E24.24961
G1 X71.724 Y126.364 E24.26958
G1 X71.724 Y118.587 E24.58546
G1 X72.049 Y118.527 F7800.000
G1 F2400
G1 X72.049 Y80.978 E26.11041
G1 X72.138 Y80.604 E26.12603
G1 X72.398 Y80.264 E26.14339
G1 X72.781 Y80.009 E26.16207
G1 X73.247 Y79.851 E26.18206
G1 X73.746 Y79.798 E26.20244
G1 X149.066 Y79.798 E29.26143
G1 X149.565 Y79.851 E29.28181
G1 X150.031 Y80.009 E29.30180
G1 X150.414 Y80.264 E29.32048
G1 X150.673 Y80.604 E29.33784
G1 X150.762 Y80.978 E29.35345
G1 X150.762 Y126.326 E31.19517
G1 X150.673 Y126.700 E31.21078
G1 X150.414 Y127.040 E31.22814
G1 X150.031 Y127.295 E31.24682
G1 X149.565 Y127.453 E31.26682
G1 X149.066 Y127.506 E31.28719
G1 X73.746 Y127.506 E34.34619
G1 X73.247 Y127.453 E34.36656
G1 X72.781 Y127.295 E34.38655
G1 X72.398 Y127.040 E34.40523
G1 X72.138 Y126.700 E34.42260
G1 X72.049 Y126.326 E34.43821
G1 X72.049 Y118.587 E34.75253
G1 X71.702 Y118.328 F7800.000
G1 E30.75253 F2400.00000
G92 E0
G1 X91.425 Y136.960 F7800.000
G1 E4.00000 F2400.00000
G1 F2400
G1 X90.404 Y138.977 E4.09179
G1 X49.484 Y138.977 E5.75367
G1 X49.491 Y71.023 E8.51345
G1 X55.404 Y71.023 E8.75360
G1 X55.423 Y72.947 E8.83173
G1 X55.609 Y73.563 E8.85787
G1 X55.895 Y74.097 E8.88247
G1 X56.279 Y74.565 E8.90706
G1 X56.747 Y74.949 E8.93166
G1 X57.281 Y75.235 E8.95625
G1 X57.861 Y75.411 E8.98085
G1 X58.463 Y75.470 E9.00544
G1 X59.066 Y75.411 E9.03004
G1 X59.646 Y75.235 E9.05463
G1 X60.180 Y74.949 E9.07923
G1 X60.648 Y74.565 E9.10383
G1 X61.032 Y74.097 E9.12842
G1 X61.318 Y73.563 E9.15302
G1 X61.504 Y72.947 E9.17916
G1 X61.523 Y71.023 E9.25728
G1 X103.411 Y71.023 E10.95849
G1 X103.429 Y72.947 E11.03661
G1 X103.616 Y73.563 E11.06275
G1 X103.901 Y74.097 E11.08735
G1 X104.286 Y74.565 E11.11194
G1 X104.754 Y74.949 E11.13654
G1 X105.288 Y75.235 E11.16113
G1 X105.867 Y75.411 E11.18573
G1 X106.470 Y75.470 E11.21033
G1 X107.073 Y75.411 E11.23492
G1 X107.652 Y75.235 E11.25952
G1 X108.186 Y74.949 E11.28411
G1 X108.655 Y74.565 E11.30871
G1 X109.039 Y74.097 E11.33330
G1 X109.324 Y73.563 E11.35790
G1 X109.511 Y72.947 E11.38404
G1 X109.529 Y71.023 E11.46217
G1 X152.210 Y71.023 E13.19556
G1 X152.229 Y72.947 E13.27369
G1 X152.415 Y73.563 E13.29983
G1 X152.701 Y74.097 E13.32442
G1 X153.085 Y74.565 E13.34902
G1 X153.553 Y74.949 E13.37361
G1 X154.087 Y75.235 E13.39821
G1 X154.667 Y75.411 E13.42281
G1 X155.269 Y75.470 E13.44740
G1 X155.872 Y75.411 E13.47200
G1 X156.452 Y75.235 E13.49659
G1 X156.986 Y74.949 E13.52119
G1 X157.454 Y74.565 E13.54578
G1 X157.838 Y74.097 E13.57038
G1 X158.124 Y73.563 E13.59497
G1 X158.310 Y72.947 E13.62111
G1 X158.329 Y71.023 E13.69924
G1 X160.803 Y71.023 E13.79972
G1 X160.800 Y136.960 E16.47762
G1 X158.330 Y136.960 E16.57794
G1 X158.310 Y134.889 E16.66207
G1 X158.124 Y134.273 E16.68822
G1 X157.838 Y133.739 E16.71281
G1 X157.454 Y133.271 E16.73741
G1 X156.986 Y132.886 E16.76200
G1 X156.452 Y132.601 E16.78660
G1 X155.872 Y132.425 E16.81119
G1 X155.269 Y132.366 E16.83579
G1 X154.667 Y132.425 E16.86038
G1 X154.087 Y132.601 E16.88498
G1 X153.553 Y132.886 E16.90957
G1 X153.085 Y133.271 E16.93417
G1 X152.701 Y133.739 E16.95876
G1 X152.415 Y134.273 E16.98336
G1 X152.229 Y134.889 E17.00950
G1 X152.209 Y136.960 E17.09364
G1 X109.531 Y136.960 E18.82692
G1 X109.511 Y134.889 E18.91106
G1 X109.324 Y134.273 E18.93720
G1 X109.039 Y133.739 E18.96179
G1 X108.655 Y133.271 E18.98639
G1 X108.186 Y132.886 E19.01098
G1 X107.652 Y132.601 E19.03558
G1 X107.073 Y132.425 E19.06017
G1 X106.470 Y132.366 E19.08477
G1 X105.867 Y132.425 E19.10936
G1 X105.288 Y132.601 E19.13396
G1 X104.754 Y132.886 E19.15856
G1 X104.286 Y133.271 E19.18315
G1 X103.901 Y133.739 E19.20775
G1 X103.616 Y134.273 E19.23234
G1 X103.429 Y134.889 E19.25848
G1 X103.409 Y136.960 E19.34262
G1 X91.485 Y136.960 E19.82690
G1 X91.625 Y137.286 F7800.000
G1 F2400
G1 X90.604 Y139.302 E19.91869
G1 X49.158 Y139.302 E21.60193
G1 X49.165 Y70.698 E24.38815
G1 X55.727 Y70.698 E24.65463
G1 X55.748 Y72.897 E24.74396
G1 X55.912 Y73.438 E24.76690
G1 X56.167 Y73.915 E24.78889
G1 X56.510 Y74.334 E24.81088
G1 X56.929 Y74.677 E24.83287
G1 X57.406 Y74.933 E24.85486
G1 X57.925 Y75.090 E24.87685
G1 X58.463 Y75.143 E24.89884
G1 X59.002 Y75.090 E24.92083
G1 X59.520 Y74.933 E24.94282
G1 X59.998 Y74.677 E24.96481
G1 X60.417 Y74.334 E24.98680
G1 X60.760 Y73.915 E25.00879
G1 X61.015 Y73.438 E25.03078
G1 X61.179 Y72.897 E25.05372
G1 X61.200 Y70.698 E25.14305
G1 X103.733 Y70.698 E26.87045
G1 X103.754 Y72.897 E26.95978
G1 X103.918 Y73.438 E26.98272
G1 X104.174 Y73.915 E27.00471
G1 X104.517 Y74.334 E27.02670
G1 X104.936 Y74.677 E27.04869
G1 X105.413 Y74.933 E27.07068
G1 X105.556 Y74.976 E27.07676
G1 X105.931 Y75.090 E27.09267
G1 X106.470 Y75.143 E27.11466
G1 X107.009 Y75.090 E27.13665
G1 X107.527 Y74.933 E27.15864
G1 X108.005 Y74.677 E27.18063
G1 X108.423 Y74.334 E27.20262
G1 X108.767 Y73.915 E27.22461
G1 X109.022 Y73.438 E27.24660
G1 X109.186 Y72.897 E27.26955
G1 X109.207 Y70.698 E27.35888
G1 X152.533 Y70.698 E29.11847
G1 X152.554 Y72.897 E29.20780
G1 X152.718 Y73.438 E29.23074
G1 X152.973 Y73.915 E29.25273
G1 X153.316 Y74.334 E29.27472
G1 X153.735 Y74.677 E29.29671
G1 X154.212 Y74.933 E29.31870
G1 X154.731 Y75.090 E29.34069
G1 X155.269 Y75.143 E29.36268
G1 X155.808 Y75.090 E29.38467
G1 X155.952 Y75.046 E29.39075
G1 X156.326 Y74.933 E29.40666
G1 X156.804 Y74.677 E29.42865
G1 X157.223 Y74.334 E29.45064
G1 X157.566 Y73.915 E29.47263
G1 X157.821 Y73.438 E29.49462
G1 X157.985 Y72.897 E29.51756
G1 X158.006 Y70.698 E29.60689
G1 X161.129 Y70.698 E29.73370
G1 X161.126 Y137.286 E32.43804
G1 X158.008 Y137.286 E32.56468
G1 X157.985 Y134.939 E32.66002
G1 X157.821 Y134.398 E32.68296
G1 X157.566 Y133.920 E32.70495
G1 X157.223 Y133.502 E32.72694
G1 X156.804 Y133.158 E32.74893
G1 X156.326 Y132.903 E32.77093
G1 X155.808 Y132.746 E32.79292
G1 X155.269 Y132.693 E32.81491
G1 X154.731 Y132.746 E32.83690
G1 X154.212 Y132.903 E32.85889
G1 X153.735 Y133.158 E32.88088
G1 X153.316 Y133.502 E32.90287
G1 X152.973 Y133.920 E32.92486
G1 X152.718 Y134.398 E32.94685
G1 X152.554 Y134.939 E32.96979
G1 X152.531 Y137.286 E33.06513
G1 X109.208 Y137.286 E34.82461
G1 X109.186 Y134.939 E34.91995
G1 X109.022 Y134.398 E34.94289
G1 X108.767 Y133.920 E34.96488
G1 X108.423 Y133.502 E34.98687
G1 X108.005 Y133.158 E35.00886
G1 X107.527 Y132.903 E35.03085
G1 X107.009 Y132.746 E35.05284
G1 X106.470 Y132.693 E35.07483
G1 X105.931 Y132.746 E35.09682
G1 X105.413 Y132.903 E35.11881
G1 X104.936 Y133.158 E35.14080
G1 X104.517 Y133.502 E35.16279
G1 X104.174 Y133.920 E35.18478
G1 X103.918 Y134.398 E35.20677
G1 X103.754 Y134.939 E35.22971
G1 X103.732 Y137.286 E35.32505
G1 X91.685 Y137.286 E35.81431
G1 X91.825 Y137.612 F7800.000
G1 F2400
G1 X90.804 Y139.628 E35.90609
G1 X48.833 Y139.628 E37.61068
G1 X48.840 Y70.372 E40.42336
G1 X56.049 Y70.372 E40.71616
G1 X56.073 Y72.847 E40.81669
G1 X56.214 Y73.313 E40.83643
G1 X56.439 Y73.734 E40.85581
G1 X56.742 Y74.103 E40.87520
G1 X57.111 Y74.405 E40.89458
G1 X57.532 Y74.630 E40.91397
G1 X57.988 Y74.769 E40.93335
G1 X58.463 Y74.816 E40.95274
G1 X58.938 Y74.769 E40.97213
G1 X59.395 Y74.630 E40.99151
G1 X59.816 Y74.405 E41.01090
G1 X60.185 Y74.103 E41.03028
G1 X60.488 Y73.734 E41.04967
G1 X60.713 Y73.313 E41.06905
G1 X60.854 Y72.847 E41.08879
G1 X60.878 Y70.372 E41.18932
G1 X104.056 Y70.372 E42.94292
G1 X104.079 Y72.847 E43.04345
G1 X104.221 Y73.313 E43.06319
G1 X104.446 Y73.734 E43.08258
G1 X104.748 Y74.103 E43.10196
G1 X105.117 Y74.405 E43.12135
G1 X105.538 Y74.630 E43.14073
G1 X105.651 Y74.665 E43.14551
G1 X105.995 Y74.769 E43.16012
G1 X106.470 Y74.816 E43.17950
G1 X106.945 Y74.769 E43.19889
G1 X107.402 Y74.630 E43.21827
G1 X107.823 Y74.405 E43.23766
G1 X108.192 Y74.103 E43.25704
G1 X108.495 Y73.734 E43.27643
G1 X108.720 Y73.313 E43.29582
G1 X108.861 Y72.847 E43.31556
G1 X108.884 Y70.372 E43.41609
G1 X152.855 Y70.372 E45.20188
G1 X152.879 Y72.847 E45.30241
G1 X153.020 Y73.313 E45.32215
G1 X153.245 Y73.734 E45.34154
G1 X153.548 Y74.103 E45.36092
G1 X153.917 Y74.405 E45.38031
G1 X154.338 Y74.630 E45.39969
G1 X154.794 Y74.769 E45.41908
G1 X155.269 Y74.816 E45.43846
