; generated by Slic3r 1.3.0 on 2023-07-06 at 18:56:01

; external perimeters extrusion width = 0.44mm (4.26mm^3/s)
; perimeters extrusion width = 0.51mm (5.03mm^3/s)
; infill extrusion width = 0.50mm (4.93mm^3/s)
; solid infill extrusion width = 0.51mm (5.03mm^3/s)
; top infill extrusion width = 0.51mm (5.03mm^3/s)

M107
M190 S60 ; set bed temperature and wait for it to be reached
M104 S230 ; set temperature
G28 ; home all axes

; Filament gcode

M109 S230 ; set temperature and wait for it to be reached
G21 ; set units to millimeters
G90 ; use absolute coordinates
M82 ; use absolute distances for extrusion
G92 E0
G1 E-4.00000 F2400.00000
G92 E0
G1 Z0.300 F7800.000
G1 X44.120 Y64.272 F7800.000
G1 E4.00000 F2400.00000
G1 F2400
G1 X47.360 Y63.243 E4.13806
G1 X73.777 Y61.618 E5.21294
G1 X74.205 Y61.605 E5.23035
G1 X150.442 Y61.605 E8.32658
G1 X151.374 Y61.668 E8.36449
G1 X163.437 Y63.292 E8.85884
G1 X165.683 Y63.996 E8.95444
G1 X167.568 Y65.406 E9.05005
G1 X168.877 Y67.363 E9.14565
G1 X169.482 Y70.207 E9.26375
G1 X169.480 Y137.865 E12.01156
G1 X169.082 Y140.186 E12.10716
G1 X167.936 Y142.242 E12.20277
G1 X166.171 Y143.800 E12.29837
G1 X163.059 Y144.820 E12.43138
G1 X122.510 Y148.064 E14.08348
G1 X122.021 Y148.086 E14.10333
G1 X90.232 Y148.395 E15.39447
G1 X47.781 Y148.395 E17.11851
G1 X45.461 Y147.998 E17.21412
G1 X43.405 Y146.851 E17.30972
G1 X41.847 Y145.087 E17.40533
G1 X40.965 Y142.904 E17.50093
G1 X40.804 Y141.417 E17.56168
G1 X40.812 Y70.206 E20.45377
G1 X41.209 Y67.886 E20.54938
G1 X42.355 Y65.830 E20.64498
G1 X44.075 Y64.312 E20.73815
G1 X44.432 Y64.465 F7800.000
G1 F2400
G1 X47.380 Y63.568 E20.86329
G1 X74.205 Y61.931 E21.95476
G1 X150.442 Y61.931 E25.05100
G1 X151.330 Y61.990 E25.08713
G1 X163.393 Y63.615 E25.58148
G1 X165.584 Y64.311 E25.67481
G1 X167.406 Y65.710 E25.76814
G1 X168.644 Y67.646 E25.86147
G1 X169.157 Y70.207 E25.96754
G1 X169.154 Y137.865 E28.71534
G1 X168.757 Y140.129 E28.80867
G1 X167.613 Y142.122 E28.90200
G1 X165.860 Y143.607 E28.99534
G1 X163.033 Y144.495 E29.11566
G1 X122.484 Y147.739 E30.76775
G1 X122.018 Y147.760 E30.78668
G1 X90.232 Y148.069 E32.07769
G1 X47.781 Y148.069 E33.80173
G1 X45.518 Y147.672 E33.89506
G1 X43.524 Y146.529 E33.98839
G1 X42.039 Y144.775 E34.08172
G1 X41.240 Y142.620 E34.17505
G1 X41.130 Y141.417 E34.22412
G1 X41.137 Y70.206 E37.11622
G1 X41.534 Y67.943 E37.20955
G1 X42.678 Y65.950 E37.30288
G1 X44.386 Y64.503 E37.39377
G1 X44.742 Y64.663 F7800.000
G1 F2400
G1 X47.400 Y63.893 E37.50614
G1 X74.205 Y62.256 E38.59680
G1 X150.442 Y62.256 E41.69304
G1 X151.287 Y62.313 E41.72741
G1 X163.350 Y63.938 E42.22175
G1 X165.482 Y64.626 E42.31275
G1 X167.241 Y66.014 E42.40375
G1 X168.406 Y67.928 E42.49475
G1 X168.831 Y70.207 E42.58893
G1 X168.828 Y137.865 E45.33674
G1 X168.432 Y140.071 E45.42773
G1 X167.291 Y141.999 E45.51873
G1 X165.549 Y143.409 E45.60973
G1 X163.007 Y144.171 E45.71750
G1 X122.458 Y147.414 E47.36960
G1 X122.015 Y147.434 E47.38760
G1 X90.232 Y147.744 E48.67849
G1 X47.781 Y147.744 E50.40252
G1 X45.576 Y147.347 E50.49352
G1 X43.647 Y146.206 E50.58452
G1 X42.238 Y144.464 E50.67552
G1 X41.456 Y141.417 E50.80329
G1 X41.463 Y70.206 E53.69538
G1 X41.860 Y68.001 E53.78638
G1 X43.001 Y66.073 E53.87738
G1 X44.696 Y64.701 E53.96595
G1 E49.96595 F2400.00000
G92 E0
G1 X60.916 Y133.944 F7800.000
G1 E4.00000 F2400.00000
G1 F2400
G1 X60.858 Y134.534 E4.02407
G1 X60.682 Y135.114 E4.04867
G1 X60.397 Y135.648 E4.07326
G1 X60.013 Y136.116 E4.09786
G1 X59.545 Y136.500 E4.12245
G1 X59.010 Y136.786 E4.14705
G1 X58.431 Y136.962 E4.17164
G1 X57.828 Y137.021 E4.19624
G1 X57.226 Y136.962 E4.22084
G1 X56.646 Y136.786 E4.24543
G1 X56.112 Y136.500 E4.27003
G1 X55.644 Y136.116 E4.29462
G1 X55.260 Y135.648 E4.31922
G1 X54.974 Y135.114 E4.34381
G1 X54.798 Y134.534 E4.36841
G1 X54.740 Y133.941 E4.39261
G1 X54.796 Y133.205 E4.42260
G1 X54.974 Y132.616 E4.44759
G1 X55.260 Y132.082 E4.47218
G1 X55.644 Y131.614 E4.49678
G1 X56.112 Y131.230 E4.52138
G1 X56.646 Y130.944 E4.54597
G1 X57.226 Y130.768 E4.57057
G1 X57.771 Y130.715 E4.59284
G1 X58.423 Y130.766 E4.61938
G1 X59.010 Y130.944 E4.64432
G1 X59.545 Y131.230 E4.66891
G1 X60.013 Y131.614 E4.69351
G1 X60.397 Y132.082 E4.71810
G1 X60.682 Y132.616 E4.74270
G1 X60.867 Y133.226 E4.76856
G1 X60.912 Y133.885 E4.79539
G1 X60.590 Y133.940 F7800.000
G1 F2400
G1 X60.537 Y134.471 E4.81706
G1 X60.380 Y134.989 E4.83905
G1 X60.125 Y135.466 E4.86104
G1 X59.781 Y135.885 E4.88303
G1 X59.363 Y136.228 E4.90502
G1 X58.885 Y136.483 E4.92701
G1 X58.367 Y136.641 E4.94900
G1 X57.828 Y136.694 E4.97099
G1 X57.289 Y136.641 E4.99298
G1 X56.771 Y136.483 E5.01497
G1 X56.294 Y136.228 E5.03696
G1 X55.875 Y135.885 E5.05895
G1 X55.532 Y135.466 E5.08094
G1 X55.276 Y134.989 E5.10293
G1 X55.119 Y134.471 E5.12492
G1 X55.067 Y133.938 E5.14667
G1 X55.118 Y133.265 E5.17406
G1 X55.276 Y132.741 E5.19629
G1 X55.532 Y132.264 E5.21828
G1 X55.875 Y131.845 E5.24027
G1 X56.294 Y131.502 E5.26226
G1 X56.771 Y131.247 E5.28425
G1 X57.289 Y131.089 E5.30624
G1 X57.774 Y131.042 E5.32604
G1 X58.362 Y131.088 E5.34998
G1 X58.885 Y131.247 E5.37218
G1 X59.363 Y131.502 E5.39417
G1 X59.781 Y131.845 E5.41616
G1 X60.125 Y132.264 E5.43815
G1 X60.380 Y132.741 E5.46014
G1 X60.545 Y133.285 E5.48320
G1 X60.585 Y133.880 E5.50742
G1 X60.263 Y133.935 F7800.000
G1 F2400
G1 X60.216 Y134.407 E5.52669
G1 X60.078 Y134.863 E5.54607
G1 X59.853 Y135.284 E5.56546
G1 X59.550 Y135.653 E5.58484
G1 X59.181 Y135.956 E5.60423
G1 X58.760 Y136.181 E5.62361
G1 X58.303 Y136.320 E5.64300
G1 X57.828 Y136.367 E5.66238
G1 X57.353 Y136.320 E5.68177
G1 X56.896 Y136.181 E5.70115
G1 X56.475 Y135.956 E5.72054
G1 X56.107 Y135.653 E5.73992
G1 X55.804 Y135.284 E5.75931
G1 X55.579 Y134.863 E5.77869
G1 X55.440 Y134.407 E5.79808
G1 X55.394 Y133.934 E5.81737
G1 X55.440 Y133.325 E5.84215
G1 X55.579 Y132.867 E5.86163
G1 X55.804 Y132.446 E5.88102
G1 X56.107 Y132.077 E5.90040
G1 X56.475 Y131.774 E5.91979
G1 X56.896 Y131.549 E5.93917
G1 X57.353 Y131.410 E5.95856
G1 X57.778 Y131.368 E5.97588
G1 X58.301 Y131.410 E5.99722
G1 X58.760 Y131.549 E6.01668
G1 X59.181 Y131.774 E6.03606
G1 X59.550 Y132.077 E6.05545
G1 X59.853 Y132.446 E6.07484
G1 X60.078 Y132.867 E6.09422
G1 X60.223 Y133.344 E6.11447
G1 X60.259 Y133.875 E6.13609
G1 X60.263 Y133.935 F7800.000
G1 E2.13609 F2400.00000
G92 E0
G1 X55.819 Y122.831 F7800.000
G1 E4.00000 F2400.00000
G1 F2400
G1 X50.262 Y122.831 E4.22569
G1 X50.262 Y113.392 E4.60903
G1 X55.819 Y113.392 E4.83472
G1 X55.819 Y122.771 E5.21562
G1 X55.493 Y122.505 F7800.000
G1 F2400
G1 X50.588 Y122.505 E5.41486
G1 X50.588 Y113.718 E5.77175
G1 X55.493 Y113.718 E5.97099
G1 X55.493 Y122.445 E6.32545
G1 X55.168 Y122.180 F7800.000
G1 F2400
G1 X50.913 Y122.180 E6.49824
G1 X50.913 Y114.043 E6.82868
G1 X55.168 Y114.043 E7.00147
G1 X55.168 Y122.120 E7.32948
G1 X55.232 Y122.574 F7800.000
G1 E3.32948 F2400.00000
G92 E0
G1 X67.368 Y122.180 F7800.000
G1 E4.00000 F2400.00000
G1 F2400
G1 X67.368 Y78.667 E5.76720
G1 X67.507 Y78.084 E5.79153
G1 X67.916 Y77.548 E5.81893
G1 X68.464 Y77.183 E5.84566
G1 X69.101 Y76.973 E5.87290
G1 X69.681 Y76.912 E5.89659
G1 X154.959 Y76.912 E9.35999
G1 X155.564 Y76.976 E9.38470
G1 X156.180 Y77.185 E9.41111
G1 X156.724 Y77.548 E9.43767
G1 X157.134 Y78.084 E9.46506
G1 X157.272 Y78.667 E9.48940
G1 X157.272 Y130.485 E11.59391
G1 X157.134 Y131.068 E11.61825
G1 X156.724 Y131.604 E11.64565
G1 X156.180 Y131.967 E11.67220
G1 X155.564 Y132.176 E11.69861
G1 X154.959 Y132.240 E11.72333
G1 X69.681 Y132.240 E15.18672
G1 X69.076 Y132.176 E15.21144
G1 X68.455 Y131.965 E15.23806
G1 X67.903 Y131.587 E15.26522
G1 X67.507 Y131.068 E15.29176
G1 X67.368 Y130.485 E15.31610
G1 X67.368 Y122.240 E15.65097
G1 X67.694 Y122.180 F7800.000
G1 F2400
G1 X67.694 Y78.705 E17.41662
G1 X67.807 Y78.226 E17.43660
G1 X68.142 Y77.788 E17.45898
G1 X68.608 Y77.478 E17.48170
G1 X69.170 Y77.293 E17.50573
G1 X69.698 Y77.237 E17.52732
G1 X154.942 Y77.237 E20.98932
G1 X155.494 Y77.296 E21.01187
G1 X156.035 Y77.480 E21.03507
G1 X156.498 Y77.788 E21.05768
G1 X156.833 Y78.226 E21.08006
G1 X156.947 Y78.705 E21.10004
G1 X156.947 Y130.447 E23.20145
G1 X156.833 Y130.926 E23.22142
G1 X156.498 Y131.363 E23.24380
G1 X156.035 Y131.672 E23.26642
G1 X155.494 Y131.856 E23.28962
G1 X154.942 Y131.914 E23.31217
G1 X69.698 Y131.914 E26.77417
G1 X69.146 Y131.856 E26.79671
G1 X68.602 Y131.671 E26.82005
G1 X68.130 Y131.348 E26.84327
G1 X67.807 Y130.925 E26.86487
G1 X67.694 Y130.447 E26.88485
G1 X67.694 Y122.240 E27.21818
G1 X68.019 Y122.180 F7800.000
G1 F2400
G1 X68.019 Y78.743 E28.98227
G1 X68.108 Y78.369 E28.99789
G1 X68.368 Y78.029 E29.01525
G1 X68.751 Y77.774 E29.03397
G1 X69.238 Y77.613 E29.05479
G1 X69.716 Y77.563 E29.07428
G1 X154.925 Y77.563 E32.53488
G1 X155.424 Y77.616 E32.55526
G1 X155.890 Y77.774 E32.57525
G1 X156.272 Y78.029 E32.59393
G1 X156.532 Y78.369 E32.61129
G1 X156.621 Y78.743 E32.62690
G1 X156.621 Y130.409 E34.72522
G1 X156.532 Y130.783 E34.74083
G1 X156.272 Y131.123 E34.75819
G1 X155.890 Y131.378 E34.77687
G1 X155.424 Y131.536 E34.79686
G1 X154.925 Y131.589 E34.81724
G1 X69.716 Y131.589 E38.27784
G1 X69.217 Y131.536 E38.29822
G1 X68.749 Y131.377 E38.31826
G1 X68.358 Y131.109 E38.33755
G1 X68.108 Y130.783 E38.35422
G1 X68.019 Y130.409 E38.36983
G1 X68.019 Y122.240 E38.70161
G1 X67.672 Y121.981 F7800.000
G1 E34.70161 F2400.00000
G92 E0
G1 X92.301 Y137.019 F7800.000
G1 E4.00000 F2400.00000
G1 F2400
G1 X90.657 Y140.256 E4.14747
G1 X90.521 Y140.423 E4.15620
G1 X90.353 Y140.527 E4.16425
G1 X90.142 Y140.572 E4.17297
G1 X48.628 Y140.572 E5.85902
G1 X48.635 Y71.053 E8.68237
G1 X56.260 Y71.053 E8.99207
G1 X56.279 Y73.029 E9.07230
G1 X56.466 Y73.644 E9.09844
G1 X56.751 Y74.179 E9.12304
G1 X57.135 Y74.647 E9.14763
G1 X57.604 Y75.031 E9.17223
G1 X58.138 Y75.316 E9.19682
G1 X58.717 Y75.492 E9.22142
G1 X59.320 Y75.552 E9.24601
G1 X59.923 Y75.492 E9.27061
G1 X60.502 Y75.316 E9.29520
G1 X61.036 Y75.031 E9.31980
G1 X61.504 Y74.647 E9.34440
G1 X61.888 Y74.179 E9.36899
G1 X62.174 Y73.644 E9.39359
G1 X62.361 Y73.029 E9.41973
G1 X62.380 Y71.053 E9.49996
G1 X71.558 Y71.053 E9.87271
G1 X74.428 Y69.428 E10.00665
G1 X85.431 Y69.428 E10.45351
G1 X87.981 Y71.053 E10.57632
G1 X104.267 Y71.053 E11.23774
G1 X104.286 Y73.029 E11.31797
G1 X104.475 Y73.653 E11.34445
G1 X104.794 Y74.223 E11.37099
G1 X105.142 Y74.647 E11.39326
G1 X105.610 Y75.031 E11.41786
G1 X106.144 Y75.316 E11.44245
G1 X106.724 Y75.492 E11.46705
G1 X107.327 Y75.552 E11.49165
G1 X107.929 Y75.492 E11.51624
G1 X108.509 Y75.316 E11.54084
G1 X109.043 Y75.031 E11.56543
G1 X109.511 Y74.647 E11.59003
G1 X109.895 Y74.179 E11.61462
G1 X110.181 Y73.644 E11.63922
G1 X110.367 Y73.029 E11.66536
G1 X110.386 Y71.053 E11.74559
G1 X136.341 Y71.053 E12.79968
G1 X138.714 Y69.428 E12.91649
G1 X150.193 Y69.428 E13.38269
G1 X152.712 Y71.053 E13.50444
G1 X153.066 Y71.053 E13.51880
G1 X153.085 Y73.029 E13.59903
G1 X153.272 Y73.644 E13.62517
G1 X153.557 Y74.179 E13.64977
G1 X153.941 Y74.647 E13.67436
G1 X154.410 Y75.031 E13.69896
G1 X154.944 Y75.316 E13.72355
G1 X155.523 Y75.492 E13.74815
G1 X156.126 Y75.552 E13.77274
G1 X156.729 Y75.492 E13.79734
G1 X157.308 Y75.316 E13.82193
G1 X157.850 Y75.027 E13.84687
G1 X158.347 Y74.602 E13.87342
G1 X158.694 Y74.179 E13.89569
G1 X158.980 Y73.644 E13.92028
G1 X159.167 Y73.029 E13.94642
G1 X159.186 Y71.053 E14.02665
G1 X161.659 Y71.053 E14.12712
G1 X161.657 Y137.019 E16.80619
G1 X159.186 Y137.019 E16.90651
G1 X159.167 Y134.970 E16.98972
G1 X158.980 Y134.354 E17.01586
G1 X158.694 Y133.820 E17.04046
G1 X158.310 Y133.352 E17.06506
G1 X157.842 Y132.968 E17.08965
G1 X157.308 Y132.682 E17.11424
G1 X156.729 Y132.507 E17.13884
G1 X156.126 Y132.447 E17.16344
G1 X155.523 Y132.507 E17.18803
G1 X154.944 Y132.682 E17.21263
G1 X154.410 Y132.968 E17.23722
G1 X153.941 Y133.352 E17.26182
G1 X153.557 Y133.820 E17.28641
G1 X153.272 Y134.354 E17.31101
G1 X153.085 Y134.970 E17.33715
G1 X153.065 Y137.019 E17.42036
G1 X122.894 Y137.019 E18.64571
G1 X121.410 Y140.263 E18.79059
G1 X112.396 Y140.263 E19.15668
G1 X110.709 Y137.019 E19.30517
G1 X110.387 Y137.019 E19.31825
G1 X110.367 Y134.970 E19.40146
G1 X110.181 Y134.354 E19.42760
G1 X109.895 Y133.820 E19.45219
G1 X109.506 Y133.346 E19.47713
G1 X108.992 Y132.941 E19.50368
G1 X108.509 Y132.682 E19.52595
G1 X107.929 Y132.507 E19.55054
G1 X107.326 Y132.447 E19.57514
G1 X106.724 Y132.507 E19.59973
G1 X106.144 Y132.682 E19.62433
G1 X105.610 Y132.968 E19.64892
G1 X105.142 Y133.352 E19.67352
G1 X104.758 Y133.820 E19.69811
G1 X104.472 Y134.354 E19.72271
G1 X104.286 Y134.970 E19.74885
G1 X104.266 Y137.019 E19.83206
G1 X92.361 Y137.019 E20.31555
G1 X92.501 Y137.345 F7800.000
G1 F2400
G1 X90.931 Y140.434 E20.45630
G1 X90.739 Y140.672 E20.46869
G1 X90.475 Y140.834 E20.48128
G1 X90.177 Y140.897 E20.49367
G1 X48.302 Y140.897 E22.19434
G1 X48.309 Y70.728 E25.04415
G1 X56.583 Y70.728 E25.38016
G1 X56.604 Y72.979 E25.47160
G1 X56.768 Y73.519 E25.49454
G1 X57.023 Y73.997 E25.51653
G1 X57.367 Y74.415 E25.53852
G1 X57.785 Y74.759 E25.56051
G1 X58.263 Y75.014 E25.58250
G1 X58.781 Y75.171 E25.60449
G1 X59.320 Y75.224 E25.62648
G1 X59.859 Y75.171 E25.64847
G1 X60.377 Y75.014 E25.67046
G1 X60.854 Y74.759 E25.69245
G1 X61.273 Y74.415 E25.71444
G1 X61.616 Y73.997 E25.73643
G1 X61.872 Y73.519 E25.75842
G1 X62.036 Y72.979 E25.78136
G1 X62.057 Y70.728 E25.87279
G1 X71.472 Y70.728 E26.25516
G1 X74.342 Y69.103 E26.38911
G1 X85.526 Y69.103 E26.84331
G1 X88.076 Y70.728 E26.96611
G1 X104.589 Y70.728 E27.63677
G1 X104.611 Y72.979 E27.72820
G1 X104.776 Y73.524 E27.75135
G1 X105.064 Y74.039 E27.77529
G1 X105.373 Y74.415 E27.79509
G1 X105.792 Y74.759 E27.81708
G1 X106.270 Y75.014 E27.83907
G1 X106.788 Y75.171 E27.86106
G1 X107.327 Y75.224 E27.88305
G1 X107.865 Y75.171 E27.90504
G1 X108.384 Y75.014 E27.92703
G1 X108.861 Y74.759 E27.94902
G1 X109.280 Y74.415 E27.97101
G1 X109.623 Y73.997 E27.99300
G1 X109.878 Y73.519 E28.01499
G1 X110.042 Y72.979 E28.03793
G1 X110.064 Y70.728 E28.12937
G1 X136.240 Y70.728 E29.19246
G1 X138.613 Y69.103 E29.30927
G1 X150.289 Y69.103 E29.78346
G1 X152.808 Y70.728 E29.90521
G1 X153.389 Y70.728 E29.92878
G1 X153.410 Y72.979 E30.02021
G1 X153.574 Y73.519 E30.04315
G1 X153.829 Y73.997 E30.06514
G1 X154.173 Y74.415 E30.08713
G1 X154.591 Y74.759 E30.10912
G1 X155.069 Y75.014 E30.13111
G1 X155.587 Y75.171 E30.15310
G1 X156.126 Y75.224 E30.17509
G1 X156.665 Y75.171 E30.19708
G1 X157.183 Y75.014 E30.21907
G1 X157.665 Y74.756 E30.24127
G1 X158.113 Y74.374 E30.26521
G1 X158.422 Y73.997 E30.28501
G1 X158.678 Y73.519 E30.30700
G1 X158.842 Y72.979 E30.32994
G1 X158.863 Y70.728 E30.42137
G1 X161.985 Y70.728 E30.54816
G1 X161.982 Y137.345 E33.25368
G1 X158.864 Y137.345 E33.38033
G1 X158.842 Y135.020 E33.47474
G1 X158.678 Y134.479 E33.49768
G1 X158.422 Y134.002 E33.51967
G1 X158.079 Y133.583 E33.54166
G1 X157.660 Y133.240 E33.56365
G1 X157.183 Y132.985 E33.58564
G1 X156.665 Y132.827 E33.60763
G1 X156.126 Y132.774 E33.62962
G1 X155.587 Y132.827 E33.65161
G1 X155.069 Y132.985 E33.67360
G1 X154.591 Y133.240 E33.69559
G1 X154.173 Y133.583 E33.71758
G1 X153.829 Y134.002 E33.73957
G1 X153.574 Y134.479 E33.76156
G1 X153.410 Y135.020 E33.78450
G1 X153.388 Y137.345 E33.87892
G1 X123.103 Y137.345 E35.10888
G1 X121.619 Y140.588 E35.25375
G1 X112.198 Y140.588 E35.63637
G1 X110.511 Y137.345 E35.78486
G1 X110.064 Y137.345 E35.80300
G1 X110.042 Y135.020 E35.89741
G1 X109.878 Y134.479 E35.92036
G1 X109.623 Y134.002 E35.94235
G1 X109.276 Y133.579 E35.96455
G1 X108.813 Y133.214 E35.98849
G1 X108.384 Y132.985 E36.00828
G1 X107.865 Y132.827 E36.03027
G1 X107.327 Y132.774 E36.05226
G1 X106.788 Y132.827 E36.07425
G1 X106.270 Y132.985 E36.09624
G1 X105.792 Y133.240 E36.11823
G1 X105.373 Y133.583 E36.14022
G1 X105.030 Y134.002 E36.16221
G1 X104.775 Y134.479 E36.18420
G1 X104.611 Y135.020 E36.20715
G1 X104.589 Y137.345 E36.30156
G1 X92.561 Y137.345 E36.79003
G1 X92.701 Y137.670 F7800.000
G1 F2400
G1 X91.206 Y140.612 E36.92406
G1 X90.957 Y140.920 E36.94012
G1 X90.598 Y141.141 E36.95726
G1 X90.211 Y141.223 E36.97331
G1 X47.976 Y141.223 E38.68860
G1 X47.983 Y70.402 E41.56485
G1 X56.905 Y70.402 E41.92719
G1 X56.929 Y72.929 E42.02983
